public/luts/bleach-bypass.cube
# KomfyEdit 3D LUT: bleach-bypass
TITLE "bleach-bypass"
LUT_3D_SIZE 9
DOMAIN_MIN 0.0 0.0 0.0
DOMAIN_MAX 1.0 1.0 1.0
0.000000 0.000000 0.000000
0.027576 0.008821 0.008821
0.065460 0.018750 0.018750
0.116179 0.029899 0.029899
0.181779 0.042384 0.042384
0.262948 0.056323 0.056323
0.358045 0.071833 0.071833
0.462588 0.089028 0.089028
0.569772 0.108010 0.108010
0.018364 0.039312 0.018364
0.052897 0.052897 0.029466
0.099526 0.068026 0.041899
0.160522 0.084814 0.055783
0.237085 0.103366 0.071233
0.328356 0.123776 0.088364
0.430705 0.146121 0.107279
0.537894 0.170452 0.128069
0.642409 0.196792 0.150807
0.041417 0.098825 0.041417
0.084165 0.118789 0.055245
0.140672 0.140672 0.070636
0.212557 0.164532 0.087703
0.299677 0.190397 0.106550
0.399264 0.218264 0.127270
0.505772 0.248085 0.149935
0.611870 0.279769 0.174592
0.710340 0.313177 0.201257
0.070041 0.184114 0.070041
0.122209 0.211511 0.087044
0.189410 0.240877 0.105824
0.272133 0.272133 0.126474
0.368455 0.305149 0.149066
0.473612 0.339751 0.173649
0.580635 0.375712 0.200241
0.682055 0.412764 0.228821
0.771870 0.450602 0.259328
0.105101 0.297210 0.105101
0.167669 0.331456 0.125680
0.245826 0.367119 0.148200
0.338452 0.403940 0.172709
0.441622 0.441622 0.199227
0.548888 0.479837 0.227735
0.652713 0.518238 0.258173
0.746480 0.556470 0.290435
0.826008 0.594187 0.324365
0.147336 0.432672 0.147336
0.220832 0.470792 0.171772
0.309411 0.509181 0.198216
0.410007 0.547485 0.226651
0.516826 0.585353 0.257020
0.622453 0.622453 0.289217
0.719795 0.658476 0.323089
0.803847 0.693151 0.358434
0.872439 0.726252 0.395002
0.197207 0.576477 0.197207
0.281464 0.613787 0.225571
0.378961 0.650089 0.255870
0.484655 0.685105 0.288002
0.591437 0.718595 0.321815
0.691902 0.750369 0.357110
0.780286 0.780286 0.393639
0.853567 0.808252 0.431114
0.911395 0.834219 0.469215
0.254722 0.710842 0.254722
0.348662 0.743036 0.286789
0.452584 0.773402 0.320544
0.559844 0.801834 0.355788
0.662908 0.828274 0.392276
0.755355 0.852706 0.429722
0.833299 0.875150 0.467806
0.895655 0.895655 0.506187
0.943480 0.914298 0.544510
0.319274 0.822217 0.319274
0.420818 0.847123 0.354468
0.527867 0.870032 0.390915
0.632946 0.890989 0.428331
0.729107 0.910063 0.466398
0.811622 0.927345 0.504773
0.878608 0.942938 0.543105
0.930581 0.956953 0.581041
0.969508 0.969508 0.618245
0.003240 0.003240 0.020687
0.032070 0.012470 0.032070
0.071556 0.022851 0.044811
0.124200 0.034495 0.059027
0.191921 0.047520 0.074836
0.275144 0.062045 0.092349
0.371853 0.078184 0.111668
0.477192 0.096049 0.132879
0.584146 0.115738 0.156049
0.022447 0.044317 0.044317
0.058477 0.058477 0.058477
0.106942 0.074225 0.074225
0.170023 0.091673 0.091673
0.248695 0.110924 0.110924
0.341752 0.132064 0.132064
0.445174 0.155162 0.155162
0.552446 0.180258 0.180258
0.656032 0.207362 0.207362
0.046512 0.106215 0.073616
0.091000 0.126902 0.091000
0.149534 0.149534 0.110183
0.223552 0.174156 0.131252
0.312597 0.200788 0.154277
0.413507 0.229407 0.179299
0.520410 0.259952 0.206329
0.625867 0.292312 0.235338
0.722832 0.326331 0.266255
0.076320 0.194324 0.109444
0.130443 0.222479 0.130443
0.199772 0.252577 0.153394
0.284522 0.284522 0.178343
0.382388 0.318166 0.205299
0.488241 0.353315 0.234237
0.594927 0.389726 0.265085
0.695068 0.427116 0.297727
0.782982 0.465167 0.331996
0.112723 0.310085 0.152515
0.177390 0.344899 0.177390
0.257641 0.381037 0.204272
0.351998 0.418223 0.233138
0.456148 0.456148 0.263917
0.563389 0.494476 0.296496
0.666191 0.532854 0.330709
0.758201 0.570930 0.366344
0.835628 0.608362 0.403144
0.156416 0.447152 0.203248
0.232041 0.485416 0.232041
0.322501 0.523814 0.262752
0.424338 0.561993 0.295267
0.531445 0.599607 0.329424
0.636330 0.636330 0.365011
0.732096 0.671868 0.401773
0.814109 0.705968 0.439414
0.880575 0.738418 0.477607
0.207788 0.590802 0.261590
0.294041 0.627763 0.294041
0.393010 0.663605 0.328141
0.499298 0.698065 0.363679
0.605637 0.730921 0.400403
0.704741 0.762001 0.438017
0.791183 0.791183 0.476196
0.862328 0.818389 0.514594
0.918140 0.843590 0.552858
0.266738 0.723324 0.326859
0.362349 0.754836 0.362349
0.467156 0.784474 0.399034
0.574283 0.812151 0.436621
0.676233 0.837826 0.474785
0.766870 0.861495 0.513182
0.842698 0.883193 0.551456
0.902978 0.902978 0.589260
0.948982 0.920935 0.626261
0.332528 0.831950 0.397667
0.435226 0.856091 0.435226
0.542457 0.878249 0.473375
0.646694 0.898479 0.511769
0.741213 0.916859 0.550055
0.821664 0.933483 0.587882
0.886533 0.948461 0.624918
0.936594 0.961905 0.660858
0.973935 0.973935 0.695434
0.006630 0.006630 0.047287
0.036761 0.016286 0.061785
0.077896 0.027135 0.077896
0.132502 0.039292 0.095731
0.202355 0.052875 0.115388
0.287595 0.068002 0.136952
0.385824 0.084786 0.160484
0.491827 0.103336 0.186021
0.598409 0.123743 0.213561
0.026713 0.049536 0.077274
0.064288 0.064288 0.095043
0.114631 0.080671 0.114631
0.179815 0.098795 0.136124
0.260575 0.118757 0.159583
0.355345 0.140637 0.185046
0.459716 0.164493 0.212513
0.566928 0.190356 0.241947
0.669462 0.218219 0.273267
0.051824 0.113877 0.113877
0.098097 0.135299 0.135299
0.158685 0.158685 0.158685
0.234830 0.184073 0.184073
0.325741 0.211467 0.211467
0.427864 0.240831 0.240831
0.535020 0.272083 0.272083
0.639703 0.305097 0.305097
0.735070 0.339696 0.339696
0.082849 0.204825 0.157789
0.138960 0.233729 0.183104
0.210424 0.264546 0.210424
0.297159 0.297159 0.239716
0.396472 0.331402 0.270901
0.502886 0.367063 0.303853
0.609095 0.403883 0.338398
0.707850 0.441564 0.374311
0.793808 0.479778 0.411327
0.120620 0.323187 0.209384
0.187403 0.358535 0.238604
0.269722 0.395107 0.269722
0.365729 0.432614 0.302612
0.470733 0.470733 0.337101
0.577806 0.509121 0.372969
0.679465 0.547426 0.409950
0.769648 0.585296 0.447740
0.844956 0.622396 0.486008
0.165788 0.461703 0.268545
0.243530 0.500059 0.301372
0.335806 0.538415 0.335806
0.438769 0.576419 0.371628
0.546022 0.613730 0.408573
0.650034 0.650034 0.446339
0.744138 0.685052 0.484596
0.824079 0.718544 0.522995
0.888431 0.750322 0.561182
0.218657 0.605007 0.334513
0.306858 0.641576 0.370288
0.407197 0.676920 0.407197
0.513942 0.710791 0.444939
0.619700 0.742988 0.483184
0.717342 0.773356 0.521584
0.801791 0.801791 0.559785
0.870803 0.828235 0.597441
0.924632 0.852670 0.634224
0.279015 0.735552 0.405823
0.376210 0.766363 0.443539
0.481772 0.795261 0.481772
0.588624 0.822177 0.520173
0.689345 0.847086 0.558387
0.778106 0.869998 0.596069
0.851806 0.890958 0.632890
0.910035 0.910035 0.668553
0.954261 0.927320 0.702798
0.345987 0.841390 0.480360
0.449720 0.864771 0.518761
0.556989 0.886186 0.556989
0.660258 0.905700 0.594696
0.753054 0.923399 0.631554
0.831413 0.939382 0.667265
0.894181 0.953761 0.701566
0.942370 0.966652 0.734244
0.978173 0.978173 0.765132
0.010178 0.010178 0.081013
0.041656 0.020276 0.099173
0.084487 0.031609 0.119171
0.141090 0.044296 0.141090
0.213077 0.058454 0.164986
0.300290 0.074200 0.190888
0.399943 0.091645 0.218791
0.506473 0.110893 0.248647
0.612544 0.132030 0.280364
0.031169 0.054975 0.118402
0.070336 0.070336 0.140249
0.122597 0.087371 0.164071
0.189900 0.106185 0.189900
0.272721 0.126869 0.217730
0.369119 0.149497 0.247515
0.474312 0.174117 0.279166
0.581322 0.200745 0.312544
0.682684 0.229361 0.347461
0.057359 0.121816 0.163160
0.105460 0.143981 0.188914
0.168128 0.168128 0.216671
0.246385 0.194282 0.246385
0.339097 0.222434 0.277970
0.442317 0.252529 0.311287
0.549584 0.284471 0.346152
0.653363 0.318113 0.382331
0.747047 0.353260 0.419549
0.089633 0.215614 0.215614
0.147765 0.245258 0.245258
0.221363 0.276776 0.276776
0.310033 0.310033 0.310033
0.410691 0.344845 0.344845
0.517527 0.380980 0.380980
0.623121 0.418165 0.418165
0.720390 0.456089 0.456089
0.804346 0.494416 0.494416
0.128798 0.336503 0.275585
0.197708 0.372350 0.308780
0.282061 0.409314 0.343539
0.379630 0.447093 0.379630
0.485357 0.485357 0.416782
0.592120 0.523755 0.454685
0.692522 0.561934 0.493003
0.780815 0.599549 0.531386
0.853993 0.636274 0.569480
0.175451 0.476304 0.342235
0.255291 0.514703 0.378282
0.349314 0.552965 0.415400
0.453281 0.590744 0.453281
0.560538 0.627707 0.491590
0.663551 0.663551 0.529977
0.755913 0.698013 0.568088
0.833756 0.730871 0.605580
0.896012 0.761954 0.642131
0.229811 0.619077 0.414019
0.319904 0.655210 0.451878
0.421506 0.690020 0.490177
0.528567 0.723274 0.528567
0.633609 0.754789 0.566695
0.729693 0.784430 0.604215
0.812110 0.812110 0.640807
0.878994 0.837788 0.676180
0.930875 0.861460 0.710085
0.291544 0.747519 0.488764
0.390230 0.777611 0.527158
0.496412 0.805760 0.565301
0.602849 0.831911 0.602849
0.702230 0.856055 0.639480
0.789058 0.878216 0.674903
0.860625 0.898449 0.708866
0.916832 0.916832 0.741165
0.959325 0.933459 0.771643
0.359638 0.850539 0.563906
0.464281 0.873164 0.601482
0.571445 0.893846 0.638153
0.673624 0.912657 0.673624
0.764623 0.929689 0.707645
0.840869 0.945047 0.740008
0.901557 0.958845 0.770555
0.947916 0.971200 0.799177
0.982230 0.982230 0.825811
0.013890 0.013890 0.123019
0.046762 0.024445 0.145294
0.091334 0.036280 0.169554
0.149965 0.049514 0.195823
0.224086 0.064264 0.224086
0.313221 0.080645 0.254289
0.414193 0.098766 0.286332
0.521110 0.118725 0.320064
0.626534 0.140601 0.355289
0.035821 0.060641 0.168626
0.076627 0.076627 0.194821
0.130844 0.094329 0.223011
0.200276 0.113846 0.253144
0.285122 0.135264 0.285122
0.383059 0.158647 0.318795
0.488942 0.184033 0.353970
0.595608 0.211423 0.390401
0.695686 0.240784 0.427806
0.063124 0.130036 0.221939
0.113095 0.152951 0.252002
0.177863 0.177863 0.283914
0.258213 0.204782 0.317529
0.352652 0.233683 0.352652
0.456846 0.264497 0.389042
0.564081 0.297107 0.426416
0.666832 0.331348 0.464458
0.758756 0.367007 0.502827
0.096677 0.226689 0.282709
0.156859 0.257060 0.316264
0.232585 0.289260 0.351335
0.323134 0.323134 0.387684
0.425027 0.358480 0.425027
0.532145 0.395050 0.463051
0.636991 0.432555 0.501413
0.732679 0.470674 0.539763
0.814593 0.509062 0.577748
0.137259 0.350021 0.350021
0.208303 0.386327 0.386327
0.294650 0.423639 0.423639
0.393686 0.461644 0.461644
0.500000 0.500000 0.500000
0.606314 0.538356 0.538356
0.705350 0.576361 0.576361
0.791697 0.613673 0.613673
0.862741 0.649979 0.649979
0.185407 0.490938 0.422252
0.267321 0.529326 0.460237
0.363009 0.567445 0.498587
0.467855 0.604950 0.536949
0.574973 0.641520 0.574973
0.676866 0.676866 0.612316
0.767415 0.710740 0.648665
0.843141 0.742940 0.683736
0.903323 0.773311 0.717291
0.241244 0.632993 0.497173
0.333168 0.668652 0.535542
0.435919 0.702893 0.573584
0.543154 0.735503 0.610958
0.647348 0.766317 0.647348
0.741787 0.795218 0.682471
0.822137 0.822137 0.716086
0.886905 0.847049 0.747998
0.936876 0.869964 0.778061
0.304314 0.759216 0.572194
0.404392 0.788577 0.609599
0.511058 0.815967 0.646030
0.616941 0.841353 0.681205
0.714878 0.864736 0.714878
0.799724 0.886154 0.746856
0.869156 0.905671 0.776989
0.923373 0.923373 0.805179
0.964179 0.939359 0.831374
0.373466 0.859399 0.644711
0.478890 0.881275 0.679936
0.585807 0.901234 0.713668
0.686779 0.919355 0.745711
0.775914 0.935736 0.775914
0.850035 0.950486 0.804177
0.908666 0.963720 0.830446
0.953238 0.975555 0.854706
0.986110 0.986110 0.876981
0.017770 0.017770 0.174189
0.052084 0.028800 0.200823
0.098443 0.041155 0.229445
0.159131 0.054953 0.259992
0.235377 0.070311 0.292355
0.326376 0.087343 0.326376
0.428555 0.106154 0.361847
0.535719 0.126836 0.398518
0.640362 0.149461 0.436094
0.040675 0.066541 0.228357
0.083168 0.083168 0.258835
0.139375 0.101551 0.291134
0.210942 0.121784 0.325097
0.297770 0.143945 0.360520
0.397151 0.168089 0.397151
0.503588 0.194240 0.434699
0.609770 0.222389 0.472842
0.708456 0.252481 0.511236
0.069125 0.138540 0.289915
0.121006 0.162212 0.323820
0.187890 0.187890 0.359193
0.270307 0.215570 0.395785
0.366391 0.245211 0.433305
0.471433 0.276726 0.471433
0.578494 0.309980 0.509823
0.680096 0.344790 0.548122
0.770189 0.380923 0.585981
0.103988 0.238046 0.357869
0.166244 0.269129 0.394420
0.244087 0.301987 0.431912
0.336449 0.336449 0.470023
0.439462 0.372293 0.508410
0.546719 0.409256 0.546719
0.650686 0.447035 0.584600
0.744709 0.485297 0.621718
0.824549 0.523696 0.657765
0.146007 0.363726 0.430520
0.219185 0.400451 0.468614
0.307478 0.438066 0.506997
0.407880 0.476245 0.545315
0.514643 0.514643 0.583218
0.620370 0.552907 0.620370
0.717939 0.590686 0.656461
0.802292 0.627650 0.691220
0.871202 0.663497 0.724415
0.195654 0.505584 0.505584
0.279610 0.543911 0.543911
0.376879 0.581835 0.581835
0.482473 0.619020 0.619020
0.589309 0.655155 0.655155
0.689967 0.689967 0.689967
0.778637 0.723224 0.723224
0.852235 0.754742 0.754742
0.910367 0.784386 0.784386
0.252953 0.646740 0.580451
0.346637 0.681887 0.617669
0.450416 0.715529 0.653848
0.557683 0.747471 0.688713
0.660903 0.777566 0.722030
0.753615 0.805718 0.753615
0.831872 0.831872 0.783329
0.894540 0.856019 0.811086
0.942641 0.878184 0.836840
0.317316 0.770639 0.652539
0.418678 0.799255 0.687456
0.525688 0.825883 0.720834
0.630881 0.850503 0.752485
0.727279 0.873131 0.782270
0.810100 0.893815 0.810100
0.877403 0.912629 0.835929
0.929664 0.929664 0.859751
0.968831 0.945025 0.881598
0.387456 0.867970 0.719636
0.493527 0.889107 0.751353
0.600057 0.908355 0.781209
0.699710 0.925800 0.809112
0.786923 0.941546 0.835014
0.858910 0.955704 0.858910
0.915513 0.968391 0.880829
0.958344 0.979724 0.900827
0.989822 0.989822 0.918987
0.021827 0.021827 0.234868
0.057630 0.033348 0.265756
0.105819 0.046239 0.298434
0.168587 0.060618 0.332735
0.246946 0.076601 0.368446
0.339742 0.094300 0.405304
0.443011 0.113814 0.443011
0.550280 0.135229 0.481239
0.654013 0.158610 0.519640
0.045739 0.072680 0.297202
0.089965 0.089965 0.331447
0.148194 0.109042 0.367110
0.221894 0.130002 0.403931
0.310655 0.152914 0.441613
0.411376 0.177823 0.479827
0.518228 0.204739 0.518228
0.623790 0.233637 0.556461
0.720985 0.264448 0.594177
0.075368 0.147330 0.365776
0.129197 0.171765 0.402559
0.198209 0.198209 0.440215
0.282658 0.226644 0.478416
0.380300 0.257012 0.516816
0.486058 0.289209 0.555061
0.592803 0.323080 0.592803
0.693142 0.358424 0.629712
0.781343 0.394993 0.665487
0.111569 0.249678 0.438818
0.175921 0.281456 0.477005
0.255862 0.314948 0.515404
0.349966 0.349966 0.553661
0.453978 0.386270 0.591427
0.561231 0.423581 0.628372
0.664194 0.461585 0.664194
0.756470 0.499941 0.698628
0.834212 0.538297 0.731455
0.155044 0.377604 0.513992
0.230352 0.414704 0.552260
0.320535 0.452574 0.590050
0.422194 0.490879 0.627031
0.529267 0.529267 0.662899
0.634271 0.567386 0.697388
0.730278 0.604893 0.730278
0.812597 0.641465 0.761396
0.879380 0.676813 0.790616
0.206192 0.520222 0.588673
0.292150 0.558436 0.625689
0.390905 0.596117 0.661602
0.497114 0.632937 0.696147
0.603528 0.668598 0.729099
0.702841 0.702841 0.760284
0.789576 0.735454 0.789576
0.861040 0.766271 0.816896
0.917151 0.795175 0.842211
0.264930 0.660304 0.660304
0.360297 0.694903 0.694903
0.464980 0.727917 0.727917
0.572136 0.759169 0.759169
0.674259 0.788533 0.788533
0.765170 0.815927 0.815927
0.841315 0.841315 0.841315
0.901903 0.864701 0.864701
0.948176 0.886123 0.886123
0.330538 0.781781 0.726733
0.433072 0.809644 0.758053
0.540284 0.835507 0.787487
0.644655 0.859363 0.814954
0.739425 0.881243 0.840417
0.820185 0.901205 0.863876
0.885369 0.919329 0.885369
0.935712 0.935712 0.904957
0.973287 0.950464 0.922726
0.401591 0.876257 0.786439
0.508173 0.896664 0.813979
0.614176 0.915214 0.839516
0.712405 0.931998 0.863048
0.797645 0.947125 0.884612
0.867498 0.960708 0.904269
0.922104 0.972865 0.922104
0.963239 0.983714 0.938215
0.993370 0.993370 0.952713
0.026065 0.026065 0.304566
0.063406 0.038095 0.339142
0.113467 0.051539 0.375082
0.178336 0.066517 0.412118
0.258787 0.083141 0.449945
0.353306 0.101521 0.488231
0.457543 0.121751 0.526625
0.564774 0.143909 0.564774
0.667472 0.168050 0.602333
0.051018 0.079065 0.373739
0.097022 0.097022 0.410740
0.157302 0.116807 0.448544
0.233130 0.138505 0.486818
0.323767 0.162174 0.525215
0.425717 0.187849 0.563379
0.532844 0.215526 0.600966
0.637651 0.245164 0.637651
0.733262 0.276676 0.673141
0.081860 0.156410 0.447142
0.137672 0.181611 0.485406
0.208817 0.208817 0.523804
0.295259 0.237999 0.561983
0.394363 0.269079 0.599597
0.500702 0.301935 0.636321
0.606990 0.336395 0.671859
0.705959 0.372237 0.705959
0.792212 0.409198 0.738410
0.119425 0.261582 0.522393
0.185891 0.294032 0.560586
0.267904 0.328132 0.598227
0.363670 0.363670 0.634989
0.468555 0.400393 0.670576
0.575662 0.438007 0.704733
0.677499 0.476186 0.737248
0.767959 0.514584 0.767959
0.843584 0.552848 0.796752
0.164372 0.391638 0.596856
0.241799 0.429070 0.633656
0.333809 0.467146 0.669291
0.436611 0.505524 0.703504
0.543852 0.543852 0.736083
0.648002 0.581777 0.766862
0.742359 0.618963 0.795728
0.822610 0.655101 0.822610
0.887277 0.689915 0.847485
0.217018 0.534833 0.668004
0.304932 0.572884 0.702273
0.405073 0.610274 0.734915
0.511759 0.646685 0.765763
0.617612 0.681834 0.794701
0.715478 0.715478 0.821657
0.800228 0.747423 0.846606
0.869557 0.777521 0.869557
0.923680 0.805676 0.890556
0.277168 0.673669 0.733745
0.374133 0.707688 0.764662
0.479590 0.740048 0.793671
0.586493 0.770593 0.820701
0.687403 0.799212 0.845723
0.776448 0.825844 0.868748
0.850466 0.850466 0.889817
0.909000 0.873098 0.909000
0.953488 0.893785 0.926384
0.343968 0.792638 0.792638
0.447554 0.819742 0.819742
0.554826 0.844838 0.844838
0.658248 0.867936 0.867936
0.751305 0.889076 0.889076
0.829977 0.908327 0.908327
0.893058 0.925775 0.925775
0.941523 0.941523 0.941523
0.977553 0.955683 0.955683
0.415854 0.884262 0.843951
0.522808 0.903951 0.867121
0.628147 0.921816 0.888332
0.724856 0.937955 0.907651
0.808079 0.952480 0.925164
0.875800 0.965505 0.940973
0.928444 0.977149 0.955189
0.967930 0.987530 0.967930
0.996760 0.996760 0.979313
0.030492 0.030492 0.381755
0.069419 0.043047 0.418959
0.121392 0.057062 0.456895
0.188378 0.072655 0.495227
0.270893 0.089937 0.533602
0.367054 0.109011 0.571669
0.472133 0.129968 0.609085
0.579182 0.152877 0.645532
0.680726 0.177783 0.680726
0.056520 0.085702 0.455490
0.104345 0.104345 0.493813
0.166701 0.124850 0.532194
0.244645 0.147294 0.570278
0.337092 0.171726 0.607724
0.440156 0.198166 0.644212
0.547416 0.226598 0.679456
0.651338 0.256964 0.713211
0.745278 0.289158 0.745278
0.088605 0.165781 0.530785
0.146433 0.191748 0.568886
0.219714 0.219714 0.606361
0.308098 0.249631 0.642890
0.408563 0.281405 0.678185
0.515345 0.314895 0.711998
0.621039 0.349911 0.744130
0.718536 0.386213 0.774429
0.802793 0.423523 0.802793
0.127561 0.273748 0.604998
0.196153 0.306849 0.641566
0.280205 0.341524 0.676911
0.377547 0.377547 0.710783
0.483174 0.414647 0.742980
0.589993 0.452515 0.773349
0.690589 0.490819 0.801784
0.779168 0.529208 0.828228
0.852664 0.567328 0.852664
0.173992 0.405813 0.675635
0.253520 0.443530 0.709565
0.347287 0.481762 0.741827
0.451112 0.520163 0.772265
0.558378 0.558378 0.800773
0.661548 0.596060 0.827291
0.754174 0.632881 0.851800
0.832331 0.668544 0.874320
0.894899 0.702790 0.894899
0.228130 0.549398 0.740672
0.317945 0.587236 0.771179
0.419365 0.624288 0.799759
0.526388 0.660249 0.826351
0.631545 0.694851 0.850934
0.727867 0.727867 0.873526
0.810590 0.759123 0.894176
0.877791 0.788489 0.912956
0.929959 0.815886 0.929959
0.289660 0.686823 0.798743
0.388130 0.720231 0.825408
0.494228 0.751915 0.850065
0.600736 0.781736 0.872730
0.700323 0.809603 0.893450
0.787443 0.835468 0.912297
0.859328 0.859328 0.929364
0.915835 0.881211 0.944755
0.958583 0.901175 0.958583
0.357591 0.803208 0.849193
0.462106 0.829548 0.871931
0.569295 0.853879 0.892721
0.671644 0.876224 0.911636
0.762915 0.896634 0.928767
0.839478 0.915186 0.944217
0.900474 0.931974 0.958101
0.947103 0.947103 0.970534
0.981636 0.960688 0.981636
0.430228 0.891990 0.891990
0.537412 0.910972 0.910972
0.641955 0.928167 0.928167
0.737052 0.943677 0.943677
0.818221 0.957616 0.957616
0.883821 0.970101 0.970101
0.934540 0.981250 0.981250
0.972424 0.991179 0.991179
1.000000 1.000000 1.000000
