public/luts/bleach-bypass.cube
# KomfyEdit 3D LUT: bleach-bypass
TITLE "bleach-bypass"
LUT_3D_SIZE 5
DOMAIN_MIN 0.0 0.0 0.0
DOMAIN_MAX 1.0 1.0 1.0
0.000000 0.000000 0.000000
0.065460 0.018750 0.018750
0.181779 0.042384 0.042384
0.358045 0.071833 0.071833
0.569772 0.108010 0.108010
0.041417 0.098825 0.041417
0.140672 0.140672 0.070636
0.299677 0.190397 0.106550
0.505772 0.248085 0.149935
0.710340 0.313177 0.201257
0.105101 0.297210 0.105101
0.245826 0.367119 0.148200
0.441622 0.441622 0.199227
0.652713 0.518238 0.258173
0.826008 0.594187 0.324365
0.197207 0.576477 0.197207
0.378961 0.650089 0.255870
0.591437 0.718595 0.321815
0.780286 0.780286 0.393639
0.911395 0.834219 0.469215
0.319274 0.822217 0.319274
0.527867 0.870032 0.390915
0.729107 0.910063 0.466398
0.878608 0.942938 0.543105
0.969508 0.969508 0.618245
0.006630 0.006630 0.047287
0.077896 0.027135 0.077896
0.202355 0.052875 0.115388
0.385824 0.084786 0.160484
0.598409 0.123743 0.213561
0.051824 0.113877 0.113877
0.158685 0.158685 0.158685
0.325741 0.211467 0.211467
0.535020 0.272083 0.272083
0.735070 0.339696 0.339696
0.120620 0.323187 0.209384
0.269722 0.395107 0.269722
0.470733 0.470733 0.337101
0.679465 0.547426 0.409950
0.844956 0.622396 0.486008
0.218657 0.605007 0.334513
0.407197 0.676920 0.407197
0.619700 0.742988 0.483184
0.801791 0.801791 0.559785
0.924632 0.852670 0.634224
0.345987 0.841390 0.480360
0.556989 0.886186 0.556989
0.753054 0.923399 0.631554
0.894181 0.953761 0.701566
0.978173 0.978173 0.765132
0.013890 0.013890 0.123019
0.091334 0.036280 0.169554
0.224086 0.064264 0.224086
0.414193 0.098766 0.286332
0.626534 0.140601 0.355289
0.063124 0.130036 0.221939
0.177863 0.177863 0.283914
0.352652 0.233683 0.352652
0.564081 0.297107 0.426416
0.758756 0.367007 0.502827
0.137259 0.350021 0.350021
0.294650 0.423639 0.423639
0.500000 0.500000 0.500000
0.705350 0.576361 0.576361
0.862741 0.649979 0.649979
0.241244 0.632993 0.497173
0.435919 0.702893 0.573584
0.647348 0.766317 0.647348
0.822137 0.822137 0.716086
0.936876 0.869964 0.778061
0.373466 0.859399 0.644711
0.585807 0.901234 0.713668
0.775914 0.935736 0.775914
0.908666 0.963720 0.830446
0.986110 0.986110 0.876981
0.021827 0.021827 0.234868
0.105819 0.046239 0.298434
0.246946 0.076601 0.368446
0.443011 0.113814 0.443011
0.654013 0.158610 0.519640
0.075368 0.147330 0.365776
0.198209 0.198209 0.440215
0.380300 0.257012 0.516816
0.592803 0.323080 0.592803
0.781343 0.394993 0.665487
0.155044 0.377604 0.513992
0.320535 0.452574 0.590050
0.529267 0.529267 0.662899
0.730278 0.604893 0.730278
0.879380 0.676813 0.790616
0.264930 0.660304 0.660304
0.464980 0.727917 0.727917
0.674259 0.788533 0.788533
0.841315 0.841315 0.841315
0.948176 0.886123 0.886123
0.401591 0.876257 0.786439
0.614176 0.915214 0.839516
0.797645 0.947125 0.884612
0.922104 0.972865 0.922104
0.993370 0.993370 0.952713
0.030492 0.030492 0.381755
0.121392 0.057062 0.456895
0.270893 0.089937 0.533602
0.472133 0.129968 0.609085
0.680726 0.177783 0.680726
0.088605 0.165781 0.530785
0.219714 0.219714 0.606361
0.408563 0.281405 0.678185
0.621039 0.349911 0.744130
0.802793 0.423523 0.802793
0.173992 0.405813 0.675635
0.347287 0.481762 0.741827
0.558378 0.558378 0.800773
0.754174 0.632881 0.851800
0.894899 0.702790 0.894899
0.289660 0.686823 0.798743
0.494228 0.751915 0.850065
0.700323 0.809603 0.893450
0.859328 0.859328 0.929364
0.958583 0.901175 0.958583
0.430228 0.891990 0.891990
0.641955 0.928167 0.928167
0.818221 0.957616 0.957616
0.934540 0.981250 0.981250
1.000000 1.000000 1.000000
