public/luts/bleach-bypass.cube
# KomfyEdit 3D LUT: bleach-bypass
TITLE "bleach-bypass"
LUT_3D_SIZE 33
DOMAIN_MIN 0.0 0.0 0.0
DOMAIN_MAX 1.0 1.0 1.0
0.000000 0.000000 0.000000
0.006066 0.002107 0.002107
0.012658 0.004279 0.004279
0.019815 0.006516 0.006516
0.027576 0.008821 0.008821
0.035981 0.011195 0.011195
0.045069 0.013640 0.013640
0.054882 0.016158 0.016158
0.065460 0.018750 0.018750
0.076843 0.021418 0.021418
0.089067 0.024165 0.024165
0.102168 0.026991 0.026991
0.116179 0.029899 0.029899
0.131126 0.032890 0.032890
0.147032 0.035967 0.035967
0.163913 0.039131 0.039131
0.181779 0.042384 0.042384
0.200629 0.045727 0.045727
0.220456 0.049164 0.049164
0.241238 0.052695 0.052695
0.262948 0.056323 0.056323
0.285542 0.060049 0.060049
0.308969 0.063874 0.063874
0.333162 0.067802 0.067802
0.358045 0.071833 0.071833
0.383530 0.075970 0.075970
0.409521 0.080213 0.080213
0.435911 0.084565 0.084565
0.462588 0.089028 0.089028
0.489434 0.093602 0.093602
0.516327 0.098289 0.098289
0.543147 0.103092 0.103092
0.569772 0.108010 0.108010
0.004198 0.008271 0.004198
0.010629 0.010629 0.006433
0.017613 0.013057 0.008735
0.025189 0.015557 0.011107
0.033397 0.018132 0.013549
0.042277 0.020782 0.016064
0.051869 0.023510 0.018653
0.062214 0.026317 0.021319
0.073352 0.029205 0.024062
0.085321 0.032177 0.026886
0.098156 0.035233 0.029790
0.111892 0.038376 0.032779
0.126556 0.041608 0.035852
0.142173 0.044930 0.039013
0.158762 0.048345 0.042262
0.176333 0.051854 0.045603
0.194889 0.055458 0.049036
0.214425 0.059161 0.052564
0.234924 0.062963 0.056188
0.256360 0.066866 0.059910
0.278695 0.070873 0.063732
0.301879 0.074984 0.067656
0.325850 0.079202 0.071683
0.350535 0.083529 0.075816
0.375851 0.087965 0.080055
0.401701 0.092513 0.084403
0.427983 0.097173 0.088861
0.454587 0.101948 0.093432
0.481394 0.106839 0.098115
0.508286 0.111847 0.102913
0.535141 0.116974 0.107827
0.561837 0.122220 0.112859
0.588256 0.127587 0.118009
0.008649 0.017518 0.008649
0.015464 0.020150 0.011018
0.022859 0.022859 0.013458
0.030874 0.025647 0.015970
0.039548 0.028517 0.018557
0.048923 0.031468 0.021219
0.059039 0.034504 0.023960
0.069936 0.037627 0.026780
0.081652 0.040838 0.029682
0.094225 0.044138 0.032667
0.107688 0.047531 0.035738
0.122071 0.051017 0.038895
0.137401 0.054599 0.042141
0.153698 0.058278 0.045478
0.170974 0.062057 0.048908
0.189236 0.065936 0.052432
0.208480 0.069918 0.056052
0.228694 0.074005 0.059771
0.249853 0.078197 0.063589
0.271924 0.082498 0.067509
0.294860 0.086908 0.071533
0.318603 0.091430 0.075662
0.343083 0.096063 0.079897
0.368219 0.100811 0.084241
0.393920 0.105675 0.088696
0.420084 0.110655 0.093261
0.446604 0.115754 0.097941
0.473363 0.120972 0.102734
0.500242 0.126310 0.107644
0.527121 0.131770 0.112672
0.553876 0.137352 0.117817
0.580390 0.143058 0.123083
0.606547 0.148887 0.128470
0.013367 0.027832 0.013367
0.020584 0.030764 0.015876
0.028410 0.033780 0.018460
0.036882 0.036882 0.021120
0.046044 0.040072 0.023858
0.055934 0.043351 0.026675
0.066593 0.046722 0.029574
0.078060 0.050186 0.032556
0.090373 0.053745 0.035623
0.103566 0.057401 0.038777
0.117672 0.061156 0.042020
0.132716 0.065012 0.045354
0.148722 0.068969 0.048780
0.165704 0.073031 0.052301
0.183671 0.077199 0.055918
0.202622 0.081474 0.059632
0.222548 0.085858 0.063447
0.243428 0.090353 0.067363
0.265230 0.094960 0.071383
0.287913 0.099681 0.075508
0.311421 0.104517 0.079739
0.335689 0.109470 0.084080
0.360638 0.114540 0.088530
0.386180 0.119730 0.093091
0.412217 0.125040 0.097766
0.438642 0.130471 0.102556
0.465342 0.136024 0.107462
0.492198 0.141700 0.112484
0.519089 0.147501 0.117626
0.545894 0.153425 0.122887
0.572493 0.159475 0.128269
0.598769 0.165650 0.133773
0.624610 0.171950 0.139400
0.018364 0.039312 0.018364
0.026003 0.042570 0.021021
0.034278 0.045919 0.023756
0.043229 0.049360 0.026570
0.052897 0.052897 0.029466
0.063322 0.056530 0.032445
0.074543 0.060261 0.035509
0.086600 0.064093 0.038660
0.099526 0.068026 0.041899
0.113356 0.072063 0.045230
0.128117 0.076206 0.048652
0.143833 0.080455 0.052170
0.160522 0.084814 0.055783
0.178194 0.089282 0.059494
0.196852 0.093863 0.063305
0.216488 0.098557 0.067218
0.237085 0.103366 0.071233
0.258615 0.108291 0.075354
0.281040 0.113333 0.079582
0.304308 0.118495 0.083918
0.328356 0.123776 0.088364
0.353110 0.129179 0.092922
0.378485 0.134703 0.097592
0.404384 0.140350 0.102378
0.430705 0.146121 0.107279
0.457335 0.152016 0.112298
0.484157 0.158036 0.117435
0.511050 0.164182 0.122692
0.537894 0.170452 0.128069
0.564567 0.176849 0.133569
0.590951 0.183371 0.139191
0.616933 0.190019 0.144937
0.642409 0.196792 0.150807
0.023654 0.052054 0.023654
0.031734 0.055664 0.026465
0.040479 0.059372 0.029358
0.049928 0.063180 0.032334
0.060122 0.067089 0.035394
0.071102 0.071102 0.038542
0.082904 0.075219 0.041779
0.095567 0.079443 0.045105
0.109123 0.083776 0.048525
0.123603 0.088218 0.052038
0.139032 0.092772 0.055648
0.155428 0.097439 0.059356
0.172806 0.102221 0.063163
0.191169 0.107118 0.067072
0.210513 0.112133 0.071084
0.230825 0.117266 0.075201
0.252080 0.122519 0.079424
0.274242 0.127893 0.083756
0.297264 0.133389 0.088198
0.321086 0.139007 0.092752
0.345637 0.144748 0.097419
0.370836 0.150614 0.102200
0.396589 0.156605 0.107097
0.422796 0.162721 0.112111
0.449345 0.168962 0.117244
0.476122 0.175329 0.122496
0.503007 0.181821 0.127869
0.529878 0.188439 0.133364
0.556615 0.195183 0.138982
0.583097 0.202051 0.144723
0.609211 0.209044 0.150588
0.634849 0.216161 0.156578
0.659911 0.223400 0.162694
0.029250 0.066158 0.029250
0.037792 0.070146 0.032223
0.047026 0.074238 0.035280
0.056993 0.078437 0.038425
0.067733 0.082744 0.041658
0.079286 0.087160 0.044981
0.091688 0.091688 0.048397
0.104973 0.096328 0.051908
0.119174 0.101082 0.055514
0.134317 0.105952 0.059218
0.150422 0.110939 0.063021
0.167506 0.116045 0.066926
0.185574 0.121269 0.070934
0.204626 0.126614 0.075047
0.224650 0.132081 0.079267
0.245627 0.137670 0.083595
0.267522 0.143383 0.088033
0.290292 0.149219 0.092582
0.313882 0.155180 0.097245
0.338223 0.161266 0.102022
0.363237 0.167478 0.106914
0.388835 0.173815 0.111924
0.414917 0.180278 0.117053
0.441376 0.186867 0.122301
0.468097 0.193581 0.127669
0.494962 0.200420 0.133160
0.521850 0.207383 0.138773
0.548640 0.214471 0.144510
0.575210 0.221681 0.150370
0.601446 0.229013 0.156356
0.627238 0.236466 0.162466
0.652481 0.244038 0.168702
0.677085 0.251727 0.175064
0.035166 0.081718 0.035166
0.044189 0.086108 0.038308
0.053933 0.090609 0.041537
0.064438 0.095223 0.044858
0.075743 0.099950 0.048270
0.087887 0.104793 0.051777
0.100905 0.109752 0.055379
0.114829 0.114829 0.059080
0.129688 0.120026 0.062879
0.145504 0.125342 0.066781
0.162293 0.130780 0.070785
0.180067 0.136341 0.074894
0.198825 0.142024 0.079110
0.218561 0.147831 0.083434
0.239255 0.153763 0.087868
0.260880 0.159819 0.092413
0.283393 0.166001 0.097071
0.306745 0.172309 0.101844
0.330869 0.178742 0.106732
0.355691 0.185301 0.111738
0.381124 0.191986 0.116862
0.407072 0.198795 0.122105
0.433430 0.205729 0.127470
0.460085 0.212788 0.132956
0.486920 0.219969 0.138564
0.513814 0.227272 0.144296
0.540645 0.234697 0.150153
0.567294 0.242241 0.156133
0.593642 0.249903 0.162239
0.619577 0.257681 0.168471
0.644995 0.265574 0.174828
0.669799 0.273578 0.181311
0.693903 0.281693 0.187919
0.041417 0.098825 0.041417
0.050941 0.103640 0.044734
0.061214 0.108572 0.048143
0.072276 0.113621 0.051646
0.084165 0.118789 0.055245
0.096918 0.124077 0.058942
0.110568 0.129487 0.062738
0.125145 0.135018 0.066635
0.140672 0.140672 0.070636
0.157169 0.146450 0.074741
0.174648 0.152352 0.078953
0.193112 0.158379 0.083273
0.212557 0.164532 0.087703
0.232967 0.170810 0.092244
0.254317 0.177213 0.096898
0.276570 0.183742 0.101666
0.299677 0.190397 0.106550
0.323577 0.197177 0.111552
0.348199 0.204082 0.116671
0.373459 0.211111 0.121910
0.399264 0.218264 0.127270
0.425510 0.225538 0.132752
0.452089 0.232934 0.138356
0.478882 0.240450 0.144083
0.505772 0.248085 0.149935
0.532635 0.255836 0.155911
0.559350 0.263701 0.162012
0.585800 0.271680 0.168239
0.611870 0.279769 0.174592
0.637453 0.287966 0.181070
0.662450 0.296268 0.187674
0.686772 0.304673 0.194403
0.710340 0.313177 0.201257
0.048016 0.117559 0.048016
0.058061 0.122819 0.051515
0.068883 0.128199 0.055111
0.080521 0.133702 0.058804
0.093012 0.139327 0.062596
0.106390 0.145076 0.066490
0.120687 0.150948 0.070487
0.135927 0.156946 0.074588
0.152133 0.163069 0.078796
0.169317 0.169317 0.083112
0.187487 0.175691 0.087538
0.206639 0.182191 0.092075
0.226763 0.188816 0.096725
0.247835 0.195567 0.101489
0.269823 0.202442 0.106369
0.292680 0.209442 0.111366
0.316350 0.216565 0.116481
0.340765 0.223811 0.121716
0.365843 0.231179 0.127071
0.391495 0.238666 0.132548
0.417621 0.246273 0.138148
0.444112 0.253997 0.143870
0.470854 0.261836 0.149717
0.497727 0.269788 0.155689
0.524611 0.277851 0.161786
0.551383 0.286022 0.168008
0.577924 0.294300 0.174356
0.604120 0.302681 0.180829
0.629859 0.311162 0.187429
0.655041 0.319740 0.194153
0.679574 0.328412 0.201003
0.703375 0.337174 0.207977
0.726374 0.346022 0.215074
0.054977 0.137989 0.054977
0.065562 0.143708 0.058666
0.076952 0.149552 0.062455
0.089185 0.155520 0.066345
0.102294 0.161613 0.070338
0.116313 0.167832 0.074436
0.131269 0.174176 0.078639
0.147184 0.180646 0.082951
0.164075 0.187242 0.087373
0.181949 0.193963 0.091906
0.200809 0.200809 0.096552
0.220644 0.207779 0.101311
0.241436 0.214874 0.106187
0.263153 0.222091 0.111180
0.285756 0.229430 0.116291
0.309190 0.236889 0.121521
0.333389 0.244468 0.126872
0.358278 0.252164 0.132344
0.383769 0.259976 0.137939
0.409764 0.267902 0.143658
0.436158 0.275939 0.149500
0.462837 0.284085 0.155467
0.489683 0.292338 0.161559
0.516577 0.300695 0.167777
0.543395 0.309152 0.174120
0.570018 0.317708 0.180589
0.596328 0.326358 0.187184
0.622215 0.335099 0.193903
0.647574 0.343927 0.200748
0.672310 0.352838 0.207718
0.696338 0.361829 0.214811
0.719583 0.370895 0.222027
0.741984 0.380031 0.229365
0.062314 0.160164 0.062314
0.073459 0.166353 0.066200
0.085436 0.172668 0.070189
0.098280 0.179108 0.074283
0.112023 0.185674 0.078483
0.126696 0.192366 0.082791
0.142323 0.199183 0.087208
0.158920 0.206124 0.091737
0.176500 0.213189 0.096379
0.195066 0.220377 0.101134
0.214611 0.227687 0.106006
0.235119 0.235119 0.110994
0.256563 0.242669 0.116100
0.278906 0.250338 0.121326
0.302098 0.258123 0.126673
0.326076 0.266022 0.132141
0.350768 0.274033 0.137731
0.376088 0.282153 0.143445
0.401943 0.290382 0.149283
0.428229 0.298714 0.155245
0.454835 0.307148 0.161333
0.481644 0.315681 0.167546
0.508536 0.324309 0.173884
0.535389 0.333029 0.180349
0.562083 0.341836 0.186939
0.588499 0.350728 0.193654
0.614524 0.359701 0.200494
0.640051 0.368749 0.207459
0.664983 0.377870 0.214548
0.689231 0.387057 0.221760
0.712717 0.396308 0.229093
0.735377 0.405616 0.236547
0.757154 0.414977 0.244120
0.070041 0.184114 0.070041
0.081765 0.190776 0.074130
0.094345 0.197563 0.078326
0.107817 0.204475 0.082630
0.122209 0.211511 0.087044
0.137548 0.218670 0.091569
0.153854 0.225952 0.096206
0.171139 0.233355 0.100957
0.189410 0.240877 0.105824
0.208663 0.248518 0.110808
0.228886 0.256276 0.115910
0.250054 0.264148 0.121132
0.272133 0.272133 0.126474
0.295076 0.280228 0.131937
0.318826 0.288431 0.137523
0.343313 0.296739 0.143233
0.368455 0.305149 0.149066
0.394161 0.313659 0.155024
0.420329 0.322265 0.161107
0.446851 0.330963 0.167315
0.473612 0.339751 0.173649
0.500492 0.348623 0.180109
0.527369 0.357577 0.186694
0.554124 0.366608 0.193405
0.580635 0.375712 0.200241
0.606788 0.384884 0.207201
0.632475 0.394120 0.214285
0.657594 0.403415 0.221492
0.682055 0.412764 0.228821
0.705777 0.422163 0.236271
0.728690 0.431605 0.243840
0.750736 0.441087 0.251526
0.771870 0.450602 0.259328
0.078170 0.209840 0.078170
0.090491 0.216970 0.082470
0.103693 0.224223 0.086880
0.117807 0.231597 0.091400
0.132860 0.239092 0.096033
0.148875 0.246705 0.100780
0.165866 0.254435 0.105643
0.183843 0.262281 0.110623
0.202803 0.270239 0.115721
0.222737 0.278308 0.120938
0.243626 0.286486 0.126275
0.265437 0.294770 0.131734
0.288127 0.303156 0.137316
0.311643 0.311643 0.143021
0.335917 0.320226 0.148849
0.360872 0.328903 0.154802
0.386419 0.337670 0.160881
0.412460 0.346523 0.167084
0.438889 0.355458 0.173414
0.465590 0.364471 0.179869
0.492447 0.373558 0.186450
0.519339 0.382714 0.193156
0.546142 0.391936 0.199987
0.572738 0.401217 0.206943
0.599010 0.410554 0.214022
0.624848 0.419941 0.221225
0.650147 0.429374 0.228549
0.674814 0.438847 0.235994
0.698764 0.448355 0.243559
0.721926 0.457892 0.251241
0.744237 0.467454 0.259039
0.765648 0.477035 0.266952
0.786121 0.486628 0.274976
0.086715 0.237313 0.086715
0.099650 0.244898 0.091232
0.113488 0.252601 0.095861
0.128258 0.260419 0.100604
0.143984 0.268351 0.105462
0.160682 0.276395 0.110438
0.178363 0.284547 0.115531
0.197030 0.292806 0.120744
0.216674 0.301169 0.126077
0.237280 0.309632 0.131531
0.258819 0.318193 0.137108
0.281252 0.326848 0.142808
0.304527 0.335594 0.148633
0.328582 0.344427 0.154581
0.353343 0.353343 0.160655
0.378723 0.362338 0.166854
0.404627 0.371408 0.173179
0.430951 0.380548 0.179629
0.457583 0.389755 0.186205
0.484406 0.399022 0.192907
0.511300 0.408347 0.199733
0.538142 0.417723 0.206684
0.564813 0.427145 0.213760
0.591194 0.436609 0.220958
0.617172 0.446109 0.228278
0.642643 0.455640 0.235718
0.667508 0.465196 0.243279
0.691681 0.474773 0.250957
0.715085 0.484364 0.258750
0.737656 0.493964 0.266658
0.759341 0.503568 0.274678
0.780098 0.513169 0.282808
0.799898 0.522763 0.291044
0.095688 0.266470 0.095688
0.109253 0.274487 0.100427
0.123742 0.282614 0.105281
0.139179 0.290848 0.110252
0.155585 0.299187 0.115341
0.172972 0.307626 0.120550
0.191344 0.316165 0.125878
0.210697 0.324798 0.131328
0.231018 0.333522 0.136901
0.252282 0.342335 0.142597
0.274452 0.351232 0.148416
0.297481 0.360209 0.154360
0.321311 0.369261 0.160429
0.345868 0.378386 0.166624
0.371073 0.387577 0.172944
0.396831 0.396831 0.179390
0.423040 0.406142 0.185961
0.449592 0.415506 0.192658
0.476371 0.424918 0.199480
0.503256 0.434373 0.206427
0.530127 0.443865 0.213497
0.556862 0.453389 0.220691
0.583341 0.462940 0.228006
0.609451 0.472512 0.235443
0.635084 0.482100 0.242998
0.660140 0.491699 0.250672
0.684529 0.501302 0.258462
0.708170 0.510905 0.266366
0.730997 0.520501 0.274381
0.752951 0.530085 0.282507
0.773990 0.539652 0.290740
0.794078 0.549196 0.299077
0.813195 0.558712 0.307515
0.105101 0.297210 0.105101
0.119310 0.305626 0.110067
0.134462 0.314142 0.115152
0.150576 0.322753 0.120356
0.167669 0.331456 0.125680
0.185746 0.340248 0.131126
0.204807 0.349126 0.136694
0.224841 0.358084 0.142385
0.245826 0.367119 0.148200
0.267729 0.376227 0.154139
0.290507 0.385403 0.160204
0.314104 0.394642 0.166394
0.338452 0.403940 0.172709
0.363472 0.413293 0.179150
0.389075 0.422694 0.185717
0.415161 0.432139 0.192409
0.441622 0.441622 0.199227
0.468346 0.451139 0.206169
0.495212 0.460685 0.213235
0.522100 0.470252 0.220424
0.548888 0.479837 0.227735
0.575456 0.489434 0.235167
0.601688 0.499036 0.242718
0.627474 0.508640 0.250388
0.652713 0.518238 0.258173
0.677310 0.527825 0.266073
0.701182 0.537397 0.274085
0.724259 0.546947 0.282206
0.746480 0.556470 0.290435
0.767796 0.565961 0.298768
0.788171 0.575414 0.307203
0.807580 0.584825 0.315736
0.826008 0.594187 0.324365
0.114963 0.329395 0.114963
0.129830 0.338166 0.120162
0.145655 0.347024 0.125482
0.162454 0.355963 0.130923
0.180236 0.364981 0.136487
0.199004 0.374072 0.142173
0.218748 0.383232 0.147984
0.239452 0.392457 0.153919
0.261084 0.401742 0.159978
0.283606 0.411082 0.166164
0.306965 0.420472 0.172474
0.331096 0.429907 0.178911
0.355924 0.439382 0.185473
0.381363 0.448892 0.192161
0.407315 0.458430 0.198974
0.433676 0.467993 0.205911
0.460333 0.477575 0.212973
0.487169 0.487169 0.220157
0.514063 0.496771 0.227464
0.540894 0.506374 0.234891
0.567540 0.515974 0.242438
0.593884 0.525565 0.250103
0.619815 0.535141 0.257885
0.645228 0.544696 0.265780
0.670026 0.554226 0.273788
0.694123 0.563725 0.281905
0.717445 0.573188 0.290130
0.739927 0.582609 0.298460
0.761518 0.591983 0.306891
0.782178 0.601305 0.315420
0.801878 0.610571 0.324046
0.820600 0.619775 0.332763
0.838338 0.628913 0.341568
0.125284 0.362847 0.125284
0.140821 0.371921 0.130721
0.157327 0.381065 0.136280
0.174815 0.390275 0.141962
0.193288 0.399546 0.147768
0.212742 0.408874 0.153698
0.233161 0.418252 0.159753
0.254519 0.427677 0.165934
0.276780 0.437143 0.172240
0.299895 0.446645 0.178672
0.323802 0.456178 0.185230
0.348431 0.465736 0.191913
0.373696 0.475313 0.198721
0.399506 0.484905 0.205654
0.425756 0.494505 0.212711
0.452336 0.504109 0.219891
0.479132 0.513710 0.227193
0.506021 0.523303 0.234616
0.532883 0.532883 0.242159
0.559597 0.542444 0.249819
0.586044 0.551981 0.257596
0.612110 0.561487 0.265488
0.637688 0.570959 0.273491
0.662679 0.580390 0.281605
0.686994 0.589776 0.289826
0.710555 0.599111 0.298151
0.733294 0.608390 0.306579
0.755157 0.617610 0.315105
0.776099 0.626764 0.323727
0.796088 0.635848 0.332440
0.815104 0.644859 0.341242
0.833136 0.653791 0.350129
0.850184 0.662641 0.359096
0.136073 0.397354 0.136073
0.152288 0.406668 0.141751
0.169481 0.416035 0.147552
0.187660 0.425450 0.153478
0.206822 0.434907 0.159528
0.226954 0.444401 0.165704
0.248035 0.453926 0.172006
0.270031 0.463479 0.178433
0.292896 0.473052 0.184986
0.316573 0.482641 0.191665
0.340994 0.492240 0.198468
0.366079 0.501843 0.205397
0.391736 0.511446 0.212449
0.417865 0.521041 0.219624
0.444359 0.530625 0.226922
0.471102 0.540191 0.234341
0.497976 0.549733 0.241879
0.524860 0.559248 0.249535
0.551630 0.568728 0.257308
0.578169 0.578169 0.265195
0.604361 0.587566 0.273195
0.630095 0.596914 0.281304
0.655272 0.606207 0.289521
0.679798 0.615440 0.297843
0.703592 0.624610 0.306267
0.726583 0.633712 0.314790
0.748713 0.642740 0.323408
0.769934 0.651691 0.332118
0.790211 0.660560 0.340917
0.809520 0.669345 0.349800
0.827847 0.678040 0.358765
0.845188 0.686642 0.367805
0.861549 0.695149 0.376919
0.147336 0.432672 0.147336
0.164236 0.442158 0.153257
0.182120 0.451677 0.159303
0.200988 0.461223 0.165475
0.220832 0.470792 0.171772
0.241633 0.480378 0.178194
0.263359 0.489975 0.184743
0.285970 0.499577 0.191417
0.309411 0.509181 0.198216
0.333617 0.518778 0.205139
0.358512 0.528365 0.212187
0.384008 0.537936 0.219358
0.410007 0.547485 0.226651
0.436404 0.557006 0.234066
0.463085 0.566495 0.241600
0.489933 0.575946 0.249252
0.516826 0.585353 0.257020
0.543643 0.594713 0.264903
0.570263 0.604019 0.272899
0.596571 0.613268 0.281004
0.622453 0.622453 0.289217
0.647807 0.631571 0.297535
0.672536 0.640617 0.305955
0.696557 0.649586 0.314474
0.719795 0.658476 0.323089
0.742188 0.667280 0.331796
0.763685 0.675997 0.340592
0.784247 0.684621 0.349472
0.803847 0.693151 0.358434
0.822469 0.701581 0.367472
0.840105 0.709910 0.376582
0.856758 0.718135 0.385761
0.872439 0.726252 0.395002
0.159079 0.468533 0.159079
0.176668 0.478115 0.165246
0.195243 0.487710 0.171538
0.214796 0.497312 0.177956
0.235313 0.506915 0.184500
0.256767 0.516515 0.191169
0.279118 0.526105 0.197963
0.302317 0.535680 0.204883
0.326302 0.545234 0.211926
0.351000 0.554762 0.219092
0.376326 0.564259 0.226381
0.402185 0.573720 0.233791
0.428474 0.583138 0.241320
0.455083 0.592510 0.248968
0.481893 0.601829 0.256732
0.508785 0.611091 0.264611
0.535638 0.620292 0.272602
0.562330 0.629426 0.280704
0.588742 0.638489 0.288913
0.614763 0.647477 0.297227
0.640285 0.656386 0.305644
0.665211 0.665211 0.314159
0.689452 0.673949 0.322770
0.712931 0.682595 0.331474
0.735583 0.691147 0.340267
0.757352 0.699602 0.349144
0.778197 0.707955 0.358102
0.798088 0.716204 0.367138
0.817003 0.724346 0.376246
0.834934 0.732380 0.385422
0.851880 0.740301 0.394661
0.867851 0.748109 0.403960
0.882861 0.755801 0.413312
0.171304 0.504650 0.171304
0.189584 0.514251 0.177718
0.208846 0.523844 0.184257
0.229078 0.533423 0.190921
0.250254 0.542982 0.197711
0.272342 0.552517 0.204626
0.295293 0.562022 0.211664
0.319050 0.571492 0.218826
0.343543 0.580920 0.226111
0.368691 0.590303 0.233516
0.394401 0.599635 0.241041
0.420573 0.608912 0.248685
0.447098 0.618127 0.256445
0.473861 0.627277 0.264319
0.500741 0.636358 0.272307
0.527618 0.645364 0.280404
0.554371 0.654292 0.288609
0.580879 0.663137 0.296920
0.607029 0.671895 0.305332
0.632711 0.680564 0.313844
0.657824 0.689138 0.322452
0.682279 0.697616 0.331152
0.705993 0.705993 0.339942
0.728899 0.714267 0.348816
0.750937 0.722435 0.357771
0.772062 0.730495 0.366804
0.792241 0.738443 0.375909
0.811449 0.746278 0.385083
0.829675 0.753997 0.394320
0.846915 0.761599 0.403617
0.863176 0.769083 0.412967
0.878471 0.776446 0.422366
0.892821 0.783688 0.431810
0.184014 0.540729 0.184014
0.202983 0.550270 0.190674
0.222927 0.559783 0.197459
0.243824 0.569261 0.204369
0.265643 0.578700 0.211403
0.288342 0.588094 0.218561
0.311865 0.597439 0.225840
0.336146 0.606728 0.233241
0.361107 0.615959 0.240762
0.386659 0.625125 0.248401
0.412704 0.634222 0.256157
0.439135 0.643246 0.264028
0.465839 0.652193 0.272011
0.492697 0.661058 0.280104
0.519588 0.669837 0.288306
0.546390 0.678527 0.296612
0.572984 0.687124 0.305021
0.599252 0.695625 0.313529
0.625085 0.704026 0.322134
0.650379 0.712325 0.330831
0.675039 0.720518 0.339617
0.698983 0.728603 0.348488
0.722137 0.736578 0.357441
0.744440 0.744440 0.366470
0.765842 0.752186 0.375573
0.786307 0.759817 0.384744
0.805807 0.767328 0.393979
0.824327 0.774720 0.403274
0.841862 0.781990 0.412622
0.858415 0.789139 0.422020
0.873997 0.796163 0.431462
0.888627 0.803064 0.440943
0.902329 0.809839 0.450458
0.197207 0.576477 0.197207
0.216861 0.585882 0.204113
0.237476 0.595239 0.211142
0.259023 0.604542 0.218295
0.281464 0.613787 0.225571
0.304747 0.622968 0.232967
0.328809 0.632082 0.240483
0.353575 0.641124 0.248118
0.378961 0.650089 0.255870
0.404869 0.658974 0.263736
0.431197 0.667774 0.271715
0.457831 0.676485 0.279805
0.484655 0.685105 0.288002
0.511549 0.693628 0.296305
0.538391 0.702053 0.304710
0.565059 0.710376 0.313215
0.591437 0.718595 0.321815
0.617411 0.726706 0.330509
0.642876 0.734707 0.339292
0.667735 0.742595 0.348160
0.691902 0.750369 0.357110
0.715299 0.758027 0.366137
0.737862 0.765567 0.375237
0.759538 0.772987 0.384406
0.780286 0.780286 0.393639
0.800077 0.787463 0.402931
0.818891 0.794517 0.412277
0.836721 0.801447 0.421673
0.853567 0.808252 0.431114
0.869437 0.814932 0.440593
0.884350 0.821487 0.450107
0.898326 0.827916 0.459650
0.911395 0.834219 0.469215
0.210882 0.611611 0.210882
0.231211 0.620808 0.218030
0.252483 0.629939 0.225301
0.274662 0.638998 0.232693
0.297699 0.647981 0.240205
0.321535 0.656885 0.247835
0.346099 0.665706 0.255583
0.371309 0.674438 0.263445
0.397072 0.683080 0.271420
0.423285 0.691626 0.279505
0.449840 0.700075 0.287698
0.476620 0.708422 0.295997
0.503506 0.716666 0.304399
0.530376 0.724802 0.312900
0.557109 0.732829 0.321497
0.583585 0.740744 0.330188
0.609692 0.748546 0.338967
0.635320 0.756231 0.347832
0.660370 0.763799 0.356779
0.684752 0.771247 0.365803
0.708386 0.778575 0.374901
0.731205 0.785781 0.384067
0.753151 0.792864 0.393298
0.774180 0.799823 0.402588
0.794260 0.806658 0.411932
0.813368 0.813368 0.421327
0.831492 0.819952 0.430766
0.848631 0.826410 0.440244
0.864792 0.832743 0.449757
0.879989 0.838950 0.459298
0.894243 0.845032 0.468863
0.907580 0.850989 0.478446
0.920031 0.856821 0.488041
0.225031 0.645869 0.225031
0.246025 0.654792 0.232419
0.267936 0.663633 0.239926
0.290722 0.672386 0.247553
0.314327 0.681049 0.255295
0.338681 0.689619 0.263153
0.363707 0.698091 0.271124
0.389315 0.706462 0.279206
0.415405 0.714730 0.287395
0.441869 0.722892 0.295690
0.468594 0.730945 0.304088
0.495461 0.738887 0.312586
0.522349 0.746716 0.321179
0.549135 0.754429 0.329866
0.575701 0.762024 0.338643
0.601929 0.769501 0.347505
0.627711 0.776857 0.356449
0.652944 0.784092 0.365470
0.677535 0.791204 0.374565
0.701400 0.798193 0.383729
0.724469 0.805057 0.392957
0.746682 0.811796 0.402245
0.767989 0.818410 0.411588
0.788356 0.824898 0.420980
0.807756 0.831260 0.430418
0.826175 0.837497 0.439895
