public/luts/cine-teal-orange.cube
# KomfyEdit 3D LUT: cine-teal-orange
TITLE "cine-teal-orange"
LUT_3D_SIZE 5
DOMAIN_MIN 0.0 0.0 0.0
DOMAIN_MAX 1.0 1.0 1.0
0.000000 0.040000 0.120000
0.111512 0.035870 0.107012
0.444814 0.029828 0.085014
0.778837 0.025227 0.063736
0.971416 0.023232 0.051816
0.000000 0.219539 0.094087
0.130074 0.216369 0.081580
0.464211 0.211998 0.060417
0.799069 0.209066 0.039974
0.992129 0.208033 0.028534
0.000000 0.523411 0.053006
0.163200 0.521846 0.041300
0.498730 0.520260 0.021530
0.834981 0.520115 0.002480
1.000000 0.520684 0.000000
0.005424 0.832672 0.014618
0.199020 0.832710 0.003715
0.535943 0.833911 0.000000
0.873587 0.836552 0.000000
1.000000 0.838725 0.000000
0.027703 1.000000 0.000000
0.221779 1.000000 0.000000
0.559537 1.000000 0.000000
0.898016 1.000000 0.000000
1.000000 1.000000 0.000000
0.000000 0.038369 0.297674
0.114951 0.034420 0.284777
0.448412 0.028695 0.262937
0.782593 0.024410 0.241817
0.975263 0.022597 0.229988
0.000000 0.218274 0.271944
0.133697 0.215287 0.259528
0.467992 0.211231 0.238523
0.803008 0.208616 0.218238
0.996159 0.207764 0.206889
0.000000 0.522758 0.231169
0.167128 0.521374 0.219554
0.502817 0.520105 0.199942
0.839226 0.520276 0.181050
1.000000 0.521027 0.170503
0.009567 0.832630 0.193087
0.203254 0.832850 0.182274
0.540336 0.834367 0.164055
0.878137 0.837324 0.146556
1.000000 0.839679 0.136811
0.032030 1.000000 0.171555
0.226197 1.000000 0.161222
0.564113 1.000000 0.143838
0.902750 1.000000 0.127174
1.000000 1.000000 0.117910
0.000000 0.035700 0.606450
0.121011 0.032068 0.593711
0.454746 0.026891 0.572146
0.789201 0.023156 0.551301
0.982029 0.021659 0.539629
0.000000 0.216242 0.581039
0.140074 0.213570 0.568780
0.474644 0.210064 0.548050
0.809935 0.207998 0.528040
1.000000 0.207462 0.516849
0.000000 0.521788 0.540794
0.174037 0.520720 0.529337
0.510000 0.520000 0.510000
0.846683 0.520720 0.491383
1.000000 0.521788 0.480994
0.016849 0.832723 0.503244
0.210694 0.833259 0.492589
0.548050 0.835324 0.474644
0.886126 0.838831 0.457420
1.000000 0.841502 0.447833
0.039629 1.000000 0.482029
0.233955 1.000000 0.471855
0.572146 1.000000 0.454746
0.911057 1.000000 0.438356
1.000000 1.000000 0.429250
0.000000 0.033240 0.915331
0.127174 0.029924 0.902750
0.461184 0.025297 0.881459
0.795914 0.022111 0.860889
0.988901 0.020930 0.849375
0.000000 0.214419 0.890238
0.146556 0.212064 0.878137
0.481401 0.209107 0.857682
0.816966 0.207590 0.837946
1.000000 0.207370 0.826913
0.000000 0.521027 0.850524
0.181050 0.520276 0.839226
0.517288 0.520105 0.820163
0.854246 0.521374 0.801820
1.000000 0.522758 0.791589
0.024235 0.833024 0.813505
0.218238 0.833876 0.803008
0.555869 0.836491 0.785338
0.894220 0.840547 0.768389
1.000000 0.843534 0.758960
0.047334 1.000000 0.792609
0.241817 1.000000 0.782593
0.580283 1.000000 0.765758
0.919469 1.000000 0.749643
1.000000 1.000000 0.740695
0.000000 0.031920 1.000000
0.130769 0.028785 1.000000
0.464937 0.024475 1.000000
0.799825 0.021604 1.000000
0.992903 0.020606 1.000000
0.000000 0.213465 1.000000
0.150335 0.211291 1.000000
0.485337 0.208650 1.000000
0.821060 0.207450 1.000000
1.000000 0.207412 1.000000
0.000000 0.520684 1.000000
0.185134 0.520115 1.000000
0.521530 0.520260 0.998730
0.858646 0.521846 0.980545
1.000000 0.523411 0.970406
0.028534 0.833293 0.992129
0.222628 0.834327 0.981723
0.560417 0.837258 0.964211
0.898926 0.841630 0.947420
1.000000 0.844799 0.938082
0.051816 1.000000 0.971416
0.246390 1.000000 0.961491
0.585014 1.000000 0.944814
0.924358 1.000000 0.928857
1.000000 1.000000 0.920000
