public/luts/cine-teal-orange.cube
# KomfyEdit 3D LUT: cine-teal-orange
TITLE "cine-teal-orange"
LUT_3D_SIZE 9
DOMAIN_MIN 0.0 0.0 0.0
DOMAIN_MAX 1.0 1.0 1.0
0.000000 0.040000 0.120000
0.000000 0.038281 0.114745
0.111512 0.035870 0.107012
0.265024 0.032906 0.096785
0.444814 0.029828 0.085014
0.624814 0.027168 0.073453
0.778837 0.025227 0.063736
0.893893 0.023977 0.056584
0.971416 0.023232 0.051816
0.000000 0.113213 0.109282
0.004395 0.111651 0.104107
0.118988 0.109475 0.096491
0.272657 0.106827 0.086421
0.452632 0.104117 0.074835
0.632816 0.101826 0.063457
0.786996 0.100199 0.053898
0.902170 0.099184 0.046864
0.979772 0.098597 0.042175
0.000000 0.219539 0.094087
0.015311 0.218206 0.089026
0.130074 0.216369 0.081580
0.283970 0.214176 0.071737
0.464211 0.211998 0.060417
0.644661 0.210238 0.049305
0.799069 0.209066 0.039974
0.914412 0.208391 0.033109
0.992129 0.208033 0.028534
0.000000 0.359870 0.074690
0.030125 0.358837 0.069778
0.145110 0.357445 0.062554
0.299304 0.355847 0.053010
0.479893 0.354366 0.042038
0.660692 0.353304 0.031275
0.815397 0.352728 0.022241
0.930963 0.352497 0.015598
1.000000 0.352438 0.011174
0.000000 0.523411 0.053006
0.047958 0.522724 0.048267
0.163200 0.521846 0.041300
0.317738 0.520936 0.032100
0.498730 0.520260 0.021530
0.679931 0.520003 0.011170
0.834981 0.520115 0.002480
0.950803 0.520398 0.000000
1.000000 0.520684 0.000000
0.000000 0.688500 0.032096
0.066565 0.688159 0.027530
0.182064 0.687794 0.020820
0.336946 0.687573 0.011963
0.518341 0.687702 0.001796
0.699944 0.688250 0.000000
0.855338 0.689050 0.000000
0.971417 0.689847 0.000000
1.000000 0.690479 0.000000
0.005424 0.832672 0.014618
0.083299 0.832630 0.010202
0.199020 0.832710 0.003715
0.354200 0.833084 0.000000
0.535943 0.833911 0.000000
0.717895 0.835156 0.000000
0.873587 0.836552 0.000000
0.989888 0.837793 0.000000
1.000000 0.838725 0.000000
0.018472 0.943491 0.001669
0.096461 0.943677 0.000000
0.212351 0.944097 0.000000
0.367759 0.944926 0.000000
0.549768 0.946284 0.000000
0.731986 0.948061 0.000000
0.887905 0.949911 0.000000
1.000000 0.951492 0.000000
1.000000 0.952653 0.000000
0.027703 1.000000 0.000000
0.105771 1.000000 0.000000
0.221779 1.000000 0.000000
0.377344 1.000000 0.000000
0.559537 1.000000 0.000000
0.741940 1.000000 0.000000
0.898016 1.000000 0.000000
1.000000 1.000000 0.000000
1.000000 1.000000 0.000000
0.000000 0.039335 0.191492
0.000000 0.037645 0.186252
0.112892 0.035278 0.178541
0.266433 0.032373 0.168343
0.446258 0.029364 0.156607
0.626292 0.026773 0.145079
0.780344 0.024890 0.135392
0.895422 0.023684 0.128262
0.972960 0.022968 0.123509
0.000000 0.112608 0.180805
0.005783 0.111077 0.175644
0.120398 0.108944 0.168050
0.274097 0.106354 0.158010
0.454106 0.103713 0.146457
0.634324 0.101490 0.135114
0.788534 0.099922 0.125585
0.903729 0.098952 0.118572
0.981346 0.098394 0.113898
0.000000 0.219021 0.165653
0.016743 0.217718 0.160606
0.131528 0.215925 0.153182
0.285454 0.213790 0.143369
0.465728 0.211681 0.132083
0.646213 0.209990 0.121006
0.800650 0.208877 0.111704
0.916015 0.208245 0.104860
0.993746 0.207916 0.100301
0.000000 0.359467 0.146313
0.031614 0.358463 0.141416
0.146620 0.357115 0.134214
0.300844 0.355576 0.124699
0.481468 0.354163 0.113761
0.662301 0.353170 0.103032
0.817035 0.352652 0.094028
0.932623 0.352465 0.087407
1.000000 0.352436 0.082997
0.000000 0.523140 0.124695
0.049513 0.522482 0.119970
0.164776 0.521648 0.113026
0.319344 0.520796 0.103855
0.500370 0.520189 0.093319
0.681606 0.520001 0.082993
0.836685 0.520171 0.074333
0.952529 0.520498 0.067969
1.000000 0.520814 0.063732
0.000000 0.688361 0.103851
0.068186 0.688049 0.099299
0.183706 0.687728 0.092611
0.338618 0.687565 0.083784
0.520047 0.687763 0.073651
0.701685 0.688379 0.063728
0.857108 0.689238 0.055412
0.973209 0.690079 0.049305
1.000000 0.690741 0.045240
0.007087 0.832647 0.086430
0.084977 0.832634 0.082029
0.200719 0.832758 0.075563
0.355929 0.833191 0.067034
0.537706 0.834086 0.057250
0.719693 0.835399 0.047675
0.875414 0.836854 0.039657
0.991737 0.838139 0.033772
1.000000 0.839100 0.029857
0.020179 0.943553 0.073525
0.098182 0.943769 0.069238
0.214095 0.944232 0.062942
0.369532 0.945119 0.054640
0.551575 0.946546 0.045122
0.733828 0.948392 0.035813
0.889776 0.950301 0.028022
1.000000 0.951925 0.022307
1.000000 0.953115 0.018506
0.029440 1.000000 0.064789
0.107522 1.000000 0.060580
0.223553 1.000000 0.054402
0.379147 1.000000 0.046257
0.561374 1.000000 0.036923
0.743811 1.000000 0.027799
0.899917 1.000000 0.020165
1.000000 1.000000 0.014567
1.000000 1.000000 0.010846
0.000000 0.038369 0.297674
0.000422 0.036723 0.292456
0.114951 0.034420 0.284777
0.268536 0.031603 0.274623
0.448412 0.028695 0.262937
0.628497 0.026206 0.251461
0.782593 0.024410 0.241817
0.897703 0.023269 0.234720
0.975263 0.022597 0.229988
0.000000 0.111732 0.287031
0.007856 0.110243 0.281892
0.122503 0.108176 0.274331
0.276245 0.105673 0.264334
0.456305 0.103134 0.252833
0.636574 0.101013 0.241541
0.790827 0.099532 0.232054
0.906055 0.098626 0.225074
0.983694 0.098112 0.220422
0.000000 0.218274 0.271944
0.018880 0.217015 0.266919
0.133697 0.215287 0.259528
0.287666 0.213239 0.249758
0.467992 0.211231 0.238523
0.648528 0.209642 0.227497
0.803008 0.208616 0.218238
0.918406 0.208049 0.211427
0.996159 0.207764 0.206889
0.000000 0.358889 0.252689
0.033835 0.357929 0.247813
0.148875 0.356646 0.240644
0.303142 0.355194 0.231173
0.483816 0.353883 0.220286
0.664700 0.352991 0.209608
0.819478 0.352561 0.200647
0.935099 0.352439 0.194059
1.000000 0.352453 0.189671
0.000000 0.522758 0.231169
0.051832 0.522144 0.226466
0.167128 0.521374 0.219554
0.321740 0.520610 0.210426
0.502817 0.520105 0.199942
0.684103 0.520018 0.189667
0.839226 0.520276 0.181050
0.955103 0.520668 0.174719
1.000000 0.521027 0.170503
0.000000 0.688175 0.210422
0.070603 0.687907 0.205893
0.186156 0.687651 0.199238
0.341112 0.687575 0.190454
0.522591 0.687874 0.180372
0.704280 0.688593 0.170500
0.859747 0.689539 0.162227
0.975880 0.690444 0.156152
1.000000 0.691150 0.152110
0.009567 0.832630 0.193087
0.087479 0.832662 0.188707
0.203254 0.832850 0.182274
0.358508 0.833370 0.173788
0.540336 0.834367 0.164055
0.722373 0.835782 0.154531
0.878137 0.837324 0.146556
0.994493 0.838674 0.140704
1.000000 0.839679 0.136811
0.022724 0.943666 0.180246
0.100749 0.943925 0.175981
0.216694 0.944453 0.169717
0.372175 0.945428 0.161459
0.554269 0.946956 0.151992
0.736572 0.948904 0.142734
0.892564 0.950900 0.134986
1.000000 0.952590 0.129304
1.000000 0.953823 0.125525
0.032030 1.000000 0.171555
0.110134 1.000000 0.167368
0.226197 1.000000 0.161222
0.381835 1.000000 0.153121
0.564113 1.000000 0.143838
0.746601 1.000000 0.134764
0.902750 1.000000 0.127174
1.000000 1.000000 0.121609
1.000000 1.000000 0.117910
0.000000 0.037113 0.439959
0.003157 0.035525 0.434770
0.117731 0.033310 0.427135
0.271374 0.030609 0.417039
0.451318 0.027838 0.405422
0.631471 0.025485 0.394014
0.785625 0.023806 0.384429
0.900779 0.022752 0.377374
0.978368 0.022139 0.372672
0.000000 0.110596 0.429377
0.010651 0.109166 0.424267
0.125342 0.107186 0.416749
0.279143 0.104800 0.406811
0.459271 0.102397 0.395377
0.639608 0.100412 0.384154
0.793920 0.099048 0.374726
0.909191 0.098229 0.367789
0.986860 0.097774 0.363166
0.000000 0.217311 0.414377
0.021762 0.216111 0.409381
0.136623 0.214470 0.402033
0.290651 0.212538 0.392322
0.471045 0.210667 0.381154
0.651648 0.209215 0.370197
0.806187 0.208305 0.360996
0.921628 0.207826 0.354229
0.999411 0.207599 0.349720
0.000000 0.358154 0.395235
0.036831 0.357252 0.390388
0.151914 0.356056 0.383263
0.306240 0.354721 0.373850
0.486983 0.353546 0.363031
0.667935 0.352791 0.352421
0.822771 0.352477 0.343519
0.938435 0.352442 0.336974
1.000000 0.352515 0.332615
0.000000 0.522285 0.373846
0.054959 0.521729 0.369172
0.170299 0.521047 0.362304
0.324969 0.520399 0.353234
0.506114 0.520030 0.342818
0.687469 0.520080 0.332611
0.842649 0.520455 0.324053
0.958570 0.520933 0.317765
1.000000 0.521352 0.313579
0.000000 0.687964 0.353231
0.073862 0.687754 0.348730
0.189458 0.687586 0.342118
0.344472 0.687626 0.333393
0.526020 0.688062 0.323380
0.707777 0.688917 0.313575
0.863302 0.689980 0.305361
0.979479 0.690972 0.299330
1.000000 0.691737 0.295317
0.012910 0.832647 0.336009
0.090851 0.832737 0.331658
0.206670 0.833012 0.325269
0.361981 0.833649 0.316841
0.543878 0.834782 0.307176
0.725983 0.836334 0.297720
0.881806 0.837992 0.289804
0.998206 0.839429 0.283995
1.000000 0.840493 0.280132
0.026153 0.943855 0.323255
0.104208 0.944174 0.319018
0.220196 0.944789 0.312799
0.375736 0.945880 0.304599
0.557898 0.947545 0.295199
0.740269 0.949629 0.286010
0.896320 0.951742 0.278321
1.000000 0.953519 0.272681
1.000000 0.954811 0.268932
0.035519 1.000000 0.314623
0.113653 1.000000 0.310466
0.229759 1.000000 0.304364
0.385456 1.000000 0.296321
0.567802 1.000000 0.287106
0.750358 1.000000 0.278100
0.906565 1.000000 0.270569
1.000000 1.000000 0.265047
1.000000 1.000000 0.261377
0.000000 0.035700 0.606450
0.006386 0.034181 0.601295
0.121011 0.032068 0.593711
0.274722 0.029503 0.583683
0.454746 0.026891 0.572146
0.634979 0.024698 0.560818
0.789201 0.023156 0.551301
0.904406 0.022204 0.544297
0.982029 0.021659 0.539629
0.000000 0.109323 0.595938
0.013950 0.107962 0.590862
0.128692 0.106084 0.583395
0.282561 0.103834 0.573525
0.462769 0.101591 0.562171
0.643186 0.099766 0.551027
0.797566 0.098538 0.541668
0.912888 0.097821 0.534782
0.990591 0.097434 0.530193
0.000000 0.216242 0.581039
0.025163 0.215109 0.576077
0.140074 0.213570 0.568780
0.294170 0.211776 0.559137
0.474644 0.210064 0.548050
0.655328 0.208771 0.537172
0.809935 0.207998 0.528040
0.925427 0.207621 0.521324
1.000000 0.207462 0.516849
0.000000 0.357350 0.562030
0.040365 0.356517 0.557218
0.155498 0.355423 0.550143
0.309892 0.354224 0.540798
0.490715 0.353209 0.530059
0.671747 0.352613 0.519530
0.826652 0.352436 0.510695
0.942366 0.352503 0.504201
1.000000 0.352644 0.499877
0.000000 0.521788 0.540794
0.058646 0.521301 0.536155
0.174037 0.520720 0.529337
0.328775 0.520209 0.520336
0.510000 0.520000 0.510000
0.691434 0.520209 0.499873
0.846683 0.520720 0.491383
0.962655 0.521301 0.485146
1.000000 0.521788 0.480994
0.000000 0.687774 0.520332
0.077702 0.687633 0.515867
0.193349 0.687566 0.509306
0.348432 0.687743 0.500649
0.530059 0.688339 0.490715
0.711896 0.689353 0.480990
0.867489 0.690553 0.472844
0.983717 0.691647 0.466864
1.000000 0.692480 0.462885
0.016849 0.832723 0.503244
0.094824 0.832881 0.498927
0.210694 0.833259 0.492589
0.366074 0.834032 0.484230
0.548050 0.835324 0.474644
0.730235 0.837036 0.465268
0.886126 0.838831 0.457420
1.000000 0.840370 0.451662
1.000000 0.841502 0.447833
0.030193 0.944134 0.490591
0.108283 0.944521 0.486389
0.224322 0.945238 0.480220
0.379929 0.946465 0.472088
0.562171 0.948290 0.462769
0.744623 0.950534 0.453659
0.900741 0.952783 0.446038
1.000000 0.954662 0.440450
1.000000 0.956022 0.436735
0.039629 1.000000 0.482029
0.117798 1.000000 0.477907
0.233955 1.000000 0.471855
0.389720 1.000000 0.463881
0.572146 1.000000 0.454746
0.754781 1.000000 0.445820
0.911057 1.000000 0.438356
1.000000 1.000000 0.432886
1.000000 1.000000 0.429250
0.000000 0.034348 0.772971
0.009645 0.032897 0.767850
0.124321 0.030886 0.760317
0.278100 0.028458 0.750358
0.458204 0.026006 0.738900
0.638517 0.023972 0.727652
0.792807 0.022566 0.718203
0.908063 0.021716 0.711250
0.985721 0.021240 0.706617
0.000000 0.108111 0.762529
0.017280 0.106819 0.757487
0.132073 0.105043 0.750072
0.286010 0.102929 0.740269
0.466297 0.100846 0.728996
0.646795 0.099181 0.717932
0.801242 0.098089 0.708640
0.916616 0.097474 0.701805
0.994353 0.097156 0.697251
0.000000 0.215233 0.747731
0.028594 0.214169 0.742804
0.143556 0.212732 0.735558
0.297720 0.211074 0.725983
0.478274 0.209522 0.714976
0.659037 0.208389 0.704178
0.813713 0.207752 0.695114
0.929256 0.207476 0.688448
1.000000 0.207387 0.684008
0.000000 0.356607 0.728855
0.043928 0.355842 0.724077
0.159113 0.354850 0.717054
0.313575 0.353787 0.707777
0.494478 0.352932 0.697118
0.675589 0.352496 0.686668
0.830562 0.352456 0.677902
0.946328 0.352625 0.671459
1.000000 0.352834 0.667169
0.000000 0.521352 0.707773
0.062364 0.520933 0.703168
0.177805 0.520455 0.696402
0.332611 0.520080 0.687469
0.513916 0.520030 0.677212
0.695430 0.520399 0.667165
0.850748 0.521047 0.658743
0.966770 0.521729 0.652557
1.000000 0.522285 0.648439
0.003713 0.687645 0.687465
0.081573 0.687572 0.683033
0.197271 0.687607 0.676523
0.352421 0.687921 0.667935
0.534129 0.688676 0.658081
0.716046 0.689850 0.648436
0.871707 0.691186 0.640358
0.987986 0.692382 0.634429
1.000000 0.693284 0.630484
0.020818 0.832859 0.670509
0.098828 0.833086 0.666227
0.214748 0.833566 0.659939
0.370197 0.834475 0.651648
0.552252 0.835927 0.642143
0.734518 0.837799 0.632847
0.890477 0.839730 0.625067
1.000000 0.841371 0.619360
1.000000 0.842572 0.615565
0.034264 0.944473 0.657958
0.112388 0.944929 0.653790
0.228478 0.945748 0.647672
0.384154 0.947112 0.639608
0.566475 0.949096 0.630369
0.749007 0.951499 0.621339
0.905193 0.953885 0.613786
1.000000 0.955866 0.608249
1.000000 0.957295 0.604568
0.043770 1.000000 0.649466
0.121973 1.000000 0.645378
0.238181 1.000000 0.639377
0.394014 1.000000 0.631471
0.576520 1.000000 0.622416
0.759235 1.000000 0.613570
0.915579 1.000000 0.606175
1.000000 1.000000 0.600755
1.000000 1.000000 0.597153
0.000000 0.033240 0.915331
0.012456 0.031849 0.910239
0.127174 0.029924 0.902750
0.281012 0.027613 0.892849
0.461184 0.025297 0.881459
0.641565 0.023400 0.870279
0.795914 0.022111 0.860889
0.911214 0.021348 0.853980
0.988901 0.020930 0.849375
0.000000 0.107124 0.904948
0.020150 0.105890 0.899936
0.134986 0.104201 0.892564
0.288982 0.102204 0.882820
0.469338 0.100257 0.871615
0.649903 0.098728 0.860619
0.804409 0.097754 0.851386
0.919826 0.097226 0.844595
0.997592 0.096966 0.840070
0.000000 0.214419 0.890238
0.031550 0.213414 0.885340
0.146556 0.212064 0.878137
0.300779 0.210522 0.868621
0.481401 0.209107 0.857682
0.662232 0.208110 0.846952
0.816966 0.207590 0.837946
0.932553 0.207401 0.831324
1.000000 0.207370 0.826913
0.000000 0.356020 0.871475
0.046999 0.355314 0.866727
0.162227 0.354409 0.859747
0.316748 0.353463 0.850528
0.497718 0.352744 0.839937
0.678898 0.352445 0.829556
0.833929 0.352521 0.820848
0.949738 0.352777 0.814449
1.000000 0.353045 0.810188
0.000000 0.521027 0.850524
0.065565 0.520668 0.845949
0.181050 0.520276 0.839226
0.335915 0.520018 0.830351
0.517288 0.520105 0.820163
0.698870 0.520610 0.810184
0.854246 0.521374 0.801820
0.970312 0.522144 0.795678
1.000000 0.522758 0.791589
0.007017 0.687583 0.830347
0.084905 0.687569 0.825945
0.200647 0.687691 0.819478
0.355856 0.688121 0.810948
0.537632 0.689013 0.801162
0.719617 0.690324 0.791586
0.875336 0.691776 0.783566
0.991659 0.693059 0.777681
1.000000 0.694019 0.773765
0.024235 0.833024 0.813505
0.102274 0.833310 0.809252
0.218238 0.833876 0.803008
0.373745 0.834902 0.794775
0.555869 0.836491 0.785338
0.738202 0.838499 0.776110
0.894220 0.840547 0.768389
1.000000 0.842275 0.762725
1.000000 0.843534 0.758960
0.037768 0.944812 0.801040
0.115920 0.945326 0.796902
0.232054 0.946232 0.790827
0.387788 0.947712 0.782822
0.570179 0.949833 0.773651
0.752778 0.952373 0.764689
0.909023 0.954876 0.757195
1.000000 0.956943 0.751701
1.000000 0.958431 0.748050
0.047334 1.000000 0.792609
0.125566 1.000000 0.788550
0.241817 1.000000 0.782593
0.397709 1.000000 0.774745
0.580283 1.000000 0.765758
0.763067 1.000000 0.756980
0.919469 1.000000 0.749643
1.000000 1.000000 0.744267
1.000000 1.000000 0.740695
0.000000 0.032443 1.000000
0.014567 0.031095 1.000000
0.129319 0.029235 1.000000
0.283200 0.027011 0.999213
0.463423 0.024797 0.987874
0.643855 0.023002 0.976745
0.798247 0.021800 0.967398
0.913579 0.021102 0.960522
0.991288 0.020728 0.955939
0.000000 0.106416 1.000000
0.022307 0.105226 1.000000
0.137175 0.103601 0.998930
0.291214 0.101692 0.989229
0.471621 0.099847 0.978075
0.652237 0.098420 0.967130
0.806787 0.097532 0.957940
0.922237 0.097069 0.951181
1.000000 0.096853 0.946678
0.000000 0.213840 0.996613
0.033772 0.212879 0.991737
0.148810 0.211594 0.984567
0.303076 0.210139 0.975094
0.483749 0.208826 0.964206
0.664632 0.207931 0.953527
0.819409 0.207498 0.944565
0.935028 0.207374 0.937976
1.000000 0.207387 0.933587
0.000000 0.355611 0.977935
0.049305 0.354949 0.973209
0.164566 0.354108 0.966261
0.319130 0.353249 0.957086
0.500151 0.352633 0.946546
0.681382 0.352435 0.936216
0.836457 0.352598 0.927552
0.952298 0.352919 0.921185
1.000000 0.353231 0.916946
0.000000 0.520814 0.957082
0.067969 0.520498 0.952529
0.183487 0.520171 0.945838
0.338395 0.520001 0.937007
0.519819 0.520189 0.926870
0.701452 0.520796 0.916942
0.856871 0.521648 0.908622
0.972969 0.522482 0.902512
1.000000 0.523140 0.898445
0.009497 0.687565 0.937003
0.087407 0.687595 0.932623
0.203182 0.687782 0.926189
0.358434 0.688300 0.917702
0.540260 0.689293 0.907967
0.722296 0.690706 0.898442
0.878060 0.692245 0.890466
0.994415 0.693593 0.884613
1.000000 0.694597 0.880719
0.026800 0.833176 0.920246
0.104860 0.833506 0.916015
0.220857 0.834137 0.909803
0.376407 0.835250 0.901614
0.558582 0.836941 0.892228
0.740967 0.839051 0.883051
0.897028 0.841186 0.875373
1.000000 0.842978 0.869742
1.000000 0.844282 0.865998
0.040397 0.945093 0.907846
0.118572 0.945651 0.903729
0.234738 0.946622 0.897687
0.390516 0.948190 0.889726
0.572957 0.950413 0.880605
0.755607 0.953054 0.871695
0.911896 0.955644 0.864244
1.000000 0.957776 0.858783
1.000000 0.959308 0.855153
0.050008 1.000000 0.899459
0.128262 1.000000 0.895422
0.244546 1.000000 0.889498
0.400481 1.000000 0.881693
0.583106 1.000000 0.872757
0.765941 1.000000 0.864030
0.922386 1.000000 0.856737
1.000000 1.000000 0.851393
1.000000 1.000000 0.847843
0.000000 0.031920 1.000000
0.015996 0.030601 1.000000
0.130769 0.028785 1.000000
0.284680 0.026620 1.000000
0.464937 0.024475 1.000000
0.645404 0.022748 1.000000
0.799825 0.021604 1.000000
0.915179 0.020950 1.000000
0.992903 0.020606 1.000000
0.000000 0.105953 1.000000
0.023766 0.104793 1.000000
0.138656 0.103212 1.000000
0.292725 0.101361 1.000000
0.473166 0.099584 1.000000
0.653816 0.098226 1.000000
0.808395 0.097397 1.000000
0.923867 0.096978 1.000000
1.000000 0.096791 1.000000
0.000000 0.213465 1.000000
0.035274 0.212533 1.000000
0.150335 0.211291 1.000000
0.304630 0.209895 1.000000
0.485337 0.208650 1.000000
0.666254 0.207824 1.000000
0.821060 0.207450 1.000000
0.936701 0.207370 1.000000
1.000000 0.207412 1.000000
0.000000 0.355349 1.000000
0.050865 0.354717 1.000000
0.166147 0.353920 1.000000
0.320741 0.353120 1.000000
0.501796 0.352572 1.000000
0.683061 0.352443 1.000000
0.838166 0.352664 0.999409
0.954029 0.353029 0.993064
1.000000 0.353371 0.988840
0.000000 0.520684 1.000000
0.069595 0.520398 1.000000
0.185134 0.520115 1.000000
0.340072 0.520003 1.000000
0.521530 0.520260 0.998730
0.703198 0.520936 0.988836
0.858646 0.521846 0.980545
0.974766 0.522724 0.974457
1.000000 0.523411 0.970406
0.011174 0.687568 1.000000
0.089099 0.687627 1.000000
0.204895 0.687858 0.998051
0.360177 0.688434 0.989594
0.542038 0.689496 0.979893
0.724108 0.690977 0.970402
0.879900 0.692575 0.962456
0.996277 0.693967 0.956624
1.000000 0.695000 0.952745
0.028534 0.833293 0.992129
0.106609 0.833651 0.987913
0.222628 0.834327 0.981723
0.378207 0.835499 0.973563
0.560417 0.837258 0.964211
0.742835 0.839436 0.955068
0.898926 0.841630 0.947420
1.000000 0.843466 0.941811
1.000000 0.844799 0.938082
0.042175 0.945297 0.979772
0.120364 0.945884 0.975671
0.236552 0.946899 0.969650
0.392359 0.948525 0.961718
0.574835 0.950816 0.952632
0.757519 0.953527 0.943755
0.913837 0.956175 0.936334
1.000000 0.958351 0.930895
1.000000 0.959912 0.927280
0.051816 1.000000 0.971416
0.130085 1.000000 0.967393
0.246390 1.000000 0.961491
0.402355 1.000000 0.953716
0.585014 1.000000 0.944814
0.767883 1.000000 0.936122
0.924358 1.000000 0.928857
1.000000 1.000000 0.923536
1.000000 1.000000 0.920000
