public/luts/cine-teal-orange.cube
# KomfyEdit 3D LUT: cine-teal-orange
TITLE "cine-teal-orange"
LUT_3D_SIZE 33
DOMAIN_MIN 0.0 0.0 0.0
DOMAIN_MAX 1.0 1.0 1.0
0.000000 0.040000 0.120000
0.000000 0.039632 0.118893
0.000000 0.039225 0.117654
0.000000 0.038774 0.116275
0.000000 0.038281 0.114745
0.021896 0.037742 0.113058
0.049228 0.037160 0.111208
0.079094 0.036535 0.109193
0.111512 0.035870 0.107012
0.146445 0.035168 0.104670
0.183795 0.034436 0.102176
0.223400 0.033679 0.099542
0.265024 0.032906 0.096785
0.308365 0.032126 0.093927
0.353060 0.031346 0.090993
0.398694 0.030577 0.088012
0.444814 0.029828 0.085014
0.490948 0.029106 0.082030
0.536622 0.028419 0.079089
0.581384 0.027772 0.076222
0.624814 0.027168 0.073453
0.666546 0.026612 0.070804
0.706274 0.026103 0.068293
0.743761 0.025642 0.065935
0.778837 0.025227 0.063736
0.811401 0.024856 0.061703
0.841415 0.024526 0.059835
0.868892 0.024234 0.058131
0.893893 0.023977 0.056584
0.916514 0.023752 0.055189
0.936879 0.023555 0.053935
0.955128 0.023382 0.052814
0.971416 0.023232 0.051816
0.000000 0.055538 0.117708
0.000000 0.055178 0.116604
0.000000 0.054778 0.115370
0.000000 0.054336 0.113994
0.000000 0.053852 0.112470
0.023453 0.053325 0.110788
0.050791 0.052754 0.108944
0.080663 0.052142 0.106935
0.113088 0.051491 0.104762
0.148028 0.050805 0.102428
0.185387 0.050089 0.099941
0.225000 0.049350 0.097316
0.266633 0.048595 0.094568
0.309984 0.047833 0.091719
0.354689 0.047073 0.088796
0.400333 0.046324 0.085824
0.446463 0.045595 0.082836
0.492606 0.044893 0.079862
0.538291 0.044226 0.076932
0.583062 0.043598 0.074074
0.626502 0.043014 0.071314
0.668243 0.042475 0.068674
0.707980 0.041984 0.066173
0.745474 0.041539 0.063822
0.780558 0.041139 0.061631
0.813130 0.040782 0.059605
0.843149 0.040465 0.057744
0.870633 0.040186 0.056045
0.895639 0.039940 0.054504
0.918265 0.039724 0.053113
0.938634 0.039535 0.051864
0.956888 0.039371 0.050748
0.973179 0.039228 0.049753
0.000000 0.072838 0.115167
0.000000 0.072485 0.114067
0.000000 0.072094 0.112837
0.000000 0.071663 0.111467
0.000321 0.071189 0.109947
0.025193 0.070674 0.108272
0.052537 0.070117 0.106435
0.082417 0.069519 0.104433
0.114849 0.068884 0.102267
0.149798 0.068215 0.099942
0.187166 0.067517 0.097465
0.226789 0.066797 0.094849
0.268432 0.066062 0.092111
0.311793 0.065321 0.089273
0.356509 0.064583 0.086360
0.402164 0.063856 0.083400
0.448305 0.063149 0.080423
0.494460 0.062470 0.077459
0.540155 0.061824 0.074540
0.584937 0.061218 0.071693
0.628387 0.060655 0.068944
0.670139 0.060137 0.066314
0.709885 0.059665 0.063822
0.747389 0.059238 0.061481
0.782481 0.058855 0.059298
0.815060 0.058514 0.057280
0.845088 0.058212 0.055426
0.872577 0.057945 0.053734
0.897590 0.057711 0.052199
0.920222 0.057506 0.050814
0.940595 0.057327 0.049570
0.958853 0.057172 0.048457
0.975149 0.057037 0.047466
0.000000 0.092025 0.112363
0.000000 0.091681 0.111267
0.000000 0.091299 0.110042
0.000000 0.090879 0.108677
0.002252 0.090418 0.107164
0.027131 0.089916 0.105495
0.054482 0.089373 0.103665
0.084370 0.088792 0.101671
0.116811 0.088174 0.099514
0.151770 0.087523 0.097198
0.189148 0.086845 0.094731
0.228781 0.086147 0.092126
0.270435 0.085434 0.089399
0.313808 0.084717 0.086573
0.358536 0.084003 0.083672
0.404203 0.083300 0.080724
0.450356 0.082618 0.077759
0.496524 0.081963 0.074808
0.542231 0.081342 0.071901
0.587025 0.080760 0.069066
0.630487 0.080220 0.066329
0.672250 0.079725 0.063710
0.712007 0.079274 0.061229
0.749520 0.078867 0.058897
0.784622 0.078503 0.056724
0.817210 0.078179 0.054715
0.847245 0.077893 0.052869
0.874743 0.077641 0.051184
0.899762 0.077420 0.049656
0.922399 0.077228 0.048277
0.942779 0.077060 0.047038
0.961042 0.076914 0.045931
0.977341 0.076787 0.044944
0.000000 0.113213 0.109282
0.000000 0.112878 0.108192
0.000000 0.112508 0.106972
0.000000 0.112099 0.105613
0.004395 0.111651 0.104107
0.029281 0.111164 0.102445
0.056641 0.110638 0.100623
0.086537 0.110074 0.098638
0.118988 0.109475 0.096491
0.153957 0.108846 0.094185
0.191346 0.108190 0.091729
0.230991 0.107515 0.089136
0.272657 0.106827 0.086421
0.316043 0.106135 0.083608
0.360784 0.105447 0.080720
0.406465 0.104772 0.077786
0.452632 0.104117 0.074835
0.498813 0.103490 0.071897
0.544534 0.102896 0.069004
0.589341 0.102340 0.066182
0.632816 0.101826 0.063457
0.674591 0.101355 0.060851
0.714360 0.100927 0.058382
0.751884 0.100543 0.056061
0.786996 0.100199 0.053898
0.819594 0.099895 0.051898
0.849638 0.099626 0.050061
0.877143 0.099390 0.048385
0.902170 0.099184 0.046864
0.924814 0.099005 0.045491
0.945200 0.098849 0.044259
0.963468 0.098714 0.043157
0.979772 0.098597 0.042175
0.000000 0.136500 0.105917
0.000000 0.136176 0.104832
0.000000 0.135817 0.103618
0.000000 0.135421 0.102266
0.006763 0.134988 0.100766
0.031657 0.134517 0.099113
0.059026 0.134009 0.097300
0.088932 0.133465 0.095325
0.121393 0.132887 0.093188
0.156373 0.132280 0.090894
0.193775 0.131648 0.088450
0.233432 0.130999 0.085869
0.275112 0.130338 0.083168
0.318512 0.129675 0.080369
0.363268 0.129016 0.077496
0.408963 0.128370 0.074576
0.455145 0.127745 0.071640
0.501341 0.127148 0.068718
0.547077 0.126583 0.065839
0.591899 0.126057 0.063032
0.635388 0.125571 0.060321
0.677176 0.125127 0.057729
0.716958 0.124725 0.055272
0.754495 0.124365 0.052963
0.789618 0.124044 0.050812
0.822226 0.123760 0.048823
0.852280 0.123511 0.046995
0.879794 0.123294 0.045328
0.904829 0.123104 0.043815
0.927481 0.122939 0.042450
0.947873 0.122796 0.041224
0.966147 0.122673 0.040127
0.982456 0.122567 0.039151
0.000000 0.161960 0.102262
0.000000 0.161647 0.101183
0.000000 0.161301 0.099975
0.000000 0.160920 0.098630
0.009366 0.160503 0.097139
0.034269 0.160050 0.095494
0.061648 0.159561 0.093691
0.091565 0.159038 0.091726
0.124037 0.158483 0.089601
0.159030 0.157901 0.087319
0.196444 0.157296 0.084888
0.236116 0.156675 0.082322
0.277811 0.156044 0.079636
0.321226 0.155411 0.076852
0.365998 0.154784 0.073994
0.411709 0.154170 0.071091
0.457908 0.153578 0.068171
0.504120 0.153013 0.065265
0.549872 0.152481 0.062403
0.594710 0.151986 0.059611
0.638214 0.151531 0.056916
0.680017 0.151116 0.054338
0.719813 0.150743 0.051895
0.757363 0.150409 0.049600
0.792499 0.150113 0.047461
0.825119 0.149853 0.045483
0.855183 0.149625 0.043667
0.882707 0.149426 0.042009
0.907750 0.149254 0.040505
0.930410 0.149106 0.039148
0.950809 0.148977 0.037929
0.969090 0.148867 0.036839
0.985405 0.148772 0.035868
0.000000 0.189637 0.098317
0.000000 0.189337 0.097243
0.000000 0.189005 0.096043
0.000000 0.188640 0.094706
0.012214 0.188240 0.093223
0.037127 0.187806 0.091588
0.064516 0.187338 0.089795
0.094444 0.186838 0.087842
0.126929 0.186308 0.085730
0.161935 0.185753 0.083461
0.199364 0.185177 0.081045
0.239051 0.184586 0.078493
0.280762 0.183987 0.075823
0.324194 0.183388 0.073056
0.368983 0.182795 0.070216
0.414712 0.182217 0.067330
0.460928 0.181660 0.064428
0.507158 0.181131 0.061540
0.552928 0.180634 0.058695
0.597783 0.180173 0.055921
0.641303 0.179751 0.053242
0.683123 0.179369 0.050680
0.722934 0.179026 0.048253
0.760498 0.178721 0.045972
0.795647 0.178452 0.043847
0.828280 0.178216 0.041881
0.858356 0.178012 0.040076
0.885890 0.177834 0.038428
0.910943 0.177681 0.036934
0.933611 0.177550 0.035586
0.954018 0.177437 0.034375
0.972306 0.177341 0.033292
0.988627 0.177259 0.032327
0.000000 0.219539 0.094087
0.000000 0.219252 0.093021
0.000000 0.218936 0.091828
0.000000 0.218587 0.090499
0.015311 0.218206 0.089026
0.040234 0.217793 0.087401
0.067634 0.217347 0.085620
0.097575 0.216872 0.083679
0.130074 0.216369 0.081580
0.165094 0.215843 0.079326
0.202539 0.215298 0.076925
0.242242 0.214740 0.074390
0.283970 0.214176 0.071737
0.327420 0.213612 0.068988
0.372228 0.213057 0.066166
0.417976 0.212516 0.063299
0.464211 0.211998 0.060417
0.510460 0.211507 0.057548
0.556249 0.211048 0.054722
0.601122 0.210624 0.051966
0.644661 0.210238 0.049305
0.686497 0.209890 0.046761
0.726325 0.209580 0.044350
0.763905 0.209306 0.042085
0.799069 0.209066 0.039974
0.831715 0.208858 0.038022
0.861803 0.208678 0.036229
0.889349 0.208523 0.034593
0.914412 0.208391 0.033109
0.937090 0.208279 0.031770
0.957505 0.208183 0.030567
0.975800 0.208101 0.029492
0.992129 0.208033 0.028534
0.000000 0.251627 0.089586
0.000000 0.251355 0.088527
0.000000 0.251055 0.087342
0.000000 0.250724 0.086022
0.018658 0.250363 0.084559
0.043592 0.249972 0.082945
0.071004 0.249551 0.081176
0.100958 0.249102 0.079249
0.133472 0.248628 0.077164
0.168508 0.248133 0.074926
0.205969 0.247621 0.072542
0.245690 0.247099 0.070024
0.287437 0.246571 0.067390
0.330906 0.246046 0.064660
0.375733 0.245531 0.061858
0.421501 0.245031 0.059012
0.467757 0.244553 0.056149
0.514027 0.244103 0.053301
0.559836 0.243685 0.050495
0.604729 0.243301 0.047759
0.648287 0.242954 0.045118
0.690142 0.242643 0.042592
0.729987 0.242368 0.040199
0.767584 0.242127 0.037950
0.802763 0.241919 0.035855
0.835423 0.241739 0.033917
0.865525 0.241586 0.032138
0.893083 0.241455 0.030514
0.918158 0.241345 0.029041
0.940845 0.241253 0.027712
0.961270 0.241175 0.026518
0.979573 0.241110 0.025451
0.995908 0.241055 0.024500
0.000000 0.285815 0.084834
0.000000 0.285558 0.083782
0.000000 0.285275 0.082606
0.000000 0.284964 0.081296
0.022250 0.284624 0.079843
0.047196 0.284256 0.078241
0.074621 0.283861 0.076485
0.104590 0.283441 0.074572
0.137118 0.282998 0.072502
0.172171 0.282536 0.070281
0.209650 0.282059 0.067914
0.249390 0.281574 0.065415
0.291156 0.281086 0.062801
0.334646 0.280602 0.060091
0.379494 0.280129 0.057311
0.425284 0.279672 0.054486
0.471561 0.279238 0.051645
0.517853 0.278832 0.048819
0.563683 0.278456 0.046034
0.608598 0.278115 0.043320
0.652176 0.277809 0.040699
0.694051 0.277537 0.038193
0.733915 0.277300 0.035818
0.771529 0.277094 0.033587
0.806725 0.276919 0.031508
0.839401 0.276770 0.029586
0.869516 0.276645 0.027821
0.897087 0.276540 0.026210
0.922174 0.276454 0.024749
0.944872 0.276383 0.023430
0.965306 0.276324 0.022246
0.983618 0.276276 0.021188
0.999961 0.276237 0.020245
0.000000 0.321962 0.079857
0.000000 0.321721 0.078813
0.000000 0.321456 0.077646
0.003502 0.321165 0.076346
0.026078 0.320848 0.074905
0.051036 0.320505 0.073315
0.078475 0.320137 0.071573
0.108458 0.319747 0.069675
0.141003 0.319336 0.067621
0.176073 0.318909 0.065417
0.213571 0.318470 0.063069
0.253330 0.318024 0.060590
0.295117 0.317578 0.057996
0.338629 0.317137 0.055308
0.383499 0.316708 0.052550
0.429312 0.316297 0.049748
0.475613 0.315909 0.046930
0.521927 0.315548 0.044127
0.567780 0.315219 0.041365
0.612717 0.314922 0.038673
0.656317 0.314659 0.036074
0.698213 0.314429 0.033588
0.738096 0.314231 0.031233
0.775729 0.314063 0.029021
0.810943 0.313922 0.026960
0.843634 0.313806 0.025054
0.873765 0.313711 0.023303
0.901350 0.313634 0.021706
0.926448 0.313572 0.020257
0.949158 0.313523 0.018950
0.969602 0.313485 0.017776
0.987923 0.313455 0.016727
1.000000 0.313432 0.015792
0.000000 0.359870 0.074690
0.000000 0.359647 0.073655
0.000000 0.359400 0.072497
0.007537 0.359130 0.071207
0.030125 0.358837 0.069778
0.055096 0.358520 0.068201
0.082549 0.358181 0.066473
0.112548 0.357822 0.064591
0.145110 0.357445 0.062554
0.180198 0.357054 0.060368
0.217715 0.356654 0.058040
0.257495 0.356250 0.055582
0.299304 0.355847 0.053010
0.342838 0.355452 0.050344
0.387732 0.355069 0.047609
0.433569 0.354706 0.044831
0.479893 0.354366 0.042038
0.526232 0.354054 0.039258
0.572109 0.353772 0.036520
0.617069 0.353522 0.033851
0.660692 0.353304 0.031275
0.702609 0.353117 0.028811
0.742513 0.352961 0.026477
0.780166 0.352832 0.024284
0.815397 0.352728 0.022241
0.848106 0.352645 0.020352
0.878252 0.352581 0.018617
0.905851 0.352533 0.017034
0.930963 0.352497 0.015598
0.953684 0.352472 0.014303
0.974139 0.352455 0.013140
0.992470 0.352444 0.012100
1.000000 0.352438 0.011174
0.000000 0.399290 0.069373
0.000000 0.399084 0.068347
0.000000 0.398858 0.067199
0.011768 0.398610 0.065920
0.034368 0.398340 0.064503
0.059352 0.398051 0.062940
0.086821 0.397741 0.061227
0.116835 0.397414 0.059361
0.149415 0.397073 0.057342
0.184522 0.396720 0.055175
0.222059 0.396360 0.052867
0.261861 0.395999 0.050430
0.303693 0.395641 0.047880
0.347250 0.395293 0.045239
0.392168 0.394959 0.042528
0.438029 0.394645 0.039774
0.484379 0.394355 0.037006
0.530742 0.394093 0.034251
0.576644 0.393860 0.031538
0.621629 0.393658 0.028893
0.665275 0.393488 0.026340
0.707215 0.393346 0.023899
0.747140 0.393233 0.021586
0.784813 0.393144 0.019414
0.820064 0.393078 0.017390
0.852790 0.393031 0.015518
0.882953 0.392999 0.013800
0.910566 0.392980 0.012232
0.935692 0.392972 0.010809
0.958425 0.392971 0.009526
0.978891 0.392976 0.008374
0.997231 0.392984 0.007344
1.000000 0.392996 0.006426
0.000000 0.439921 0.063953
0.000000 0.439733 0.062936
0.000000 0.439526 0.061798
0.016166 0.439301 0.060531
0.038778 0.439057 0.059126
0.063776 0.438795 0.057577
0.091260 0.438516 0.055879
0.121292 0.438223 0.054030
0.153889 0.437917 0.052029
0.189016 0.437603 0.049881
0.226574 0.437285 0.047594
0.266398 0.436968 0.045179
0.308252 0.436657 0.042653
0.351834 0.436357 0.040035
0.396777 0.436073 0.037349
0.442664 0.435809 0.034621
0.489039 0.435571 0.031879
0.535428 0.435360 0.029150
0.581356 0.435178 0.026462
0.626365 0.435026 0.023842
0.670035 0.434904 0.021313
0.711998 0.434809 0.018895
0.751946 0.434739 0.016605
0.789639 0.434693 0.014453
0.824909 0.434665 0.012448
0.857654 0.434654 0.010595
0.887833 0.434656 0.008893
0.915462 0.434667 0.007340
0.940601 0.434687 0.005932
0.963347 0.434711 0.004661
0.983824 0.434738 0.003520
1.000000 0.434767 0.002500
1.000000 0.434797 0.001592
0.000000 0.481419 0.058480
0.000000 0.481250 0.057472
0.000334 0.481064 0.056345
0.020696 0.480862 0.055089
0.043321 0.480643 0.053697
0.068334 0.480409 0.052162
0.095833 0.480162 0.050480
0.125881 0.479902 0.048647
0.158497 0.479633 0.046665
0.193644 0.479359 0.044537
0.231223 0.479084 0.042271
0.271070 0.478812 0.039879
0.312948 0.478548 0.037376
0.356554 0.478297 0.034783
0.401523 0.478063 0.032122
0.447435 0.477852 0.029420
0.493837 0.477666 0.026704
0.540252 0.477507 0.024001
0.586205 0.477377 0.021339
0.631240 0.477276 0.018745
0.674935 0.477202 0.016240
0.716921 0.477155 0.013846
0.756892 0.477131 0.011578
0.794606 0.477126 0.009447
0.829896 0.477139 0.007463
0.862659 0.477164 0.005628
0.892855 0.477200 0.003943
0.920500 0.477243 0.002405
0.945653 0.477290 0.001011
0.968412 0.477340 0.000000
0.988900 0.477390 0.000000
1.000000 0.477440 0.000000
1.000000 0.477488 0.000000
0.000000 0.523411 0.053006
0.000000 0.523261 0.052007
0.004946 0.523096 0.050890
0.025320 0.522917 0.049646
0.047958 0.522724 0.048267
0.072985 0.522519 0.046746
0.100500 0.522302 0.045079
0.130565 0.522077 0.043264
0.163200 0.521846 0.041300
0.198366 0.521612 0.039192
0.235967 0.521379 0.036948
0.275836 0.521152 0.034578
0.317738 0.520936 0.032100
0.361369 0.520735 0.029531
0.406363 0.520552 0.026896
0.452302 0.520393 0.024220
0.498730 0.520260 0.021530
0.545172 0.520154 0.018854
0.591151 0.520076 0.016218
0.636211 0.520026 0.013649
0.679931 0.520003 0.011170
0.721941 0.520003 0.008799
0.761934 0.520024 0.006554
0.799671 0.520062 0.004445
0.834981 0.520115 0.002480
0.867762 0.520178 0.000664
0.897975 0.520248 0.000000
0.925636 0.520322 0.000000
0.950803 0.520398 0.000000
0.973575 0.520474 0.000000
0.994075 0.520547 0.000000
1.000000 0.520618 0.000000
1.000000 0.520684 0.000000
0.000000 0.565505 0.047582
0.000000 0.565373 0.046592
0.009609 0.565229 0.045486
0.029994 0.565073 0.044253
0.052645 0.564906 0.042887
0.077686 0.564729 0.041381
0.105217 0.564544 0.039730
0.135300 0.564353 0.037931
0.167953 0.564159 0.035986
0.203139 0.563965 0.033898
0.240761 0.563775 0.031675
0.280653 0.563594 0.029328
0.322579 0.563425 0.026874
0.366235 0.563274 0.024330
0.411255 0.563143 0.021721
0.457220 0.563036 0.019071
0.503674 0.562956 0.016407
0.550142 0.562902 0.013757
0.596148 0.562877 0.011148
0.641233 0.562878 0.008604
0.684978 0.562904 0.006150
0.727012 0.562952 0.003803
0.767028 0.563019 0.001580
0.804786 0.563100 0.000000
0.840116 0.563192 0.000000
0.872916 0.563293 0.000000
0.903146 0.563397 0.000000
0.930822 0.563502 0.000000
0.956004 0.563607 0.000000
0.978789 0.563708 0.000000
0.999300 0.563805 0.000000
1.000000 0.563897 0.000000
1.000000 0.563982 0.000000
0.000000 0.607304 0.042259
0.000000 0.607190 0.041279
0.014278 0.607066 0.040182
0.034675 0.606934 0.038961
0.057338 0.606792 0.037608
0.082394 0.606644 0.036116
0.109940 0.606490 0.034480
0.140040 0.606333 0.032699
0.172711 0.606176 0.030772
0.207918 0.606021 0.028704
0.245561 0.605874 0.026502
0.285475 0.605738 0.024178
0.327425 0.605616 0.021747
0.371105 0.605514 0.019228
0.416150 0.605434 0.016644
0.462141 0.605379 0.014020
0.508622 0.605351 0.011382
0.555116 0.605350 0.008758
0.601147 0.605376 0.006175
0.646258 0.605428 0.003657
0.690028 0.605503 0.001227
0.732086 0.605599 0.000000
0.772124 0.605710 0.000000
0.809903 0.605834 0.000000
0.845253 0.605966 0.000000
0.878071 0.606103 0.000000
0.908319 0.606241 0.000000
0.936010 0.606378 0.000000
0.961206 0.606511 0.000000
0.984003 0.606638 0.000000
1.000000 0.606758 0.000000
1.000000 0.606870 0.000000
1.000000 0.606973 0.000000
0.000000 0.648422 0.037083
0.000624 0.648327 0.036112
0.018909 0.648223 0.035026
0.039317 0.648113 0.033816
0.061993 0.647997 0.032475
0.087062 0.647876 0.030997
0.114623 0.647753 0.029376
0.144740 0.647629 0.027612
0.177429 0.647508 0.025703
0.212655 0.647393 0.023655
0.250320 0.647287 0.021474
0.290256 0.647195 0.019171
0.332229 0.647120 0.016764
0.375934 0.647066 0.014269
0.421003 0.647036 0.011710
0.467020 0.647031 0.009111
0.513526 0.647054 0.006499
0.560046 0.647105 0.003901
0.606102 0.647182 0.001343
0.651238 0.647284 0.000000
0.695032 0.647408 0.000000
0.737113 0.647549 0.000000
0.777173 0.647705 0.000000
0.814973 0.647870 0.000000
0.850342 0.648041 0.000000
0.883179 0.648214 0.000000
0.913443 0.648386 0.000000
0.941150 0.648553 0.000000
0.966360 0.648714 0.000000
0.989170 0.648866 0.000000
1.000000 0.649009 0.000000
1.000000 0.649141 0.000000
1.000000 0.649263 0.000000
0.000000 0.688500 0.032096
0.005164 0.688422 0.031133
0.023458 0.688339 0.030057
0.043877 0.688251 0.028858
0.066565 0.688159 0.027530
0.091648 0.688065 0.026065
0.119224 0.687971 0.024459
0.149356 0.687880 0.022711
0.182064 0.687794 0.020820
0.217309 0.687717 0.018790
0.254993 0.687652 0.016629
0.294951 0.687602 0.014349
0.336946 0.687573 0.011963
0.380675 0.687565 0.009492
0.425769 0.687584 0.006957
0.471809 0.687629 0.004383
0.518341 0.687702 0.001796
0.564885 0.687802 0.000000
0.610967 0.687929 0.000000
0.656127 0.688079 0.000000
0.699944 0.688250 0.000000
0.742048 0.688436 0.000000
0.782130 0.688635 0.000000
0.819950 0.688841 0.000000
0.855338 0.689050 0.000000
0.888192 0.689258 0.000000
0.918472 0.689462 0.000000
0.946194 0.689659 0.000000
0.971417 0.689847 0.000000
0.994240 0.690023 0.000000
1.000000 0.690188 0.000000
1.000000 0.690340 0.000000
1.000000 0.690479 0.000000
0.000000 0.727215 0.027332
0.009581 0.727154 0.026378
0.027885 0.727089 0.025311
0.048315 0.727022 0.024123
0.071015 0.726954 0.022806
0.096110 0.726886 0.021354
0.123701 0.726821 0.019763
0.153849 0.726761 0.018030
0.186573 0.726709 0.016156
0.221836 0.726668 0.014145
0.259540 0.726642 0.012003
0.299519 0.726634 0.009743
0.341536 0.726648 0.007380
0.385287 0.726686 0.004931
0.430404 0.726751 0.002420
0.476469 0.726844 0.000000
0.523024 0.726965 0.000000
0.569593 0.727114 0.000000
0.615699 0.727288 0.000000
0.660882 0.727485 0.000000
0.704722 0.727701 0.000000
0.746847 0.727931 0.000000
0.786950 0.728171 0.000000
0.824789 0.728416 0.000000
0.860196 0.728661 0.000000
0.893067 0.728904 0.000000
0.923363 0.729139 0.000000
0.951098 0.729364 0.000000
0.976335 0.729578 0.000000
0.999169 0.729778 0.000000
1.000000 0.729964 0.000000
1.000000 0.730135 0.000000
1.000000 0.730291 0.000000
0.000000 0.764289 0.022818
0.013842 0.764244 0.021873
0.032155 0.764198 0.020815
0.052595 0.764151 0.019637
0.075306 0.764105 0.018331
0.100414 0.764062 0.016892
0.128018 0.764025 0.015314
0.158182 0.763994 0.013596
0.190922 0.763975 0.011738
0.226202 0.763969 0.009745
0.263925 0.763980 0.007622
0.303924 0.764012 0.005382
0.345961 0.764067 0.003039
0.389734 0.764148 0.000612
0.434874 0.764258 0.000000
0.480961 0.764396 0.000000
0.527539 0.764563 0.000000
0.574131 0.764758 0.000000
0.620259 0.764978 0.000000
0.665465 0.765219 0.000000
0.709326 0.765478 0.000000
0.751473 0.765750 0.000000
0.791595 0.766029 0.000000
0.829453 0.766312 0.000000
0.864877 0.766592 0.000000
0.897764 0.766867 0.000000
0.928075 0.767132 0.000000
0.955825 0.767385 0.000000
0.981073 0.767623 0.000000
1.000000 0.767846 0.000000
1.000000 0.768052 0.000000
1.000000 0.768241 0.000000
1.000000 0.768413 0.000000
0.001568 0.799498 0.018576
0.017916 0.799468 0.017638
0.036237 0.799439 0.016589
0.056687 0.799411 0.015420
0.079409 0.799387 0.014125
0.104529 0.799368 0.012698
0.132146 0.799356 0.011133
0.162323 0.799354 0.009429
0.195079 0.799365 0.007587
0.230376 0.799392 0.005610
0.268116 0.799439 0.003505
0.308133 0.799508 0.001283
0.350191 0.799603 0.000000
0.393984 0.799725 0.000000
0.439145 0.799877 0.000000
0.485254 0.800058 0.000000
0.531854 0.800269 0.000000
0.578468 0.800507 0.000000
0.624617 0.800770 0.000000
0.669844 0.801054 0.000000
0.713726 0.801354 0.000000
0.755892 0.801665 0.000000
0.796033 0.801982 0.000000
0.833909 0.802300 0.000000
0.869349 0.802613 0.000000
0.902252 0.802919 0.000000
0.932577 0.803212 0.000000
0.960339 0.803491 0.000000
0.985600 0.803753 0.000000
1.000000 0.803997 0.000000
1.000000 0.804222 0.000000
1.000000 0.804428 0.000000
1.000000 0.804616 0.000000
0.005424 0.832672 0.014618
0.021779 0.832657 0.013687
0.040108 0.832644 0.012646
0.060567 0.832635 0.011487
0.083299 0.832630 0.010202
0.108430 0.832633 0.008785
0.136059 0.832646 0.007233
0.166250 0.832670 0.005543
0.199020 0.832710 0.003715
0.234332 0.832768 0.001753
0.272089 0.832848 0.000000
0.312124 0.832953 0.000000
0.354200 0.833084 0.000000
0.398013 0.833245 0.000000
0.443193 0.833437 0.000000
0.489323 0.833659 0.000000
0.535943 0.833911 0.000000
0.582577 0.834190 0.000000
0.628747 0.834493 0.000000
0.673994 0.834817 0.000000
0.717895 0.835156 0.000000
0.760079 0.835504 0.000000
0.800238 0.835856 0.000000
0.838131 0.836207 0.000000
0.873587 0.836552 0.000000
0.906504 0.836886 0.000000
0.936842 0.837206 0.000000
0.964617 0.837509 0.000000
0.989888 0.837793 0.000000
1.000000 0.838057 0.000000
1.000000 0.838300 0.000000
1.000000 0.838523 0.000000
1.000000 0.838725 0.000000
0.009051 0.863698 0.010951
0.025413 0.863696 0.010027
0.043749 0.863698 0.008993
0.064216 0.863706 0.007842
0.086958 0.863720 0.006567
0.112099 0.863744 0.005160
0.139740 0.863779 0.003619
0.169943 0.863828 0.001941
0.202726 0.863895 0.000127
0.238054 0.863983 0.000000
0.275826 0.864093 0.000000
0.315877 0.864231 0.000000
0.357971 0.864397 0.000000
0.401801 0.864594 0.000000
0.447000 0.864823 0.000000
0.493148 0.865082 0.000000
0.539788 0.865373 0.000000
0.586441 0.865690 0.000000
0.632630 0.866031 0.000000
0.677896 0.866392 0.000000
0.721815 0.866767 0.000000
0.764016 0.867149 0.000000
0.804192 0.867535 0.000000
0.842100 0.867917 0.000000
0.877570 0.868290 0.000000
0.910501 0.868651 0.000000
0.940852 0.868996 0.000000
0.968637 0.869322 0.000000
0.993919 0.869627 0.000000
1.000000 0.869910 0.000000
1.000000 0.870170 0.000000
1.000000 0.870407 0.000000
1.000000 0.870623 0.000000
0.012438 0.892513 0.007574
0.028806 0.892524 0.006656
0.047149 0.892540 0.005630
0.067624 0.892563 0.004487
0.090374 0.892594 0.003220
0.115525 0.892637 0.001823
0.143176 0.892693 0.000293
0.173391 0.892766 0.000000
0.206187 0.892858 0.000000
0.241528 0.892972 0.000000
0.279314 0.893112 0.000000
0.319381 0.893280 0.000000
0.361490 0.893478 0.000000
0.405337 0.893708 0.000000
0.450554 0.893971 0.000000
0.496720 0.894266 0.000000
0.543377 0.894592 0.000000
0.590048 0.894945 0.000000
0.636255 0.895321 0.000000
0.681537 0.895716 0.000000
0.725473 0.896124 0.000000
0.767691 0.896539 0.000000
0.807881 0.896955 0.000000
0.845803 0.897366 0.000000
0.881287 0.897766 0.000000
0.914231 0.898152 0.000000
