public/luts/cold-winter.cube
# KomfyEdit 3D LUT: cold-winter
TITLE "cold-winter"
LUT_3D_SIZE 5
DOMAIN_MIN 0.0 0.0 0.0
DOMAIN_MAX 1.0 1.0 1.0
0.000000 0.020011 0.040021
0.205000 0.020241 0.040482
0.410000 0.020772 0.041543
0.615000 0.021603 0.043206
0.820000 0.022735 0.045470
0.000000 0.255952 0.041903
0.205000 0.256858 0.043717
0.410000 0.258066 0.046131
0.615000 0.259573 0.049147
0.820000 0.261382 0.052763
0.000000 0.493415 0.046830
0.205000 0.494998 0.049996
0.410000 0.496882 0.053763
0.615000 0.499066 0.058132
0.820000 0.501551 0.063101
0.000000 0.732401 0.054801
0.205000 0.734660 0.059320
0.410000 0.737220 0.064440
0.615000 0.740081 0.070162
0.820000 0.743242 0.076484
0.000000 0.972909 0.065817
0.205000 0.975845 0.071689
0.410000 0.979081 0.078162
0.615000 0.982618 0.085236
0.820000 0.986456 0.092911
0.000000 0.020100 0.335199
0.205000 0.020495 0.335990
0.410000 0.021191 0.337381
0.615000 0.022187 0.339374
0.820000 0.023484 0.341967
0.000000 0.256412 0.337824
0.205000 0.257483 0.339967
0.410000 0.258856 0.342711
0.615000 0.260528 0.346056
0.820000 0.262501 0.350003
0.000000 0.494246 0.343493
0.205000 0.495994 0.346989
0.410000 0.498043 0.351086
0.615000 0.500392 0.355784
0.820000 0.503042 0.361083
0.000000 0.733603 0.352206
0.205000 0.736028 0.357055
0.410000 0.738752 0.362505
0.615000 0.741778 0.368556
0.820000 0.745104 0.375208
0.000000 0.974482 0.363964
0.205000 0.977583 0.370166
0.410000 0.980984 0.376969
0.615000 0.984686 0.384373
0.820000 0.988689 0.392378
0.000000 0.020279 0.630559
0.205000 0.020839 0.631679
0.410000 0.021700 0.633400
0.615000 0.022861 0.635722
0.820000 0.024323 0.638646
0.000000 0.256963 0.633925
0.205000 0.258199 0.636398
0.410000 0.259736 0.639472
0.615000 0.261574 0.643147
0.820000 0.263712 0.647424
0.000000 0.495168 0.640336
0.205000 0.497081 0.644162
0.410000 0.499295 0.648589
0.615000 0.501809 0.653617
0.820000 0.504623 0.659246
0.000000 0.734896 0.649792
0.205000 0.737485 0.654971
0.410000 0.740375 0.660751
0.615000 0.743566 0.667131
0.820000 0.747057 0.674113
0.000000 0.976146 0.662293
0.205000 0.979412 0.668824
0.410000 0.982978 0.675957
0.615000 0.986845 0.683690
0.820000 0.991013 0.692025
0.000000 0.020549 0.926099
0.205000 0.021274 0.927549
0.410000 0.022300 0.929600
0.615000 0.023626 0.932252
0.820000 0.025252 0.935505
0.000000 0.257604 0.930208
0.205000 0.259005 0.933010
0.410000 0.260707 0.936414
0.615000 0.262710 0.940419
0.820000 0.265013 0.945025
0.000000 0.496180 0.937361
0.205000 0.498258 0.941517
0.410000 0.500637 0.946273
0.615000 0.503316 0.951631
0.820000 0.506295 0.957590
0.000000 0.736280 0.947559
0.205000 0.739034 0.953067
0.410000 0.742089 0.959177
0.615000 0.745444 0.965888
0.820000 0.749100 0.973200
0.000000 0.977901 0.960802
0.205000 0.981331 0.967663
0.410000 0.985063 0.975125
0.615000 0.989094 0.983189
0.820000 0.993427 0.991854
0.000000 0.020910 1.000000
0.205000 0.021800 1.000000
0.410000 0.022990 1.000000
0.615000 0.024481 1.000000
0.820000 0.026273 1.000000
0.000000 0.258335 1.000000
0.205000 0.259902 1.000000
0.410000 0.261769 1.000000
0.615000 0.263936 1.000000
0.820000 0.266404 1.000000
0.000000 0.497283 1.000000
0.205000 0.499526 1.000000
0.410000 0.502069 1.000000
0.615000 0.504913 1.000000
0.820000 0.508057 1.000000
0.000000 0.737753 1.000000
0.205000 0.740673 1.000000
0.410000 0.743892 1.000000
0.615000 0.747412 1.000000
0.820000 0.751233 1.000000
0.000000 0.979746 1.000000
0.205000 0.983341 1.000000
0.410000 0.987238 1.000000
0.615000 0.991434 1.000000
0.820000 0.995931 1.000000
