public/luts/cold-winter.cube
# KomfyEdit 3D LUT: cold-winter
TITLE "cold-winter"
LUT_3D_SIZE 9
DOMAIN_MIN 0.0 0.0 0.0
DOMAIN_MAX 1.0 1.0 1.0
0.000000 0.020011 0.040021
0.102500 0.020088 0.040176
0.205000 0.020241 0.040482
0.307500 0.020469 0.040937
0.410000 0.020772 0.041543
0.512500 0.021150 0.042299
0.615000 0.021603 0.043206
0.717500 0.022131 0.044263
0.820000 0.022735 0.045470
0.000000 0.137791 0.040582
0.102500 0.138037 0.041075
0.205000 0.138359 0.041719
0.307500 0.138756 0.042512
0.410000 0.139228 0.043457
0.512500 0.139775 0.044551
0.615000 0.140398 0.045796
0.717500 0.141095 0.047191
0.820000 0.141868 0.048736
0.000000 0.255952 0.041903
0.102500 0.256367 0.042735
0.205000 0.256858 0.043717
0.307500 0.257424 0.044849
0.410000 0.258066 0.046131
0.512500 0.258782 0.047564
0.615000 0.259573 0.049147
0.717500 0.260440 0.050880
0.820000 0.261382 0.052763
0.000000 0.374493 0.043986
0.102500 0.375078 0.045156
0.205000 0.375738 0.046476
0.307500 0.376473 0.047946
0.410000 0.377283 0.049567
0.512500 0.378169 0.051337
0.615000 0.379129 0.053259
0.717500 0.380165 0.055330
0.820000 0.381276 0.057552
0.000000 0.493415 0.046830
0.102500 0.494169 0.048338
0.205000 0.494998 0.049996
0.307500 0.495902 0.051805
0.410000 0.496882 0.053763
0.512500 0.497936 0.055872
0.615000 0.499066 0.058132
0.717500 0.500271 0.060541
0.820000 0.501551 0.063101
0.000000 0.612718 0.050435
0.102500 0.613641 0.052281
0.205000 0.614639 0.054278
0.307500 0.615712 0.056424
0.410000 0.616861 0.058721
0.512500 0.618084 0.061169
0.615000 0.619383 0.063766
0.717500 0.620757 0.066514
0.820000 0.622206 0.069412
0.000000 0.732401 0.054801
0.102500 0.733493 0.056986
0.205000 0.734660 0.059320
0.307500 0.735903 0.061805
0.410000 0.737220 0.064440
0.512500 0.738613 0.067226
0.615000 0.740081 0.070162
0.717500 0.741624 0.073248
0.820000 0.743242 0.076484
0.000000 0.852464 0.059929
0.102500 0.853726 0.062451
0.205000 0.855062 0.065124
0.307500 0.856474 0.067947
0.410000 0.857960 0.070921
0.512500 0.859522 0.074044
0.615000 0.861159 0.077318
0.717500 0.862871 0.080743
0.820000 0.864659 0.084317
0.000000 0.972909 0.065817
0.102500 0.974339 0.068678
0.205000 0.975845 0.071689
0.307500 0.977425 0.074850
0.410000 0.979081 0.078162
0.512500 0.980812 0.081624
0.615000 0.982618 0.085236
0.717500 0.984499 0.088999
0.820000 0.986456 0.092911
0.000000 0.020044 0.187588
0.102500 0.020163 0.187825
0.205000 0.020357 0.188213
0.307500 0.020626 0.188751
0.410000 0.020970 0.189440
0.512500 0.021389 0.190278
0.615000 0.021884 0.191267
0.717500 0.022453 0.192406
0.820000 0.023098 0.193696
0.000000 0.137917 0.188334
0.102500 0.138205 0.188909
0.205000 0.138568 0.189636
0.307500 0.139006 0.190512
0.410000 0.139519 0.191538
0.512500 0.140108 0.192715
0.615000 0.140771 0.194042
0.717500 0.141510 0.195520
0.820000 0.142324 0.197148
0.000000 0.256170 0.189841
0.102500 0.256627 0.190755
0.205000 0.257160 0.191819
0.307500 0.257767 0.193034
0.410000 0.258449 0.194398
0.512500 0.259207 0.195914
0.615000 0.260039 0.197579
0.717500 0.260947 0.199395
0.820000 0.261930 0.201360
0.000000 0.374805 0.192109
0.102500 0.375431 0.193361
0.205000 0.376132 0.194764
0.307500 0.376908 0.196317
0.410000 0.377760 0.198020
0.512500 0.378686 0.199873
0.615000 0.379688 0.201876
0.717500 0.380765 0.204030
0.820000 0.381917 0.206334
0.000000 0.493819 0.195139
0.102500 0.494615 0.196729
0.205000 0.495485 0.198470
0.307500 0.496430 0.200361
0.410000 0.497451 0.202402
0.512500 0.498547 0.204593
0.615000 0.499718 0.206935
0.717500 0.500964 0.209427
0.820000 0.502285 0.212070
0.000000 0.613215 0.198929
0.102500 0.614179 0.200858
0.205000 0.615218 0.202937
0.307500 0.616333 0.205166
0.410000 0.617523 0.207545
0.512500 0.618788 0.210075
0.615000 0.620128 0.212755
0.717500 0.621543 0.215585
0.820000 0.623033 0.218566
0.000000 0.732991 0.203481
0.102500 0.734124 0.205748
0.205000 0.735333 0.208165
0.307500 0.736616 0.210732
0.410000 0.737975 0.213450
0.512500 0.739409 0.216318
0.615000 0.740918 0.219336
0.717500 0.742502 0.222505
0.820000 0.744162 0.225824
0.000000 0.853147 0.208794
0.102500 0.854450 0.211399
0.205000 0.855827 0.214154
0.307500 0.857280 0.217060
0.410000 0.858808 0.220116
0.512500 0.860411 0.223322
0.615000 0.862089 0.226678
0.717500 0.863843 0.230185
0.820000 0.865671 0.233842
0.000000 0.973684 0.214868
0.102500 0.975156 0.217811
0.205000 0.976702 0.220905
0.307500 0.978324 0.224149
0.410000 0.980021 0.227543
0.512500 0.981794 0.231087
0.615000 0.983641 0.234782
0.717500 0.985563 0.238627
0.820000 0.987561 0.242622
0.000000 0.020100 0.335199
0.102500 0.020260 0.335519
0.205000 0.020495 0.335990
0.307500 0.020805 0.336610
0.410000 0.021191 0.337381
0.512500 0.021651 0.338302
0.615000 0.022187 0.339374
0.717500 0.022798 0.340595
0.820000 0.023484 0.341967
0.000000 0.138066 0.336131
0.102500 0.138395 0.336789
0.205000 0.138799 0.337598
0.307500 0.139278 0.338556
0.410000 0.139833 0.339665
0.512500 0.140462 0.340925
0.615000 0.141167 0.342334
0.717500 0.141947 0.343894
0.820000 0.142802 0.345604
0.000000 0.256412 0.337824
0.102500 0.256910 0.338820
0.205000 0.257483 0.339967
0.307500 0.258132 0.341264
0.410000 0.258856 0.342711
0.512500 0.259654 0.344309
0.615000 0.260528 0.346056
0.717500 0.261477 0.347955
0.820000 0.262501 0.350003
0.000000 0.375139 0.340278
0.102500 0.375806 0.341612
0.205000 0.376549 0.343097
0.307500 0.377366 0.344732
0.410000 0.378259 0.346518
0.512500 0.379227 0.348454
0.615000 0.380270 0.350540
0.717500 0.381388 0.352776
0.820000 0.382581 0.355163
0.000000 0.494246 0.343493
0.102500 0.495083 0.345166
0.205000 0.495994 0.346989
0.307500 0.496981 0.348962
0.410000 0.498043 0.351086
0.512500 0.499180 0.353360
0.615000 0.500392 0.355784
0.717500 0.501679 0.358358
0.820000 0.503042 0.361083
0.000000 0.613734 0.347469
0.102500 0.614740 0.349480
0.205000 0.615821 0.351641
0.307500 0.616976 0.353953
0.410000 0.618207 0.356415
0.512500 0.619513 0.359027
0.615000 0.620895 0.361789
0.717500 0.622351 0.364702
0.820000 0.623883 0.367765
0.000000 0.733603 0.352206
0.102500 0.734778 0.354555
0.205000 0.736028 0.357055
0.307500 0.737352 0.359705
0.410000 0.738752 0.362505
0.512500 0.740228 0.365455
0.615000 0.741778 0.368556
0.717500 0.743403 0.371807
0.820000 0.745104 0.375208
0.000000 0.853852 0.357705
0.102500 0.855196 0.360392
0.205000 0.856615 0.363230
0.307500 0.858109 0.366218
0.410000 0.859678 0.369356
0.512500 0.861322 0.372645
0.615000 0.863042 0.376084
0.717500 0.864836 0.379673
0.820000 0.866706 0.383412
0.000000 0.974482 0.363964
0.102500 0.975995 0.366990
0.205000 0.977583 0.370166
0.307500 0.979246 0.373492
0.410000 0.980984 0.376969
0.512500 0.982798 0.380596
0.615000 0.984686 0.384373
0.717500 0.986650 0.388300
0.820000 0.988689 0.392378
0.000000 0.020178 0.482856
0.102500 0.020379 0.483259
0.205000 0.020656 0.483812
0.307500 0.021007 0.484515
0.410000 0.021434 0.485368
0.512500 0.021936 0.486371
0.615000 0.022513 0.487525
0.717500 0.023165 0.488829
0.820000 0.023892 0.490284
0.000000 0.138237 0.483974
0.102500 0.138607 0.484714
0.205000 0.139053 0.485605
0.307500 0.139573 0.486646
0.410000 0.140169 0.487838
0.512500 0.140840 0.489180
0.615000 0.141586 0.490672
0.717500 0.142407 0.492314
0.820000 0.143303 0.494107
0.000000 0.256676 0.485852
0.102500 0.257215 0.486931
0.205000 0.257830 0.488160
0.307500 0.258520 0.489539
0.410000 0.259284 0.491069
0.512500 0.260124 0.492749
0.615000 0.261040 0.494579
0.717500 0.262030 0.496560
0.820000 0.263095 0.498691
0.000000 0.375496 0.488491
0.102500 0.376204 0.489908
0.205000 0.376988 0.491476
0.307500 0.377847 0.493193
0.410000 0.378781 0.495061
0.512500 0.379790 0.497079
0.615000 0.380874 0.499248
0.717500 0.382033 0.501567
0.820000 0.383268 0.504036
0.000000 0.494696 0.491892
0.102500 0.495574 0.493647
0.205000 0.496526 0.495553
0.307500 0.497554 0.497609
0.410000 0.498657 0.499815
0.512500 0.499836 0.502171
0.615000 0.501089 0.504678
0.717500 0.502417 0.507335
0.820000 0.503821 0.510142
0.000000 0.614277 0.496054
0.102500 0.615324 0.498147
0.205000 0.616445 0.500391
0.307500 0.617643 0.502785
0.410000 0.618915 0.505329
0.512500 0.620262 0.508024
0.615000 0.621684 0.510869
0.717500 0.623182 0.513864
0.820000 0.624755 0.517010
0.000000 0.734238 0.500977
0.102500 0.735454 0.503408
0.205000 0.736745 0.505990
0.307500 0.738111 0.508723
0.410000 0.739553 0.511605
0.512500 0.741069 0.514638
0.615000 0.742661 0.517821
0.717500 0.744327 0.521155
0.820000 0.746069 0.524638
0.000000 0.854580 0.506661
0.102500 0.855965 0.509431
0.205000 0.857425 0.512351
0.307500 0.858961 0.515421
0.410000 0.860571 0.518642
0.512500 0.862257 0.522013
0.615000 0.864017 0.525534
0.717500 0.865853 0.529206
0.820000 0.867764 0.533028
0.000000 0.975303 0.513106
0.102500 0.976857 0.516214
0.205000 0.978486 0.519472
0.307500 0.980191 0.522881
0.410000 0.981970 0.526440
0.512500 0.983825 0.530149
0.615000 0.985754 0.534009
0.717500 0.987759 0.538019
0.820000 0.989839 0.542179
0.000000 0.020279 0.630559
0.102500 0.020522 0.631043
0.205000 0.020839 0.631679
0.307500 0.021232 0.632464
0.410000 0.021700 0.633400
0.512500 0.022243 0.634486
0.615000 0.022861 0.635722
0.717500 0.023554 0.637109
0.820000 0.024323 0.638646
0.000000 0.138431 0.631861
0.102500 0.138842 0.632684
0.205000 0.139329 0.633658
0.307500 0.139891 0.634781
0.410000 0.140528 0.636055
0.512500 0.141240 0.637480
0.615000 0.142027 0.639054
0.717500 0.142889 0.640779
0.820000 0.143827 0.642654
0.000000 0.256963 0.633925
0.102500 0.257543 0.635086
0.205000 0.258199 0.636398
0.307500 0.258930 0.637860
0.410000 0.259736 0.639472
0.512500 0.260617 0.641235
0.615000 0.261574 0.643147
0.717500 0.262605 0.645210
0.820000 0.263712 0.647424
0.000000 0.375875 0.636750
0.102500 0.376625 0.638250
0.205000 0.377450 0.639900
0.307500 0.378350 0.641700
0.410000 0.379325 0.643650
0.512500 0.380375 0.645751
0.615000 0.381501 0.648002
0.717500 0.382701 0.650403
0.820000 0.383977 0.652954
0.000000 0.495168 0.640336
0.102500 0.496087 0.642174
0.205000 0.497081 0.644162
0.307500 0.498150 0.646300
0.410000 0.499295 0.648589
0.512500 0.500514 0.651028
0.615000 0.501809 0.653617
0.717500 0.503178 0.656356
0.820000 0.504623 0.659246
0.000000 0.614842 0.644684
0.102500 0.615930 0.646860
0.205000 0.617093 0.649186
0.307500 0.618331 0.651662
0.410000 0.619645 0.654289
0.512500 0.621033 0.657066
0.615000 0.622497 0.659994
0.717500 0.624036 0.663071
0.820000 0.625650 0.666299
0.000000 0.734896 0.649792
0.102500 0.736153 0.652306
0.205000 0.737485 0.654971
0.307500 0.738893 0.657785
0.410000 0.740375 0.660751
0.512500 0.741933 0.663866
0.615000 0.743566 0.667131
0.717500 0.745274 0.670547
0.820000 0.747057 0.674113
0.000000 0.855331 0.655662
0.102500 0.856757 0.658514
0.205000 0.858258 0.661517
0.307500 0.859835 0.664670
0.410000 0.861486 0.667973
0.512500 0.863213 0.671427
0.615000 0.865015 0.675030
0.717500 0.866892 0.678784
0.820000 0.868844 0.682689
0.000000 0.976146 0.662293
0.102500 0.977742 0.665483
0.205000 0.979412 0.668824
0.307500 0.981158 0.672315
0.410000 0.982978 0.675957
0.512500 0.984874 0.679748
0.615000 0.986845 0.683690
0.717500 0.988891 0.687783
0.820000 0.991013 0.692025
0.000000 0.020403 0.778306
0.102500 0.020687 0.778873
0.205000 0.021045 0.779591
0.307500 0.021479 0.780459
0.410000 0.021989 0.781477
0.512500 0.022573 0.782646
0.615000 0.023232 0.783964
0.717500 0.023967 0.785433
0.820000 0.024776 0.787053
0.000000 0.138647 0.779794
0.102500 0.139100 0.780700
0.205000 0.139628 0.781756
0.307500 0.140231 0.782962
0.410000 0.140909 0.784318
0.512500 0.141662 0.785825
0.615000 0.142491 0.787482
0.717500 0.143395 0.789289
0.820000 0.144373 0.791247
0.000000 0.257272 0.782044
0.102500 0.257894 0.783287
0.205000 0.258591 0.784682
0.307500 0.259363 0.786226
0.410000 0.260210 0.787920
0.512500 0.261133 0.789765
0.615000 0.262130 0.791761
0.717500 0.263203 0.793906
0.820000 0.264351 0.796202
0.000000 0.376277 0.785054
0.102500 0.377068 0.786636
0.205000 0.377934 0.788369
0.307500 0.378876 0.790251
0.410000 0.379892 0.792284
0.512500 0.380984 0.794467
0.615000 0.382150 0.796800
0.717500 0.383392 0.799284
0.820000 0.384709 0.801918
0.000000 0.495663 0.788826
0.102500 0.496623 0.790746
0.205000 0.497658 0.792817
0.307500 0.498769 0.795037
0.410000 0.499954 0.797409
0.512500 0.501215 0.799930
0.615000 0.502551 0.802601
0.717500 0.503962 0.805423
0.820000 0.505448 0.808396
0.000000 0.615429 0.793359
0.102500 0.616559 0.795617
0.205000 0.617763 0.798026
0.307500 0.619042 0.800585
0.410000 0.620397 0.803294
0.512500 0.621827 0.806154
0.615000 0.623332 0.809164
0.717500 0.624912 0.812324
0.820000 0.626567 0.815634
0.000000 0.735576 0.798653
0.102500 0.736875 0.801250
0.205000 0.738248 0.803996
0.307500 0.739697 0.806894
0.410000 0.741221 0.809941
0.512500 0.742819 0.813139
0.615000 0.744493 0.816487
0.717500 0.746243 0.819985
0.820000 0.748067 0.823634
0.000000 0.856104 0.804708
0.102500 0.857571 0.807643
0.205000 0.859114 0.810728
0.307500 0.860732 0.813964
0.410000 0.862425 0.817349
0.512500 0.864193 0.820885
0.615000 0.866036 0.824571
0.717500 0.867954 0.828408
0.820000 0.869947 0.832395
0.000000 0.977012 0.811524
0.102500 0.978649 0.814798
0.205000 0.980360 0.818221
0.307500 0.982147 0.821794
0.410000 0.984009 0.825518
0.512500 0.985946 0.829393
0.615000 0.987959 0.833417
0.717500 0.990046 0.837592
0.820000 0.992208 0.841917
0.000000 0.020549 0.926099
0.102500 0.020874 0.926748
0.205000 0.021274 0.927549
0.307500 0.021749 0.928499
0.410000 0.022300 0.929600
0.512500 0.022925 0.930850
0.615000 0.023626 0.932252
0.717500 0.024402 0.933803
0.820000 0.025252 0.935505
0.000000 0.138886 0.927773
0.102500 0.139380 0.928761
0.205000 0.139949 0.929899
0.307500 0.140594 0.931187
0.410000 0.141313 0.932626
0.512500 0.142108 0.934215
0.615000 0.142977 0.935955
0.717500 0.143922 0.937845
0.820000 0.144942 0.939885
0.000000 0.257604 0.930208
0.102500 0.258267 0.931534
0.205000 0.259005 0.933010
0.307500 0.259819 0.934637
0.410000 0.260707 0.936414
0.512500 0.261671 0.938341
0.615000 0.262710 0.940419
0.717500 0.263824 0.942647
0.820000 0.265013 0.945025
0.000000 0.376702 0.933404
0.102500 0.377534 0.935068
0.205000 0.378441 0.936883
0.307500 0.379424 0.938848
0.410000 0.380482 0.940963
0.512500 0.381614 0.943229
0.615000 0.382822 0.945645
0.717500 0.384105 0.948211
0.820000 0.385464 0.950927
0.000000 0.496180 0.937361
0.102500 0.497182 0.939364
0.205000 0.498258 0.941517
0.307500 0.499410 0.943820
0.410000 0.500637 0.946273
0.512500 0.501939 0.948877
0.615000 0.503316 0.951631
0.717500 0.504768 0.954535
0.820000 0.506295 0.957590
0.000000 0.616040 0.942079
0.102500 0.617210 0.944420
0.205000 0.618456 0.946911
0.307500 0.619776 0.949553
0.410000 0.621172 0.952345
0.512500 0.622643 0.955287
0.615000 0.624189 0.958379
0.717500 0.625811 0.961621
0.820000 0.627507 0.965014
0.000000 0.736280 0.947559
0.102500 0.737619 0.950238
0.205000 0.739034 0.953067
0.307500 0.740524 0.956047
0.410000 0.742089 0.959177
0.512500 0.743729 0.962457
0.615000 0.745444 0.965888
0.717500 0.747234 0.969468
0.820000 0.749100 0.973200
0.000000 0.856900 0.953800
0.102500 0.858409 0.956817
0.205000 0.859992 0.959985
0.307500 0.861651 0.963302
0.410000 0.863385 0.966771
0.512500 0.865195 0.970389
0.615000 0.867079 0.974158
0.717500 0.869038 0.978077
0.820000 0.871073 0.982146
0.000000 0.977901 0.960802
0.102500 0.979579 0.964157
0.205000 0.981331 0.967663
0.307500 0.983160 0.971319
0.410000 0.985063 0.975125
0.512500 0.987041 0.979082
0.615000 0.989094 0.983189
0.717500 0.991223 0.987446
0.820000 0.993427 0.991854
0.000000 0.020718 1.000000
0.102500 0.021084 1.000000
0.205000 0.021526 1.000000
0.307500 0.022042 1.000000
0.410000 0.022634 1.000000
0.512500 0.023300 1.000000
0.615000 0.024042 1.000000
0.717500 0.024859 1.000000
0.820000 0.025751 1.000000
0.000000 0.139148 1.000000
0.102500 0.139683 1.000000
0.205000 0.140294 1.000000
0.307500 0.140979 1.000000
0.410000 0.141740 1.000000
0.512500 0.142576 1.000000
0.615000 0.143487 1.000000
0.717500 0.144473 1.000000
0.820000 0.145534 1.000000
0.000000 0.257958 1.000000
0.102500 0.258663 1.000000
0.205000 0.259442 1.000000
0.307500 0.260297 1.000000
0.410000 0.261226 1.000000
0.512500 0.262231 1.000000
0.615000 0.263311 1.000000
0.717500 0.264467 1.000000
0.820000 0.265697 1.000000
0.000000 0.377149 1.000000
0.102500 0.378023 1.000000
0.205000 0.378971 1.000000
0.307500 0.379995 1.000000
0.410000 0.381094 1.000000
0.512500 0.382268 1.000000
0.615000 0.383517 1.000000
0.717500 0.384841 1.000000
0.820000 0.386241 1.000000
0.000000 0.496721 1.000000
0.102500 0.497763 1.000000
0.205000 0.498881 1.000000
0.307500 0.500074 1.000000
0.410000 0.501342 1.000000
0.512500 0.502685 1.000000
0.615000 0.504103 1.000000
0.717500 0.505596 1.000000
0.820000 0.507165 1.000000
0.000000 0.616673 1.000000
0.102500 0.617884 1.000000
0.205000 0.619171 1.000000
0.307500 0.620533 1.000000
0.410000 0.621970 1.000000
0.512500 0.623482 1.000000
0.615000 0.625070 1.000000
0.717500 0.626732 1.000000
0.820000 0.628470 1.000000
0.000000 0.737005 1.000000
0.102500 0.738386 1.000000
0.205000 0.739842 1.000000
0.307500 0.741373 1.000000
0.410000 0.742979 1.000000
0.512500 0.744660 1.000000
0.615000 0.746417 1.000000
0.717500 0.748248 1.000000
0.820000 0.750155 1.000000
0.000000 0.857718 1.000000
0.102500 0.859268 1.000000
0.205000 0.860893 1.000000
0.307500 0.862593 1.000000
0.410000 0.864369 1.000000
0.512500 0.866219 1.000000
0.615000 0.868145 1.000000
0.717500 0.870145 1.000000
0.820000 0.872221 1.000000
0.000000 0.978812 1.000000
0.102500 0.980531 1.000000
0.205000 0.982325 1.000000
0.307500 0.984194 1.000000
0.410000 0.986139 1.000000
0.512500 0.988158 1.000000
0.615000 0.990253 1.000000
0.717500 0.992423 1.000000
0.820000 0.994668 1.000000
0.000000 0.020910 1.000000
0.102500 0.021317 1.000000
0.205000 0.021800 1.000000
0.307500 0.022357 1.000000
0.410000 0.022990 1.000000
0.512500 0.023698 1.000000
0.615000 0.024481 1.000000
0.717500 0.025339 1.000000
0.820000 0.026273 1.000000
0.000000 0.139432 1.000000
0.102500 0.140009 1.000000
0.205000 0.140660 1.000000
0.307500 0.141387 1.000000
0.410000 0.142189 1.000000
0.512500 0.143066 1.000000
0.615000 0.144018 1.000000
0.717500 0.145046 1.000000
0.820000 0.146148 1.000000
0.000000 0.258335 1.000000
0.102500 0.259081 1.000000
0.205000 0.259902 1.000000
0.307500 0.260798 1.000000
0.410000 0.261769 1.000000
0.512500 0.262815 1.000000
0.615000 0.263936 1.000000
0.717500 0.265132 1.000000
0.820000 0.266404 1.000000
0.000000 0.377619 1.000000
0.102500 0.378534 1.000000
0.205000 0.379524 1.000000
0.307500 0.380588 1.000000
0.410000 0.381729 1.000000
0.512500 0.382944 1.000000
0.615000 0.384234 1.000000
0.717500 0.385600 1.000000
0.820000 0.387040 1.000000
0.000000 0.497283 1.000000
0.102500 0.498367 1.000000
0.205000 0.499526 1.000000
0.307500 0.500760 1.000000
0.410000 0.502069 1.000000
0.512500 0.503454 1.000000
0.615000 0.504913 1.000000
0.717500 0.506448 1.000000
0.820000 0.508057 1.000000
0.000000 0.617328 1.000000
0.102500 0.618581 1.000000
0.205000 0.619909 1.000000
0.307500 0.621312 1.000000
0.410000 0.622790 1.000000
0.512500 0.624344 1.000000
0.615000 0.625972 1.000000
0.717500 0.627676 1.000000
0.820000 0.629455 1.000000
0.000000 0.737753 1.000000
0.102500 0.739175 1.000000
0.205000 0.740673 1.000000
0.307500 0.742245 1.000000
0.410000 0.743892 1.000000
0.512500 0.745615 1.000000
0.615000 0.747412 1.000000
0.717500 0.749285 1.000000
0.820000 0.751233 1.000000
0.000000 0.858559 1.000000
0.102500 0.860150 1.000000
0.205000 0.861817 1.000000
0.307500 0.863558 1.000000
0.410000 0.865375 1.000000
0.512500 0.867266 1.000000
0.615000 0.869233 1.000000
0.717500 0.871275 1.000000
0.820000 0.873392 1.000000
0.000000 0.979746 1.000000
0.102500 0.981506 1.000000
0.205000 0.983341 1.000000
0.307500 0.985252 1.000000
0.410000 0.987238 1.000000
0.512500 0.989298 1.000000
0.615000 0.991434 1.000000
0.717500 0.993645 1.000000
0.820000 0.995931 1.000000
