public/luts/cold-winter.cube
# KomfyEdit 3D LUT: cold-winter
TITLE "cold-winter"
LUT_3D_SIZE 33
DOMAIN_MIN 0.0 0.0 0.0
DOMAIN_MAX 1.0 1.0 1.0
0.000000 0.020011 0.040021
0.025625 0.020023 0.040046
0.051250 0.020040 0.040080
0.076875 0.020062 0.040123
0.102500 0.020088 0.040176
0.128125 0.020119 0.040239
0.153750 0.020155 0.040310
0.179375 0.020196 0.040391
0.205000 0.020241 0.040482
0.230625 0.020291 0.040581
0.256250 0.020345 0.040691
0.281875 0.020405 0.040809
0.307500 0.020469 0.040937
0.333125 0.020537 0.041075
0.358750 0.020611 0.041221
0.384375 0.020689 0.041378
0.410000 0.020772 0.041543
0.435625 0.020859 0.041718
0.461250 0.020951 0.041903
0.486875 0.021048 0.042096
0.512500 0.021150 0.042299
0.538125 0.021256 0.042512
0.563750 0.021367 0.042734
0.589375 0.021483 0.042965
0.615000 0.021603 0.043206
0.640625 0.021728 0.043456
0.666250 0.021858 0.043716
0.691875 0.021992 0.043984
0.717500 0.022131 0.044263
0.743125 0.022275 0.044550
0.768750 0.022424 0.044847
0.794375 0.022577 0.045154
0.820000 0.022735 0.045470
0.000000 0.049420 0.040090
0.025625 0.049443 0.040136
0.051250 0.049471 0.040191
0.076875 0.049503 0.040256
0.102500 0.049540 0.040330
0.128125 0.049582 0.040413
0.153750 0.049628 0.040506
0.179375 0.049679 0.040608
0.205000 0.049735 0.040720
0.230625 0.049795 0.040841
0.256250 0.049860 0.040971
0.281875 0.049930 0.041111
0.307500 0.050005 0.041260
0.333125 0.050084 0.041418
0.358750 0.050168 0.041586
0.384375 0.050257 0.041763
0.410000 0.050350 0.041950
0.435625 0.050448 0.042146
0.461250 0.050551 0.042352
0.486875 0.050658 0.042567
0.512500 0.050770 0.042791
0.538125 0.050887 0.043025
0.563750 0.051009 0.043268
0.589375 0.051135 0.043520
0.615000 0.051266 0.043782
0.640625 0.051402 0.044053
0.666250 0.051542 0.044334
0.691875 0.051687 0.044624
0.717500 0.051837 0.044923
0.743125 0.051991 0.045232
0.768750 0.052150 0.045550
0.794375 0.052314 0.045878
0.820000 0.052482 0.046215
0.000000 0.078853 0.040206
0.025625 0.078887 0.040273
0.051250 0.078925 0.040350
0.076875 0.078968 0.040435
0.102500 0.079015 0.040531
0.128125 0.079068 0.040635
0.153750 0.079124 0.040749
0.179375 0.079186 0.040872
0.205000 0.079252 0.041005
0.230625 0.079324 0.041147
0.256250 0.079399 0.041299
0.281875 0.079480 0.041459
0.307500 0.079565 0.041630
0.333125 0.079655 0.041809
0.358750 0.079749 0.041998
0.384375 0.079848 0.042197
0.410000 0.079952 0.042405
0.435625 0.080061 0.042622
0.461250 0.080174 0.042849
0.486875 0.080292 0.043085
0.512500 0.080415 0.043330
0.538125 0.080542 0.043585
0.563750 0.080675 0.043849
0.589375 0.080811 0.044123
0.615000 0.080953 0.044406
0.640625 0.081099 0.044698
0.666250 0.081250 0.045000
0.691875 0.081405 0.045311
0.717500 0.081566 0.045632
0.743125 0.081731 0.045961
0.768750 0.081900 0.046301
0.794375 0.082075 0.046650
0.820000 0.082254 0.047008
0.000000 0.108310 0.040370
0.025625 0.108354 0.040458
0.051250 0.108403 0.040556
0.076875 0.108456 0.040663
0.102500 0.108514 0.040779
0.128125 0.108577 0.040905
0.153750 0.108645 0.041040
0.179375 0.108717 0.041184
0.205000 0.108794 0.041338
0.230625 0.108876 0.041501
0.256250 0.108962 0.041674
0.281875 0.109053 0.041856
0.307500 0.109149 0.042047
0.333125 0.109249 0.042248
0.358750 0.109354 0.042458
0.384375 0.109464 0.042678
0.410000 0.109578 0.042907
0.435625 0.109698 0.043145
0.461250 0.109822 0.043393
0.486875 0.109950 0.043650
0.512500 0.110083 0.043917
0.538125 0.110221 0.044193
0.563750 0.110364 0.044478
0.589375 0.110511 0.044773
0.615000 0.110663 0.045077
0.640625 0.110820 0.045390
0.666250 0.110982 0.045713
0.691875 0.111148 0.046046
0.717500 0.111319 0.046387
0.743125 0.111494 0.046738
0.768750 0.111674 0.047099
0.794375 0.111859 0.047469
0.820000 0.112049 0.047848
0.000000 0.137791 0.040582
0.025625 0.137845 0.040691
0.051250 0.137905 0.040810
0.076875 0.137969 0.040938
0.102500 0.138037 0.041075
0.128125 0.138111 0.041222
0.153750 0.138189 0.041378
0.179375 0.138272 0.041544
0.205000 0.138359 0.041719
0.230625 0.138451 0.041903
0.256250 0.138548 0.042097
0.281875 0.138650 0.042300
0.307500 0.138756 0.042512
0.333125 0.138867 0.042734
0.358750 0.138983 0.042966
0.384375 0.139103 0.043206
0.410000 0.139228 0.043457
0.435625 0.139358 0.043716
0.461250 0.139492 0.043985
0.486875 0.139632 0.044263
0.512500 0.139775 0.044551
0.538125 0.139924 0.044848
0.563750 0.140077 0.045155
0.589375 0.140235 0.045470
0.615000 0.140398 0.045796
0.640625 0.140565 0.046130
0.666250 0.140737 0.046474
0.691875 0.140914 0.046828
0.717500 0.141095 0.047191
0.743125 0.141281 0.047563
0.768750 0.141472 0.047944
0.794375 0.141668 0.048336
0.820000 0.141868 0.048736
0.000000 0.167295 0.040841
0.025625 0.167361 0.040971
0.051250 0.167430 0.041111
0.076875 0.167505 0.041260
0.102500 0.167584 0.041419
0.128125 0.167668 0.041587
0.153750 0.167757 0.041764
0.179375 0.167850 0.041951
0.205000 0.167948 0.042147
0.230625 0.168051 0.042352
0.256250 0.168159 0.042567
0.281875 0.168271 0.042791
0.307500 0.168388 0.043025
0.333125 0.168509 0.043268
0.358750 0.168635 0.043521
0.384375 0.168766 0.043783
0.410000 0.168902 0.044054
0.435625 0.169042 0.044334
0.461250 0.169187 0.044625
0.486875 0.169337 0.044924
0.512500 0.169491 0.045233
0.538125 0.169650 0.045551
0.563750 0.169814 0.045879
0.589375 0.169983 0.046216
0.615000 0.170156 0.046562
0.640625 0.170334 0.046918
0.666250 0.170517 0.047283
0.691875 0.170704 0.047658
0.717500 0.170896 0.048042
0.743125 0.171092 0.048435
0.768750 0.171294 0.048838
0.794375 0.171500 0.049250
0.820000 0.171711 0.049671
0.000000 0.196824 0.041147
0.025625 0.196899 0.041299
0.051250 0.196980 0.041460
0.076875 0.197065 0.041630
0.102500 0.197155 0.041810
0.128125 0.197249 0.041999
0.153750 0.197349 0.042197
0.179375 0.197453 0.042405
0.205000 0.197561 0.042622
0.230625 0.197675 0.042849
0.256250 0.197793 0.043085
0.281875 0.197915 0.043331
0.307500 0.198043 0.043585
0.333125 0.198175 0.043850
0.358750 0.198312 0.044123
0.384375 0.198453 0.044406
0.410000 0.198599 0.044699
0.435625 0.198750 0.045000
0.461250 0.198906 0.045312
0.486875 0.199066 0.045632
0.512500 0.199231 0.045962
0.538125 0.199401 0.046302
0.563750 0.199575 0.046650
0.589375 0.199754 0.047008
0.615000 0.199938 0.047376
0.640625 0.200126 0.047753
0.666250 0.200320 0.048139
0.691875 0.200517 0.048535
0.717500 0.200720 0.048940
0.743125 0.200927 0.049355
0.768750 0.201139 0.049778
0.794375 0.201356 0.050212
0.820000 0.201577 0.050654
0.000000 0.226376 0.041502
0.025625 0.226462 0.041674
0.051250 0.226553 0.041856
0.076875 0.226649 0.042048
0.102500 0.226749 0.042249
0.128125 0.226854 0.042459
0.153750 0.226964 0.042678
0.179375 0.227079 0.042907
0.205000 0.227198 0.043146
0.230625 0.227322 0.043394
0.256250 0.227450 0.043651
0.281875 0.227584 0.043917
0.307500 0.227722 0.044193
0.333125 0.227864 0.044479
0.358750 0.228012 0.044773
0.384375 0.228164 0.045077
0.410000 0.228321 0.045391
0.435625 0.228482 0.045714
0.461250 0.228648 0.046046
0.486875 0.228819 0.046388
0.512500 0.228995 0.046739
0.538125 0.229175 0.047100
0.563750 0.229360 0.047470
0.589375 0.229549 0.047849
0.615000 0.229744 0.048237
0.640625 0.229943 0.048636
0.666250 0.230147 0.049043
0.691875 0.230355 0.049460
0.717500 0.230568 0.049886
0.743125 0.230786 0.050322
0.768750 0.231008 0.050767
0.794375 0.231236 0.051221
0.820000 0.231468 0.051685
0.000000 0.255952 0.041903
0.025625 0.256049 0.042097
0.051250 0.256150 0.042300
0.076875 0.256256 0.042513
0.102500 0.256367 0.042735
0.128125 0.256483 0.042966
0.153750 0.256603 0.043207
0.179375 0.256729 0.043457
0.205000 0.256858 0.043717
0.230625 0.256993 0.043986
0.256250 0.257132 0.044264
0.281875 0.257276 0.044552
0.307500 0.257424 0.044849
0.333125 0.257578 0.045155
0.358750 0.257736 0.045471
0.384375 0.257898 0.045796
0.410000 0.258066 0.046131
0.435625 0.258238 0.046475
0.461250 0.258414 0.046829
0.486875 0.258596 0.047191
0.512500 0.258782 0.047564
0.538125 0.258973 0.047945
0.563750 0.259168 0.048336
0.589375 0.259368 0.048737
0.615000 0.259573 0.049147
0.640625 0.259783 0.049566
0.666250 0.259997 0.049994
0.691875 0.260216 0.050432
0.717500 0.260440 0.050880
0.743125 0.260668 0.051337
0.768750 0.260901 0.051803
0.794375 0.261139 0.052278
0.820000 0.261382 0.052763
0.000000 0.285551 0.042353
0.025625 0.285659 0.042568
0.051250 0.285771 0.042792
0.076875 0.285888 0.043026
0.102500 0.286009 0.043269
0.128125 0.286136 0.043521
0.153750 0.286267 0.043783
0.179375 0.286402 0.044054
0.205000 0.286543 0.044335
0.230625 0.286688 0.044625
0.256250 0.286837 0.044925
0.281875 0.286992 0.045233
0.307500 0.287151 0.045552
0.333125 0.287315 0.045879
0.358750 0.287483 0.046216
0.384375 0.287656 0.046563
0.410000 0.287834 0.046919
0.435625 0.288017 0.047284
0.461250 0.288204 0.047658
0.486875 0.288396 0.048042
0.512500 0.288593 0.048436
0.538125 0.288794 0.048839
0.563750 0.289000 0.049251
0.589375 0.289211 0.049672
0.615000 0.289427 0.050103
0.640625 0.289647 0.050544
0.666250 0.289872 0.050993
0.691875 0.290101 0.051452
0.717500 0.290335 0.051921
0.743125 0.290574 0.052399
0.768750 0.290818 0.052886
0.794375 0.291066 0.053383
0.820000 0.291319 0.053889
0.000000 0.315175 0.042850
0.025625 0.315293 0.043086
0.051250 0.315416 0.043331
0.076875 0.315543 0.043586
0.102500 0.315675 0.043850
0.128125 0.315812 0.044124
0.153750 0.315953 0.044407
0.179375 0.316100 0.044699
0.205000 0.316251 0.045001
0.230625 0.316406 0.045312
0.256250 0.316566 0.045633
0.281875 0.316731 0.045963
0.307500 0.316901 0.046302
0.333125 0.317075 0.046651
0.358750 0.317255 0.047009
0.384375 0.317438 0.047377
0.410000 0.317627 0.047754
0.435625 0.317820 0.048140
0.461250 0.318018 0.048536
0.486875 0.318220 0.048941
0.512500 0.318428 0.049355
0.538125 0.318640 0.049779
0.563750 0.318856 0.050213
0.589375 0.319078 0.050655
0.615000 0.319304 0.051107
0.640625 0.319534 0.051569
0.666250 0.319770 0.052040
0.691875 0.320010 0.052520
0.717500 0.320255 0.053010
0.743125 0.320504 0.053509
0.768750 0.320759 0.054017
0.794375 0.321018 0.054535
0.820000 0.321281 0.055062
0.000000 0.344822 0.043394
0.025625 0.344951 0.043651
0.051250 0.345084 0.043918
0.076875 0.345222 0.044194
0.102500 0.345365 0.044479
0.128125 0.345512 0.044774
0.153750 0.345664 0.045078
0.179375 0.345821 0.045392
0.205000 0.345982 0.045715
0.230625 0.346148 0.046047
0.256250 0.346319 0.046389
0.281875 0.346495 0.046740
0.307500 0.346675 0.047100
0.333125 0.346860 0.047470
0.358750 0.347050 0.047850
0.384375 0.347244 0.048238
0.410000 0.347443 0.048636
0.435625 0.347647 0.049044
0.461250 0.347855 0.049461
0.486875 0.348068 0.049887
0.512500 0.348286 0.050323
0.538125 0.348509 0.050768
0.563750 0.348736 0.051222
0.589375 0.348968 0.051686
0.615000 0.349205 0.052159
0.640625 0.349446 0.052642
0.666250 0.349692 0.053134
0.691875 0.349943 0.053635
0.717500 0.350198 0.054146
0.743125 0.350458 0.054666
0.768750 0.350723 0.055196
0.794375 0.350992 0.055735
0.820000 0.351267 0.056283
0.000000 0.374493 0.043986
0.025625 0.374632 0.044264
0.051250 0.374776 0.044552
0.076875 0.374925 0.044849
0.102500 0.375078 0.045156
0.128125 0.375236 0.045472
0.153750 0.375399 0.045797
0.179375 0.375566 0.046132
0.205000 0.375738 0.046476
0.230625 0.375915 0.046829
0.256250 0.376096 0.047192
0.281875 0.376282 0.047564
0.307500 0.376473 0.047946
0.333125 0.376669 0.048337
0.358750 0.376869 0.048738
0.384375 0.377074 0.049147
0.410000 0.377283 0.049567
0.435625 0.377498 0.049995
0.461250 0.377717 0.050433
0.486875 0.377940 0.050881
0.512500 0.378169 0.051337
0.538125 0.378402 0.051804
0.563750 0.378640 0.052279
0.589375 0.378882 0.052764
0.615000 0.379129 0.053259
0.640625 0.379381 0.053762
0.666250 0.379638 0.054276
0.691875 0.379899 0.054798
0.717500 0.380165 0.055330
0.743125 0.380436 0.055871
0.768750 0.380711 0.056422
0.794375 0.380991 0.056982
0.820000 0.381276 0.057552
0.000000 0.404188 0.044626
0.025625 0.404338 0.044925
0.051250 0.404492 0.045234
0.076875 0.404651 0.045552
0.102500 0.404815 0.045880
0.128125 0.404984 0.046217
0.153750 0.405157 0.046563
0.179375 0.405335 0.046919
0.205000 0.405517 0.047285
0.230625 0.405705 0.047659
0.256250 0.405897 0.048043
0.281875 0.406093 0.048437
0.307500 0.406295 0.048839
0.333125 0.406501 0.049252
0.358750 0.406712 0.049673
0.384375 0.406927 0.050104
0.410000 0.407147 0.050544
0.435625 0.407372 0.050994
0.461250 0.407602 0.051453
0.486875 0.407836 0.051922
0.512500 0.408075 0.052400
0.538125 0.408319 0.052887
0.563750 0.408567 0.053384
0.589375 0.408820 0.053890
0.615000 0.409078 0.054406
0.640625 0.409340 0.054930
0.666250 0.409607 0.055465
0.691875 0.409879 0.056008
0.717500 0.410156 0.056561
0.743125 0.410437 0.057124
0.768750 0.410723 0.057696
0.794375 0.411014 0.058277
0.820000 0.411309 0.058868
0.000000 0.433906 0.045313
0.025625 0.434067 0.045634
0.051250 0.434232 0.045964
0.076875 0.434401 0.046303
0.102500 0.434576 0.046652
0.128125 0.434755 0.047010
0.153750 0.434939 0.047377
0.179375 0.435127 0.047754
0.205000 0.435320 0.048141
0.230625 0.435518 0.048537
0.256250 0.435721 0.048942
0.281875 0.435928 0.049356
0.307500 0.436140 0.049780
0.333125 0.436357 0.050214
0.358750 0.436578 0.050656
0.384375 0.436804 0.051108
0.410000 0.437035 0.051570
0.435625 0.437270 0.052041
0.461250 0.437511 0.052521
0.486875 0.437755 0.053011
0.512500 0.438005 0.053510
0.538125 0.438259 0.054018
0.563750 0.438518 0.054536
0.589375 0.438782 0.055063
0.615000 0.439050 0.055600
0.640625 0.439323 0.056146
0.666250 0.439601 0.056702
0.691875 0.439883 0.057266
0.717500 0.440170 0.057841
0.743125 0.440462 0.058424
0.768750 0.440759 0.059017
0.794375 0.441060 0.059620
0.820000 0.441366 0.060231
0.000000 0.463649 0.046048
0.025625 0.463820 0.046389
0.051250 0.463995 0.046741
0.076875 0.464176 0.047101
0.102500 0.464361 0.047471
0.128125 0.464550 0.047850
0.153750 0.464745 0.048239
0.179375 0.464944 0.048637
0.205000 0.465147 0.049045
0.230625 0.465356 0.049462
0.256250 0.465569 0.049888
0.281875 0.465787 0.050324
0.307500 0.466009 0.050769
0.333125 0.466237 0.051223
0.358750 0.466468 0.051687
0.384375 0.466705 0.052160
0.410000 0.466946 0.052643
0.435625 0.467192 0.053135
0.461250 0.467443 0.053636
0.486875 0.467699 0.054147
0.512500 0.467959 0.054667
0.538125 0.468223 0.055197
0.563750 0.468493 0.055736
0.589375 0.468767 0.056284
0.615000 0.469046 0.056842
0.640625 0.469330 0.057409
0.666250 0.469618 0.057986
0.691875 0.469911 0.058572
0.717500 0.470209 0.059167
0.743125 0.470511 0.059772
0.768750 0.470818 0.060386
0.794375 0.471130 0.061010
0.820000 0.471446 0.061643
0.000000 0.493415 0.046830
0.025625 0.493596 0.047193
0.051250 0.493783 0.047565
0.076875 0.493973 0.047947
0.102500 0.494169 0.048338
0.128125 0.494369 0.048738
0.153750 0.494574 0.049148
0.179375 0.494784 0.049567
0.205000 0.494998 0.049996
0.230625 0.495217 0.050434
0.256250 0.495441 0.050882
0.281875 0.495669 0.051338
0.307500 0.495902 0.051805
0.333125 0.496140 0.052280
0.358750 0.496383 0.052765
0.384375 0.496630 0.053260
0.410000 0.496882 0.053763
0.435625 0.497138 0.054277
0.461250 0.497400 0.054799
0.486875 0.497666 0.055331
0.512500 0.497936 0.055872
0.538125 0.498212 0.056423
0.563750 0.498492 0.056983
0.589375 0.498776 0.057553
0.615000 0.499066 0.058132
0.640625 0.499360 0.058720
0.666250 0.499659 0.059318
0.691875 0.499962 0.059925
0.717500 0.500271 0.060541
0.743125 0.500584 0.061167
0.768750 0.500901 0.061803
0.794375 0.501224 0.062447
0.820000 0.501551 0.063101
0.000000 0.523205 0.047660
0.025625 0.523397 0.048044
0.051250 0.523594 0.048437
0.076875 0.523795 0.048840
0.102500 0.524001 0.049252
0.128125 0.524212 0.049674
0.153750 0.524427 0.050105
0.179375 0.524648 0.050545
0.205000 0.524873 0.050995
0.230625 0.525102 0.051454
0.256250 0.525336 0.051923
0.281875 0.525575 0.052401
0.307500 0.525819 0.052888
0.333125 0.526067 0.053385
0.358750 0.526321 0.053891
0.384375 0.526578 0.054407
0.410000 0.526841 0.054932
0.435625 0.527108 0.055466
0.461250 0.527380 0.056010
0.486875 0.527656 0.056563
0.512500 0.527938 0.057125
0.538125 0.528224 0.057697
0.563750 0.528514 0.058278
0.589375 0.528809 0.058869
0.615000 0.529110 0.059469
0.640625 0.529414 0.060078
0.666250 0.529724 0.060697
0.691875 0.530038 0.061326
0.717500 0.530357 0.061963
0.743125 0.530680 0.062610
0.768750 0.531008 0.063267
0.794375 0.531341 0.063932
0.820000 0.531679 0.064608
0.000000 0.553019 0.048537
0.025625 0.553221 0.048943
0.051250 0.553429 0.049357
0.076875 0.553641 0.049781
0.102500 0.553857 0.050214
0.128125 0.554079 0.050657
0.153750 0.554305 0.051109
0.179375 0.554535 0.051571
0.205000 0.554771 0.052042
0.230625 0.555011 0.052522
0.256250 0.555256 0.053012
0.281875 0.555505 0.053511
0.307500 0.555760 0.054019
0.333125 0.556019 0.054537
0.358750 0.556282 0.055064
0.384375 0.556551 0.055601
0.410000 0.556824 0.056147
0.435625 0.557101 0.056703
0.461250 0.557384 0.057268
0.486875 0.557671 0.057842
0.512500 0.557963 0.058425
0.538125 0.558259 0.059018
0.563750 0.558560 0.059621
0.589375 0.558866 0.060233
0.615000 0.559177 0.060854
0.640625 0.559492 0.061484
0.666250 0.559812 0.062124
0.691875 0.560137 0.062774
0.717500 0.560466 0.063433
0.743125 0.560800 0.064101
0.768750 0.561139 0.064778
0.794375 0.561483 0.065465
0.820000 0.561831 0.066162
0.000000 0.582856 0.049462
0.025625 0.583069 0.049889
0.051250 0.583287 0.050324
0.076875 0.583510 0.050770
0.102500 0.583737 0.051224
0.128125 0.583969 0.051688
0.153750 0.584206 0.052161
0.179375 0.584447 0.052644
0.205000 0.584693 0.053136
0.230625 0.584944 0.053637
0.256250 0.585199 0.054148
0.281875 0.585459 0.054668
0.307500 0.585724 0.055198
0.333125 0.585994 0.055737
0.358750 0.586268 0.056285
0.384375 0.586547 0.056843
0.410000 0.586830 0.057410
0.435625 0.587119 0.057987
0.461250 0.587412 0.058573
0.486875 0.587709 0.059168
0.512500 0.588012 0.059773
0.538125 0.588319 0.060387
0.563750 0.588630 0.061011
0.589375 0.588947 0.061644
0.615000 0.589268 0.062286
0.640625 0.589594 0.062938
0.666250 0.589925 0.063599
0.691875 0.590260 0.064270
0.717500 0.590600 0.064949
0.743125 0.590944 0.065639
0.768750 0.591294 0.066337
0.794375 0.591648 0.067046
0.820000 0.592007 0.067763
0.000000 0.612718 0.050435
0.025625 0.612941 0.050883
0.051250 0.613170 0.051339
0.076875 0.613403 0.051806
0.102500 0.613641 0.052281
0.128125 0.613883 0.052766
0.153750 0.614130 0.053261
0.179375 0.614382 0.053764
0.205000 0.614639 0.054278
0.230625 0.614900 0.054800
0.256250 0.615166 0.055332
0.281875 0.615437 0.055874
0.307500 0.615712 0.056424
0.333125 0.615992 0.056984
0.358750 0.616277 0.057554
0.384375 0.616566 0.058133
0.410000 0.616861 0.058721
0.435625 0.617160 0.059319
0.461250 0.617463 0.059926
0.486875 0.617771 0.060543
0.512500 0.618084 0.061169
0.538125 0.618402 0.061804
0.563750 0.618724 0.062449
0.589375 0.619051 0.063103
0.615000 0.619383 0.063766
0.640625 0.619720 0.064439
0.666250 0.620061 0.065121
0.691875 0.620406 0.065813
0.717500 0.620757 0.066514
0.743125 0.621112 0.067224
0.768750 0.621472 0.067944
0.794375 0.621837 0.068673
0.820000 0.622206 0.069412
0.000000 0.642603 0.051455
0.025625 0.642837 0.051924
0.051250 0.643076 0.052402
0.076875 0.643320 0.052889
0.102500 0.643568 0.053386
0.128125 0.643821 0.053892
0.153750 0.644079 0.054408
0.179375 0.644341 0.054933
0.205000 0.644608 0.055467
0.230625 0.644880 0.056011
0.256250 0.645157 0.056564
0.281875 0.645438 0.057126
0.307500 0.645724 0.057698
0.333125 0.646015 0.058279
0.358750 0.646310 0.058870
0.384375 0.646610 0.059470
0.410000 0.646915 0.060080
0.435625 0.647224 0.060699
0.461250 0.647538 0.061327
0.486875 0.647857 0.061965
0.512500 0.648181 0.062612
0.538125 0.648509 0.063268
0.563750 0.648842 0.063934
0.589375 0.649180 0.064609
0.615000 0.649522 0.065294
0.640625 0.649869 0.065988
0.666250 0.650221 0.066691
0.691875 0.650577 0.067404
0.717500 0.650938 0.068126
0.743125 0.651304 0.068858
0.768750 0.651674 0.069599
0.794375 0.652049 0.070349
0.820000 0.652429 0.071109
0.000000 0.672512 0.052523
0.025625 0.672756 0.053013
0.051250 0.673006 0.053512
0.076875 0.673260 0.054020
0.102500 0.673519 0.054538
0.128125 0.673783 0.055066
0.153750 0.674051 0.055602
0.179375 0.674324 0.056148
0.205000 0.674602 0.056704
0.230625 0.674884 0.057269
0.256250 0.675171 0.057843
0.281875 0.675463 0.058427
0.307500 0.675760 0.059020
0.333125 0.676061 0.059622
0.358750 0.676367 0.060234
0.384375 0.676678 0.060855
0.410000 0.676993 0.061486
0.435625 0.677313 0.062126
0.461250 0.677638 0.062775
0.486875 0.677967 0.063434
0.512500 0.678301 0.064102
0.538125 0.678640 0.064780
0.563750 0.678983 0.065467
0.589375 0.679331 0.066163
0.615000 0.679684 0.066869
0.640625 0.680042 0.067584
0.666250 0.680404 0.068308
0.691875 0.680771 0.069042
0.717500 0.681143 0.069786
0.743125 0.681519 0.070538
0.768750 0.681900 0.071301
0.794375 0.682286 0.072072
0.820000 0.682676 0.072853
0.000000 0.702444 0.053638
0.025625 0.702700 0.054149
0.051250 0.702960 0.054669
0.076875 0.703225 0.055199
0.102500 0.703494 0.055738
0.128125 0.703768 0.056287
0.153750 0.704047 0.056844
0.179375 0.704331 0.057412
0.205000 0.704619 0.057988
0.230625 0.704912 0.058574
0.256250 0.705210 0.059170
0.281875 0.705512 0.059774
0.307500 0.705819 0.060389
0.333125 0.706131 0.061012
0.358750 0.706448 0.061645
0.384375 0.706769 0.062288
0.410000 0.707095 0.062939
0.435625 0.707425 0.063600
0.461250 0.707760 0.064271
0.486875 0.708100 0.064951
0.512500 0.708445 0.065640
0.538125 0.708794 0.066339
0.563750 0.709149 0.067047
0.589375 0.709507 0.067765
0.615000 0.709871 0.068491
0.640625 0.710239 0.069228
0.666250 0.710612 0.069973
0.691875 0.710989 0.070728
0.717500 0.711371 0.071493
0.743125 0.711758 0.072267
0.768750 0.712150 0.073050
0.794375 0.712546 0.073843
0.820000 0.712947 0.074645
0.000000 0.732401 0.054801
0.025625 0.732667 0.055333
0.051250 0.732937 0.055875
0.076875 0.733213 0.056425
0.102500 0.733493 0.056986
0.128125 0.733778 0.057555
0.153750 0.734067 0.058134
0.179375 0.734361 0.058723
0.205000 0.734660 0.059320
0.230625 0.734964 0.059927
0.256250 0.735272 0.060544
0.281875 0.735585 0.061170
0.307500 0.735903 0.061805
0.333125 0.736225 0.062450
0.358750 0.736552 0.063104
0.384375 0.736884 0.063768
0.410000 0.737220 0.064440
0.435625 0.737561 0.065123
0.461250 0.737907 0.065814
0.486875 0.738258 0.066515
0.512500 0.738613 0.067226
0.538125 0.738973 0.067946
0.563750 0.739337 0.068675
0.589375 0.739707 0.069414
0.615000 0.740081 0.070162
0.640625 0.740460 0.070919
0.666250 0.740843 0.071686
0.691875 0.741231 0.072462
0.717500 0.741624 0.073248
0.743125 0.742021 0.074043
0.768750 0.742424 0.074847
0.794375 0.742830 0.075661
0.820000 0.743242 0.076484
0.000000 0.762381 0.056012
0.025625 0.762657 0.056565
0.051250 0.762939 0.057127
0.076875 0.763225 0.057699
0.102500 0.763515 0.058281
0.128125 0.763811 0.058871
0.153750 0.764111 0.059471
0.179375 0.764415 0.060081
0.205000 0.764725 0.060700
0.230625 0.765039 0.061328
0.256250 0.765358 0.061966
0.281875 0.765681 0.062613
0.307500 0.766010 0.063269
0.333125 0.766343 0.063935
0.358750 0.766680 0.064610
0.384375 0.767023 0.065295
0.410000 0.767370 0.065989
0.435625 0.767721 0.066693
0.461250 0.768078 0.067405
0.486875 0.768439 0.068128
0.512500 0.768805 0.068859
0.538125 0.769175 0.069600
0.563750 0.769550 0.070351
0.589375 0.769930 0.071110
0.615000 0.770315 0.071879
0.640625 0.770704 0.072658
0.666250 0.771098 0.073446
0.691875 0.771497 0.074243
0.717500 0.771900 0.075050
0.743125 0.772308 0.075866
0.768750 0.772721 0.076692
0.794375 0.773138 0.077527
0.820000 0.773560 0.078371
0.000000 0.792385 0.057270
0.025625 0.792672 0.057844
0.051250 0.792964 0.058428
0.076875 0.793260 0.059021
0.102500 0.793562 0.059623
0.128125 0.793868 0.060235
0.153750 0.794178 0.060856
0.179375 0.794494 0.061487
0.205000 0.794814 0.062127
0.230625 0.795138 0.062776
0.256250 0.795468 0.063435
0.281875 0.795802 0.064103
0.307500 0.796141 0.064781
0.333125 0.796484 0.065468
0.358750 0.796832 0.066164
0.384375 0.797185 0.066870
0.410000 0.797543 0.067585
0.435625 0.797905 0.068310
0.461250 0.798272 0.069044
0.486875 0.798644 0.069787
0.512500 0.799020 0.070540
0.538125 0.799401 0.071302
0.563750 0.799787 0.072074
0.589375 0.800177 0.072855
0.615000 0.800572 0.073645
0.640625 0.800972 0.074445
