public/luts/cyber-neon.cube
# KomfyEdit 3D LUT: cyber-neon
TITLE "cyber-neon"
LUT_3D_SIZE 9
DOMAIN_MIN 0.0 0.0 0.0
DOMAIN_MAX 1.0 1.0 1.0
0.060000 0.000000 0.150000
0.227040 0.000000 0.144394
0.371407 0.000000 0.138788
0.508282 0.000000 0.133181
0.640505 0.000000 0.127575
0.769372 0.000000 0.121969
0.895623 0.000000 0.116362
1.000000 0.000000 0.110756
1.000000 0.000000 0.105150
0.055598 0.091378 0.138994
0.222637 0.091378 0.133387
0.367005 0.091378 0.127781
0.503880 0.091378 0.122175
0.636103 0.091378 0.116569
0.764969 0.091378 0.110963
0.891221 0.091378 0.105356
1.000000 0.091378 0.099750
1.000000 0.091378 0.094144
0.051195 0.195874 0.127988
0.218235 0.195874 0.122381
0.362602 0.195874 0.116775
0.499477 0.195874 0.111169
0.631700 0.195874 0.105562
0.760567 0.195874 0.099956
0.886818 0.195874 0.094350
1.000000 0.195874 0.088744
1.000000 0.195874 0.083138
0.046793 0.305969 0.116981
0.213832 0.305969 0.111375
0.358200 0.305969 0.105769
0.495075 0.305969 0.100163
0.627298 0.305969 0.094556
0.756164 0.305969 0.088950
0.882416 0.305969 0.083344
1.000000 0.305969 0.077738
1.000000 0.305969 0.072131
0.042390 0.419865 0.105975
0.209430 0.419865 0.100369
0.353797 0.419865 0.094762
0.490672 0.419865 0.089156
0.622895 0.419865 0.083550
0.751762 0.419865 0.077944
0.878013 0.419865 0.072338
1.000000 0.419865 0.066731
1.000000 0.419865 0.061125
0.037988 0.536674 0.094969
0.205027 0.536674 0.089362
0.349395 0.536674 0.083756
0.486270 0.536674 0.078150
0.618493 0.536674 0.072544
0.747359 0.536674 0.066937
0.873611 0.536674 0.061331
0.997729 0.536674 0.055725
1.000000 0.536674 0.050119
0.033585 0.655858 0.083962
0.200625 0.655858 0.078356
0.344992 0.655858 0.072750
0.481867 0.655858 0.067144
0.614090 0.655858 0.061537
0.742957 0.655858 0.055931
0.869208 0.655858 0.050325
0.993326 0.655858 0.044719
1.000000 0.655858 0.039113
0.029183 0.777054 0.072956
0.196222 0.777054 0.067350
0.340590 0.777054 0.061744
0.477465 0.777054 0.056137
0.609688 0.777054 0.050531
0.738554 0.777054 0.044925
0.864806 0.777054 0.039319
0.988924 0.777054 0.033712
1.000000 0.777054 0.028106
0.024780 0.900000 0.061950
0.191820 0.900000 0.056344
0.336187 0.900000 0.050738
0.473062 0.900000 0.045131
0.605285 0.900000 0.039525
0.734152 0.900000 0.033919
0.860403 0.900000 0.028312
0.984521 0.900000 0.022706
1.000000 0.900000 0.017100
0.059145 0.000000 0.384693
0.226185 0.000000 0.379087
0.370552 0.000000 0.373481
0.507427 0.000000 0.367874
0.639650 0.000000 0.362268
0.768517 0.000000 0.356662
0.894768 0.000000 0.351056
1.000000 0.000000 0.345449
1.000000 0.000000 0.339843
0.054742 0.091378 0.373687
0.221782 0.091378 0.368081
0.366150 0.091378 0.362474
0.503025 0.091378 0.356868
0.635248 0.091378 0.351262
0.764114 0.091378 0.345656
0.890366 0.091378 0.340049
1.000000 0.091378 0.334443
1.000000 0.091378 0.328837
0.050340 0.195874 0.362681
0.217380 0.195874 0.357074
0.361747 0.195874 0.351468
0.498622 0.195874 0.345862
0.630845 0.195874 0.340256
0.759712 0.195874 0.334649
0.885963 0.195874 0.329043
1.000000 0.195874 0.323437
1.000000 0.195874 0.317831
0.045937 0.305969 0.351674
0.212977 0.305969 0.346068
0.357345 0.305969 0.340462
0.494220 0.305969 0.334856
0.626443 0.305969 0.329249
0.755309 0.305969 0.323643
0.881561 0.305969 0.318037
1.000000 0.305969 0.312431
1.000000 0.305969 0.306824
0.041535 0.419865 0.340668
0.208575 0.419865 0.335062
0.352942 0.419865 0.329456
0.489817 0.419865 0.323849
0.622040 0.419865 0.318243
0.750907 0.419865 0.312637
0.877158 0.419865 0.307031
1.000000 0.419865 0.301424
1.000000 0.419865 0.295818
0.037133 0.536674 0.329662
0.204172 0.536674 0.324056
0.348540 0.536674 0.318449
0.485415 0.536674 0.312843
0.617638 0.536674 0.307237
0.746504 0.536674 0.301631
0.872756 0.536674 0.296024
0.996874 0.536674 0.290418
1.000000 0.536674 0.284812
0.032730 0.655858 0.318656
0.199770 0.655858 0.313049
0.344137 0.655858 0.307443
0.481012 0.655858 0.301837
0.613235 0.655858 0.296231
0.742102 0.655858 0.290624
0.868353 0.655858 0.285018
0.992471 0.655858 0.279412
1.000000 0.655858 0.273806
0.028327 0.777054 0.307649
0.195367 0.777054 0.302043
0.339735 0.777054 0.296437
0.476610 0.777054 0.290831
0.608833 0.777054 0.285224
0.737699 0.777054 0.279618
0.863951 0.777054 0.274012
0.988069 0.777054 0.268406
1.000000 0.777054 0.262799
0.023925 0.900000 0.296643
0.190965 0.900000 0.291037
0.335332 0.900000 0.285431
0.472207 0.900000 0.279824
0.604430 0.900000 0.274218
0.733297 0.900000 0.268612
0.859548 0.900000 0.263006
0.983666 0.900000 0.257399
1.000000 0.900000 0.251793
0.058290 0.000000 0.558071
0.225330 0.000000 0.552465
0.369697 0.000000 0.546859
0.506572 0.000000 0.541252
0.638795 0.000000 0.535646
0.767662 0.000000 0.530040
0.893913 0.000000 0.524434
1.000000 0.000000 0.518827
1.000000 0.000000 0.513221
0.053888 0.091378 0.547065
0.220927 0.091378 0.541459
0.365295 0.091378 0.535852
0.502170 0.091378 0.530246
0.634393 0.091378 0.524640
0.763259 0.091378 0.519034
0.889511 0.091378 0.513427
1.000000 0.091378 0.507821
1.000000 0.091378 0.502215
0.049485 0.195874 0.536059
0.216525 0.195874 0.530452
0.360892 0.195874 0.524846
0.497767 0.195874 0.519240
0.629990 0.195874 0.513634
0.758857 0.195874 0.508027
0.885108 0.195874 0.502421
1.000000 0.195874 0.496815
1.000000 0.195874 0.491209
0.045082 0.305969 0.525052
0.212122 0.305969 0.519446
0.356490 0.305969 0.513840
0.493365 0.305969 0.508234
0.625588 0.305969 0.502627
0.754454 0.305969 0.497021
0.880706 0.305969 0.491415
1.000000 0.305969 0.485809
1.000000 0.305969 0.480202
0.040680 0.419865 0.514046
0.207720 0.419865 0.508440
0.352087 0.419865 0.502834
0.488962 0.419865 0.497227
0.621185 0.419865 0.491621
0.750052 0.419865 0.486015
0.876303 0.419865 0.480409
1.000000 0.419865 0.474802
1.000000 0.419865 0.469196
0.036277 0.536674 0.503040
0.203317 0.536674 0.497434
0.347685 0.536674 0.491827
0.484560 0.536674 0.486221
0.616783 0.536674 0.480615
0.745649 0.536674 0.475009
0.871901 0.536674 0.469402
0.996019 0.536674 0.463796
1.000000 0.536674 0.458190
0.031875 0.655858 0.492034
0.198915 0.655858 0.486427
0.343282 0.655858 0.480821
0.480157 0.655858 0.475215
0.612380 0.655858 0.469609
0.741247 0.655858 0.464002
0.867498 0.655858 0.458396
0.991616 0.655858 0.452790
1.000000 0.655858 0.447184
0.027473 0.777054 0.481027
0.194512 0.777054 0.475421
0.338880 0.777054 0.469815
0.475755 0.777054 0.464209
0.607978 0.777054 0.458602
0.736844 0.777054 0.452996
0.863096 0.777054 0.447390
0.987214 0.777054 0.441784
1.000000 0.777054 0.436177
0.023070 0.900000 0.470021
0.190110 0.900000 0.464415
0.334477 0.900000 0.458809
0.471352 0.900000 0.453202
0.603575 0.900000 0.447596
0.732442 0.900000 0.441990
0.858693 0.900000 0.436384
0.982811 0.900000 0.430777
1.000000 0.900000 0.425171
0.057435 0.000000 0.713929
0.224475 0.000000 0.708323
0.368842 0.000000 0.702717
0.505717 0.000000 0.697110
0.637940 0.000000 0.691504
0.766807 0.000000 0.685898
0.893058 0.000000 0.680292
1.000000 0.000000 0.674685
1.000000 0.000000 0.669079
0.053032 0.091378 0.702923
0.220072 0.091378 0.697317
0.364440 0.091378 0.691710
0.501315 0.091378 0.686104
0.633538 0.091378 0.680498
0.762404 0.091378 0.674892
0.888656 0.091378 0.669285
1.000000 0.091378 0.663679
1.000000 0.091378 0.658073
0.048630 0.195874 0.691917
0.215670 0.195874 0.686310
0.360037 0.195874 0.680704
0.496912 0.195874 0.675098
0.629135 0.195874 0.669492
0.758002 0.195874 0.663885
0.884253 0.195874 0.658279
1.000000 0.195874 0.652673
1.000000 0.195874 0.647067
0.044228 0.305969 0.680910
0.211267 0.305969 0.675304
0.355635 0.305969 0.669698
0.492510 0.305969 0.664092
0.624733 0.305969 0.658485
0.753599 0.305969 0.652879
0.879851 0.305969 0.647273
1.000000 0.305969 0.641667
1.000000 0.305969 0.636060
0.039825 0.419865 0.669904
0.206865 0.419865 0.664298
0.351232 0.419865 0.658692
0.488107 0.419865 0.653085
0.620330 0.419865 0.647479
0.749197 0.419865 0.641873
0.875448 0.419865 0.636267
0.999566 0.419865 0.630660
1.000000 0.419865 0.625054
0.035423 0.536674 0.658898
0.202462 0.536674 0.653292
0.346830 0.536674 0.647685
0.483705 0.536674 0.642079
0.615928 0.536674 0.636473
0.744794 0.536674 0.630867
0.871046 0.536674 0.625260
0.995164 0.536674 0.619654
1.000000 0.536674 0.614048
0.031020 0.655858 0.647892
0.198060 0.655858 0.642285
0.342427 0.655858 0.636679
0.479302 0.655858 0.631073
0.611525 0.655858 0.625467
0.740392 0.655858 0.619860
0.866643 0.655858 0.614254
0.990761 0.655858 0.608648
1.000000 0.655858 0.603042
0.026618 0.777054 0.636885
0.193657 0.777054 0.631279
0.338025 0.777054 0.625673
0.474900 0.777054 0.620067
0.607123 0.777054 0.614460
0.735989 0.777054 0.608854
0.862241 0.777054 0.603248
0.986359 0.777054 0.597642
1.000000 0.777054 0.592035
0.022215 0.900000 0.625879
0.189255 0.900000 0.620273
0.333622 0.900000 0.614667
0.470497 0.900000 0.609060
0.602720 0.900000 0.603454
0.731587 0.900000 0.597848
0.857838 0.900000 0.592242
0.981956 0.900000 0.586635
1.000000 0.900000 0.581029
0.056580 0.000000 0.859386
0.223620 0.000000 0.853780
0.367987 0.000000 0.848174
0.504862 0.000000 0.842568
0.637085 0.000000 0.836961
0.765952 0.000000 0.831355
0.892203 0.000000 0.825749
1.000000 0.000000 0.820143
1.000000 0.000000 0.814536
0.052177 0.091378 0.848380
0.219217 0.091378 0.842774
0.363585 0.091378 0.837168
0.500460 0.091378 0.831561
0.632683 0.091378 0.825955
0.761549 0.091378 0.820349
0.887801 0.091378 0.814743
1.000000 0.091378 0.809136
1.000000 0.091378 0.803530
0.047775 0.195874 0.837374
0.214815 0.195874 0.831768
0.359182 0.195874 0.826161
0.496057 0.195874 0.820555
0.628280 0.195874 0.814949
0.757147 0.195874 0.809343
0.883398 0.195874 0.803736
1.000000 0.195874 0.798130
1.000000 0.195874 0.792524
0.043372 0.305969 0.826368
0.210412 0.305969 0.820761
0.354780 0.305969 0.815155
0.491655 0.305969 0.809549
0.623878 0.305969 0.803943
0.752744 0.305969 0.798336
0.878996 0.305969 0.792730
1.000000 0.305969 0.787124
1.000000 0.305969 0.781518
0.038970 0.419865 0.815361
0.206010 0.419865 0.809755
0.350377 0.419865 0.804149
0.487252 0.419865 0.798543
0.619475 0.419865 0.792936
0.748342 0.419865 0.787330
0.874593 0.419865 0.781724
0.998711 0.419865 0.776118
1.000000 0.419865 0.770511
0.034568 0.536674 0.804355
0.201607 0.536674 0.798749
0.345975 0.536674 0.793143
0.482850 0.536674 0.787536
0.615073 0.536674 0.781930
0.743939 0.536674 0.776324
0.870191 0.536674 0.770718
0.994309 0.536674 0.765111
1.000000 0.536674 0.759505
0.030165 0.655858 0.793349
0.197205 0.655858 0.787743
0.341572 0.655858 0.782136
0.478447 0.655858 0.776530
0.610670 0.655858 0.770924
0.739537 0.655858 0.765318
0.865788 0.655858 0.759711
0.989906 0.655858 0.754105
1.000000 0.655858 0.748499
0.025762 0.777054 0.782343
0.192802 0.777054 0.776736
0.337170 0.777054 0.771130
0.474045 0.777054 0.765524
0.606268 0.777054 0.759918
0.735134 0.777054 0.754311
0.861386 0.777054 0.748705
0.985504 0.777054 0.743099
1.000000 0.777054 0.737493
0.021360 0.900000 0.771336
0.188400 0.900000 0.765730
0.332767 0.900000 0.760124
0.469642 0.900000 0.754518
0.601865 0.900000 0.748911
0.730732 0.900000 0.743305
0.856983 0.900000 0.737699
0.981101 0.900000 0.732093
1.000000 0.900000 0.726486
0.055725 0.000000 0.997563
0.222765 0.000000 0.991957
0.367132 0.000000 0.986350
0.504007 0.000000 0.980744
0.636230 0.000000 0.975138
0.765097 0.000000 0.969532
0.891348 0.000000 0.963925
1.000000 0.000000 0.958319
1.000000 0.000000 0.952713
0.051323 0.091378 0.986557
0.218362 0.091378 0.980950
0.362730 0.091378 0.975344
0.499605 0.091378 0.969738
0.631828 0.091378 0.964132
0.760694 0.091378 0.958525
0.886946 0.091378 0.952919
1.000000 0.091378 0.947313
1.000000 0.091378 0.941707
0.046920 0.195874 0.975550
0.213960 0.195874 0.969944
0.358327 0.195874 0.964338
0.495202 0.195874 0.958732
0.627425 0.195874 0.953125
0.756292 0.195874 0.947519
0.882543 0.195874 0.941913
1.000000 0.195874 0.936307
1.000000 0.195874 0.930700
0.042517 0.305969 0.964544
0.209557 0.305969 0.958938
0.353925 0.305969 0.953332
0.490800 0.305969 0.947725
0.623023 0.305969 0.942119
0.751889 0.305969 0.936513
0.878141 0.305969 0.930907
1.000000 0.305969 0.925300
1.000000 0.305969 0.919694
0.038115 0.419865 0.953538
0.205155 0.419865 0.947932
0.349522 0.419865 0.942325
0.486397 0.419865 0.936719
0.618620 0.419865 0.931113
0.747487 0.419865 0.925507
0.873738 0.419865 0.919900
0.997856 0.419865 0.914294
1.000000 0.419865 0.908688
0.033712 0.536674 0.942532
0.200752 0.536674 0.936925
0.345120 0.536674 0.931319
0.481995 0.536674 0.925713
0.614218 0.536674 0.920107
0.743084 0.536674 0.914500
0.869336 0.536674 0.908894
0.993454 0.536674 0.903288
1.000000 0.536674 0.897682
0.029310 0.655858 0.931525
0.196350 0.655858 0.925919
0.340717 0.655858 0.920313
0.477592 0.655858 0.914707
0.609815 0.655858 0.909100
0.738682 0.655858 0.903494
0.864933 0.655858 0.897888
0.989051 0.655858 0.892282
1.000000 0.655858 0.886675
0.024907 0.777054 0.920519
0.191947 0.777054 0.914913
0.336315 0.777054 0.909307
0.473190 0.777054 0.903700
0.605413 0.777054 0.898094
0.734279 0.777054 0.892488
0.860531 0.777054 0.886882
0.984649 0.777054 0.881275
1.000000 0.777054 0.875669
0.020505 0.900000 0.909513
0.187545 0.900000 0.903907
0.331912 0.900000 0.898300
0.468787 0.900000 0.892694
0.601010 0.900000 0.887088
0.729877 0.900000 0.881482
0.856128 0.900000 0.875875
0.980246 0.900000 0.870269
1.000000 0.900000 0.864663
0.054870 0.000000 1.000000
0.221910 0.000000 1.000000
0.366277 0.000000 1.000000
0.503152 0.000000 1.000000
0.635375 0.000000 1.000000
0.764242 0.000000 1.000000
0.890493 0.000000 1.000000
1.000000 0.000000 1.000000
1.000000 0.000000 1.000000
0.050467 0.091378 1.000000
0.217507 0.091378 1.000000
0.361875 0.091378 1.000000
0.498750 0.091378 1.000000
0.630973 0.091378 1.000000
0.759839 0.091378 1.000000
0.886091 0.091378 1.000000
1.000000 0.091378 1.000000
1.000000 0.091378 1.000000
0.046065 0.195874 1.000000
0.213105 0.195874 1.000000
0.357472 0.195874 1.000000
0.494347 0.195874 1.000000
0.626570 0.195874 1.000000
0.755437 0.195874 1.000000
0.881688 0.195874 1.000000
1.000000 0.195874 1.000000
1.000000 0.195874 1.000000
0.041662 0.305969 1.000000
0.208702 0.305969 1.000000
0.353070 0.305969 1.000000
0.489945 0.305969 1.000000
0.622168 0.305969 1.000000
0.751034 0.305969 1.000000
0.877286 0.305969 1.000000
1.000000 0.305969 1.000000
1.000000 0.305969 1.000000
0.037260 0.419865 1.000000
0.204300 0.419865 1.000000
0.348667 0.419865 1.000000
0.485542 0.419865 1.000000
0.617765 0.419865 1.000000
0.746632 0.419865 1.000000
0.872883 0.419865 1.000000
0.997001 0.419865 1.000000
1.000000 0.419865 1.000000
0.032857 0.536674 1.000000
0.199897 0.536674 1.000000
0.344265 0.536674 1.000000
0.481140 0.536674 1.000000
0.613363 0.536674 1.000000
0.742229 0.536674 1.000000
0.868481 0.536674 1.000000
0.992599 0.536674 1.000000
1.000000 0.536674 1.000000
0.028455 0.655858 1.000000
0.195495 0.655858 1.000000
0.339862 0.655858 1.000000
0.476737 0.655858 1.000000
0.608960 0.655858 1.000000
0.737827 0.655858 1.000000
0.864078 0.655858 1.000000
0.988196 0.655858 1.000000
1.000000 0.655858 1.000000
0.024052 0.777054 1.000000
0.191092 0.777054 1.000000
0.335460 0.777054 1.000000
0.472335 0.777054 1.000000
0.604558 0.777054 1.000000
0.733424 0.777054 1.000000
0.859676 0.777054 1.000000
0.983794 0.777054 1.000000
1.000000 0.777054 1.000000
0.019650 0.900000 1.000000
0.186690 0.900000 1.000000
0.331057 0.900000 1.000000
0.467932 0.900000 1.000000
0.600155 0.900000 1.000000
0.729022 0.900000 1.000000
0.855273 0.900000 1.000000
0.979391 0.900000 1.000000
1.000000 0.900000 0.997297
0.054015 0.000000 1.000000
0.221055 0.000000 1.000000
0.365422 0.000000 1.000000
0.502297 0.000000 1.000000
0.634520 0.000000 1.000000
0.763387 0.000000 1.000000
0.889638 0.000000 1.000000
1.000000 0.000000 1.000000
1.000000 0.000000 1.000000
0.049612 0.091378 1.000000
0.216652 0.091378 1.000000
0.361020 0.091378 1.000000
0.497895 0.091378 1.000000
0.630118 0.091378 1.000000
0.758984 0.091378 1.000000
0.885236 0.091378 1.000000
1.000000 0.091378 1.000000
1.000000 0.091378 1.000000
0.045210 0.195874 1.000000
0.212250 0.195874 1.000000
0.356617 0.195874 1.000000
0.493492 0.195874 1.000000
0.625715 0.195874 1.000000
0.754582 0.195874 1.000000
0.880833 0.195874 1.000000
1.000000 0.195874 1.000000
1.000000 0.195874 1.000000
0.040807 0.305969 1.000000
0.207847 0.305969 1.000000
0.352215 0.305969 1.000000
0.489090 0.305969 1.000000
0.621313 0.305969 1.000000
0.750179 0.305969 1.000000
0.876431 0.305969 1.000000
1.000000 0.305969 1.000000
1.000000 0.305969 1.000000
0.036405 0.419865 1.000000
0.203445 0.419865 1.000000
0.347812 0.419865 1.000000
0.484687 0.419865 1.000000
0.616910 0.419865 1.000000
0.745777 0.419865 1.000000
0.872028 0.419865 1.000000
0.996146 0.419865 1.000000
1.000000 0.419865 1.000000
0.032003 0.536674 1.000000
0.199042 0.536674 1.000000
0.343410 0.536674 1.000000
0.480285 0.536674 1.000000
0.612508 0.536674 1.000000
0.741374 0.536674 1.000000
0.867626 0.536674 1.000000
0.991744 0.536674 1.000000
1.000000 0.536674 1.000000
0.027600 0.655858 1.000000
0.194640 0.655858 1.000000
0.339007 0.655858 1.000000
0.475882 0.655858 1.000000
0.608105 0.655858 1.000000
0.736972 0.655858 1.000000
0.863223 0.655858 1.000000
0.987341 0.655858 1.000000
1.000000 0.655858 1.000000
0.023197 0.777054 1.000000
0.190237 0.777054 1.000000
0.334605 0.777054 1.000000
0.471480 0.777054 1.000000
0.603703 0.777054 1.000000
0.732569 0.777054 1.000000
0.858821 0.777054 1.000000
0.982939 0.777054 1.000000
1.000000 0.777054 1.000000
0.018795 0.900000 1.000000
0.185835 0.900000 1.000000
0.330202 0.900000 1.000000
0.467077 0.900000 1.000000
0.599300 0.900000 1.000000
0.728167 0.900000 1.000000
0.854418 0.900000 1.000000
0.978536 0.900000 1.000000
1.000000 0.900000 1.000000
0.053160 0.000000 1.000000
0.220200 0.000000 1.000000
0.364567 0.000000 1.000000
0.501442 0.000000 1.000000
0.633665 0.000000 1.000000
0.762532 0.000000 1.000000
0.888783 0.000000 1.000000
1.000000 0.000000 1.000000
1.000000 0.000000 1.000000
0.048757 0.091378 1.000000
0.215797 0.091378 1.000000
0.360165 0.091378 1.000000
0.497040 0.091378 1.000000
0.629263 0.091378 1.000000
0.758129 0.091378 1.000000
0.884381 0.091378 1.000000
1.000000 0.091378 1.000000
1.000000 0.091378 1.000000
0.044355 0.195874 1.000000
0.211395 0.195874 1.000000
0.355762 0.195874 1.000000
0.492637 0.195874 1.000000
0.624860 0.195874 1.000000
0.753727 0.195874 1.000000
0.879978 0.195874 1.000000
1.000000 0.195874 1.000000
1.000000 0.195874 1.000000
0.039952 0.305969 1.000000
0.206992 0.305969 1.000000
0.351360 0.305969 1.000000
0.488235 0.305969 1.000000
0.620458 0.305969 1.000000
0.749324 0.305969 1.000000
0.875576 0.305969 1.000000
0.999694 0.305969 1.000000
1.000000 0.305969 1.000000
0.035550 0.419865 1.000000
0.202590 0.419865 1.000000
0.346957 0.419865 1.000000
0.483832 0.419865 1.000000
0.616055 0.419865 1.000000
0.744922 0.419865 1.000000
0.871173 0.419865 1.000000
0.995291 0.419865 1.000000
1.000000 0.419865 1.000000
0.031148 0.536674 1.000000
0.198187 0.536674 1.000000
0.342555 0.536674 1.000000
0.479430 0.536674 1.000000
0.611653 0.536674 1.000000
0.740519 0.536674 1.000000
0.866771 0.536674 1.000000
0.990889 0.536674 1.000000
1.000000 0.536674 1.000000
0.026745 0.655858 1.000000
0.193785 0.655858 1.000000
0.338152 0.655858 1.000000
0.475027 0.655858 1.000000
0.607250 0.655858 1.000000
0.736117 0.655858 1.000000
0.862368 0.655858 1.000000
0.986486 0.655858 1.000000
1.000000 0.655858 1.000000
0.022343 0.777054 1.000000
0.189382 0.777054 1.000000
0.333750 0.777054 1.000000
0.470625 0.777054 1.000000
0.602848 0.777054 1.000000
0.731714 0.777054 1.000000
0.857966 0.777054 1.000000
0.982084 0.777054 1.000000
1.000000 0.777054 1.000000
0.017940 0.900000 1.000000
0.184980 0.900000 1.000000
0.329347 0.900000 1.000000
0.466222 0.900000 1.000000
0.598445 0.900000 1.000000
0.727312 0.900000 1.000000
0.853563 0.900000 1.000000
0.977681 0.900000 1.000000
1.000000 0.900000 1.000000
