public/luts/cyber-neon.cube
# KomfyEdit 3D LUT: cyber-neon
TITLE "cyber-neon"
LUT_3D_SIZE 5
DOMAIN_MIN 0.0 0.0 0.0
DOMAIN_MAX 1.0 1.0 1.0
0.060000 0.000000 0.150000
0.371407 0.000000 0.138788
0.640505 0.000000 0.127575
0.895623 0.000000 0.116362
1.000000 0.000000 0.105150
0.051195 0.195874 0.127988
0.362602 0.195874 0.116775
0.631700 0.195874 0.105562
0.886818 0.195874 0.094350
1.000000 0.195874 0.083138
0.042390 0.419865 0.105975
0.353797 0.419865 0.094762
0.622895 0.419865 0.083550
0.878013 0.419865 0.072338
1.000000 0.419865 0.061125
0.033585 0.655858 0.083962
0.344992 0.655858 0.072750
0.614090 0.655858 0.061537
0.869208 0.655858 0.050325
1.000000 0.655858 0.039113
0.024780 0.900000 0.061950
0.336187 0.900000 0.050738
0.605285 0.900000 0.039525
0.860403 0.900000 0.028312
1.000000 0.900000 0.017100
0.058290 0.000000 0.558071
0.369697 0.000000 0.546859
0.638795 0.000000 0.535646
0.893913 0.000000 0.524434
1.000000 0.000000 0.513221
0.049485 0.195874 0.536059
0.360892 0.195874 0.524846
0.629990 0.195874 0.513634
0.885108 0.195874 0.502421
1.000000 0.195874 0.491209
0.040680 0.419865 0.514046
0.352087 0.419865 0.502834
0.621185 0.419865 0.491621
0.876303 0.419865 0.480409
1.000000 0.419865 0.469196
0.031875 0.655858 0.492034
0.343282 0.655858 0.480821
0.612380 0.655858 0.469609
0.867498 0.655858 0.458396
1.000000 0.655858 0.447184
0.023070 0.900000 0.470021
0.334477 0.900000 0.458809
0.603575 0.900000 0.447596
0.858693 0.900000 0.436384
1.000000 0.900000 0.425171
0.056580 0.000000 0.859386
0.367987 0.000000 0.848174
0.637085 0.000000 0.836961
0.892203 0.000000 0.825749
1.000000 0.000000 0.814536
0.047775 0.195874 0.837374
0.359182 0.195874 0.826161
0.628280 0.195874 0.814949
0.883398 0.195874 0.803736
1.000000 0.195874 0.792524
0.038970 0.419865 0.815361
0.350377 0.419865 0.804149
0.619475 0.419865 0.792936
0.874593 0.419865 0.781724
1.000000 0.419865 0.770511
0.030165 0.655858 0.793349
0.341572 0.655858 0.782136
0.610670 0.655858 0.770924
0.865788 0.655858 0.759711
1.000000 0.655858 0.748499
0.021360 0.900000 0.771336
0.332767 0.900000 0.760124
0.601865 0.900000 0.748911
0.856983 0.900000 0.737699
1.000000 0.900000 0.726486
0.054870 0.000000 1.000000
0.366277 0.000000 1.000000
0.635375 0.000000 1.000000
0.890493 0.000000 1.000000
1.000000 0.000000 1.000000
0.046065 0.195874 1.000000
0.357472 0.195874 1.000000
0.626570 0.195874 1.000000
0.881688 0.195874 1.000000
1.000000 0.195874 1.000000
0.037260 0.419865 1.000000
0.348667 0.419865 1.000000
0.617765 0.419865 1.000000
0.872883 0.419865 1.000000
1.000000 0.419865 1.000000
0.028455 0.655858 1.000000
0.339862 0.655858 1.000000
0.608960 0.655858 1.000000
0.864078 0.655858 1.000000
1.000000 0.655858 1.000000
0.019650 0.900000 1.000000
0.331057 0.900000 1.000000
0.600155 0.900000 1.000000
0.855273 0.900000 1.000000
1.000000 0.900000 0.997297
0.053160 0.000000 1.000000
0.364567 0.000000 1.000000
0.633665 0.000000 1.000000
0.888783 0.000000 1.000000
1.000000 0.000000 1.000000
0.044355 0.195874 1.000000
0.355762 0.195874 1.000000
0.624860 0.195874 1.000000
0.879978 0.195874 1.000000
1.000000 0.195874 1.000000
0.035550 0.419865 1.000000
0.346957 0.419865 1.000000
0.616055 0.419865 1.000000
0.871173 0.419865 1.000000
1.000000 0.419865 1.000000
0.026745 0.655858 1.000000
0.338152 0.655858 1.000000
0.607250 0.655858 1.000000
0.862368 0.655858 1.000000
1.000000 0.655858 1.000000
0.017940 0.900000 1.000000
0.329347 0.900000 1.000000
0.598445 0.900000 1.000000
0.853563 0.900000 1.000000
1.000000 0.900000 1.000000
