public/luts/cyber-neon.cube
# KomfyEdit 3D LUT: cyber-neon
TITLE "cyber-neon"
LUT_3D_SIZE 33
DOMAIN_MIN 0.0 0.0 0.0
DOMAIN_MAX 1.0 1.0 1.0
0.060000 0.000000 0.150000
0.108053 0.000000 0.148598
0.149595 0.000000 0.147197
0.188985 0.000000 0.145795
0.227040 0.000000 0.144394
0.264130 0.000000 0.142992
0.300470 0.000000 0.141591
0.336197 0.000000 0.140189
0.371407 0.000000 0.138788
0.406172 0.000000 0.137386
0.440545 0.000000 0.135984
0.474571 0.000000 0.134583
0.508282 0.000000 0.133181
0.541709 0.000000 0.131780
0.574876 0.000000 0.130378
0.607802 0.000000 0.128977
0.640505 0.000000 0.127575
0.673001 0.000000 0.126173
0.705304 0.000000 0.124772
0.737423 0.000000 0.123370
0.769372 0.000000 0.121969
0.801158 0.000000 0.120567
0.832790 0.000000 0.119166
0.864276 0.000000 0.117764
0.895623 0.000000 0.116362
0.926838 0.000000 0.114961
0.957926 0.000000 0.113559
0.988892 0.000000 0.112158
1.000000 0.000000 0.110756
1.000000 0.000000 0.109355
1.000000 0.000000 0.107953
1.000000 0.000000 0.106552
1.000000 0.000000 0.105150
0.058899 0.019887 0.147248
0.106952 0.019887 0.145847
0.148494 0.019887 0.144445
0.187885 0.019887 0.143044
0.225939 0.019887 0.141642
0.263030 0.019887 0.140241
0.299369 0.019887 0.138839
0.335096 0.019887 0.137437
0.370306 0.019887 0.136036
0.405071 0.019887 0.134634
0.439445 0.019887 0.133233
0.473470 0.019887 0.131831
0.507182 0.019887 0.130430
0.540609 0.019887 0.129028
0.573775 0.019887 0.127627
0.606701 0.019887 0.126225
0.639405 0.019887 0.124823
0.671901 0.019887 0.123422
0.704203 0.019887 0.122020
0.736323 0.019887 0.120619
0.768271 0.019887 0.119217
0.800057 0.019887 0.117816
0.831689 0.019887 0.116414
0.863176 0.019887 0.115013
0.894523 0.019887 0.113611
0.925737 0.019887 0.112209
0.956825 0.019887 0.110808
0.987791 0.019887 0.109406
1.000000 0.019887 0.108005
1.000000 0.019887 0.106603
1.000000 0.019887 0.105202
1.000000 0.019887 0.103800
1.000000 0.019887 0.102398
0.057799 0.042630 0.144497
0.105852 0.042630 0.143095
0.147394 0.042630 0.141694
0.186784 0.042630 0.140292
0.224839 0.042630 0.138891
0.261929 0.042630 0.137489
0.298269 0.042630 0.136088
0.333996 0.042630 0.134686
0.369206 0.042630 0.133284
0.403970 0.042630 0.131883
0.438344 0.042630 0.130481
0.472369 0.042630 0.129080
0.506081 0.042630 0.127678
0.539508 0.042630 0.126277
0.572675 0.042630 0.124875
0.605601 0.042630 0.123473
0.638304 0.042630 0.122072
0.670800 0.042630 0.120670
0.703102 0.042630 0.119269
0.735222 0.042630 0.117867
0.767170 0.042630 0.116466
0.798956 0.042630 0.115064
0.830589 0.042630 0.113662
0.862075 0.042630 0.112261
0.893422 0.042630 0.110859
0.924637 0.042630 0.109458
0.955724 0.042630 0.108056
0.986690 0.042630 0.106655
1.000000 0.042630 0.105253
1.000000 0.042630 0.103852
1.000000 0.042630 0.102450
1.000000 0.042630 0.101048
1.000000 0.042630 0.099647
0.056698 0.066590 0.141745
0.104751 0.066590 0.140344
0.146293 0.066590 0.138942
0.185684 0.066590 0.137541
0.223738 0.066590 0.136139
0.260828 0.066590 0.134737
0.297168 0.066590 0.133336
0.332895 0.066590 0.131934
0.368105 0.066590 0.130533
0.402870 0.066590 0.129131
0.437243 0.066590 0.127730
0.471269 0.066590 0.126328
0.504981 0.066590 0.124927
0.538408 0.066590 0.123525
0.571574 0.066590 0.122123
0.604500 0.066590 0.120722
0.637204 0.066590 0.119320
0.669700 0.066590 0.117919
0.702002 0.066590 0.116517
0.734122 0.066590 0.115116
0.766070 0.066590 0.113714
0.797856 0.066590 0.112312
0.829488 0.066590 0.110911
0.860974 0.066590 0.109509
0.892322 0.066590 0.108108
0.923536 0.066590 0.106706
0.954624 0.066590 0.105305
0.985590 0.066590 0.103903
1.000000 0.066590 0.102502
1.000000 0.066590 0.101100
1.000000 0.066590 0.099698
1.000000 0.066590 0.098297
1.000000 0.066590 0.096895
0.055598 0.091378 0.138994
0.103650 0.091378 0.137592
0.145192 0.091378 0.136191
0.184583 0.091378 0.134789
0.222637 0.091378 0.133387
0.259728 0.091378 0.131986
0.296068 0.091378 0.130584
0.331794 0.091378 0.129183
0.367005 0.091378 0.127781
0.401769 0.091378 0.126380
0.436143 0.091378 0.124978
0.470168 0.091378 0.123577
0.503880 0.091378 0.122175
0.537307 0.091378 0.120773
0.570473 0.091378 0.119372
0.603399 0.091378 0.117970
0.636103 0.091378 0.116569
0.668599 0.091378 0.115167
0.700901 0.091378 0.113766
0.733021 0.091378 0.112364
0.764969 0.091378 0.110963
0.796755 0.091378 0.109561
0.828388 0.091378 0.108159
0.859874 0.091378 0.106758
0.891221 0.091378 0.105356
0.922435 0.091378 0.103955
0.953523 0.091378 0.102553
0.984489 0.091378 0.101152
1.000000 0.091378 0.099750
1.000000 0.091378 0.098348
1.000000 0.091378 0.096947
1.000000 0.091378 0.095545
1.000000 0.091378 0.094144
0.054497 0.116800 0.136242
0.102550 0.116800 0.134841
0.144092 0.116800 0.133439
0.183482 0.116800 0.132038
0.221537 0.116800 0.130636
0.258627 0.116800 0.129234
0.294967 0.116800 0.127833
0.330694 0.116800 0.126431
0.365904 0.116800 0.125030
0.400669 0.116800 0.123628
0.435042 0.116800 0.122227
0.469067 0.116800 0.120825
0.502779 0.116800 0.119423
0.536206 0.116800 0.118022
0.569373 0.116800 0.116620
0.602299 0.116800 0.115219
0.635002 0.116800 0.113817
0.667498 0.116800 0.112416
0.699800 0.116800 0.111014
0.731920 0.116800 0.109613
0.763869 0.116800 0.108211
0.795655 0.116800 0.106809
0.827287 0.116800 0.105408
0.858773 0.116800 0.104006
0.890120 0.116800 0.102605
0.921335 0.116800 0.101203
0.952422 0.116800 0.099802
0.983388 0.116800 0.098400
1.000000 0.116800 0.096998
1.000000 0.116800 0.095597
1.000000 0.116800 0.094195
1.000000 0.116800 0.092794
1.000000 0.116800 0.091392
0.053396 0.142739 0.133491
0.101449 0.142739 0.132089
0.142991 0.142739 0.130687
0.182382 0.142739 0.129286
0.220436 0.142739 0.127884
0.257527 0.142739 0.126483
0.293866 0.142739 0.125081
0.329593 0.142739 0.123680
0.364803 0.142739 0.122278
0.399568 0.142739 0.120877
0.433941 0.142739 0.119475
0.467967 0.142739 0.118073
0.501679 0.142739 0.116672
0.535106 0.142739 0.115270
0.568272 0.142739 0.113869
0.601198 0.142739 0.112467
0.633902 0.142739 0.111066
0.666398 0.142739 0.109664
0.698700 0.142739 0.108262
0.730820 0.142739 0.106861
0.762768 0.142739 0.105459
0.794554 0.142739 0.104058
0.826186 0.142739 0.102656
0.857673 0.142739 0.101255
0.889020 0.142739 0.099853
0.920234 0.142739 0.098452
0.951322 0.142739 0.097050
0.982288 0.142739 0.095648
1.000000 0.142739 0.094247
1.000000 0.142739 0.092845
1.000000 0.142739 0.091444
1.000000 0.142739 0.090042
1.000000 0.142739 0.088641
0.052296 0.169116 0.130739
0.100349 0.169116 0.129337
0.141891 0.169116 0.127936
0.181281 0.169116 0.126534
0.219335 0.169116 0.125133
0.256426 0.169116 0.123731
0.292766 0.169116 0.122330
0.328492 0.169116 0.120928
0.363703 0.169116 0.119527
0.398467 0.169116 0.118125
0.432841 0.169116 0.116723
0.466866 0.169116 0.115322
0.500578 0.169116 0.113920
0.534005 0.169116 0.112519
0.567171 0.169116 0.111117
0.600098 0.169116 0.109716
0.632801 0.169116 0.108314
0.665297 0.169116 0.106912
0.697599 0.169116 0.105511
0.729719 0.169116 0.104109
0.761667 0.169116 0.102708
0.793453 0.169116 0.101306
0.825086 0.169116 0.099905
0.856572 0.169116 0.098503
0.887919 0.169116 0.097102
0.919134 0.169116 0.095700
0.950221 0.169116 0.094298
0.981187 0.169116 0.092897
1.000000 0.169116 0.091495
1.000000 0.169116 0.090094
1.000000 0.169116 0.088692
1.000000 0.169116 0.087291
1.000000 0.169116 0.085889
0.051195 0.195874 0.127988
0.099248 0.195874 0.126586
0.140790 0.195874 0.125184
0.180180 0.195874 0.123783
0.218235 0.195874 0.122381
0.255325 0.195874 0.120980
0.291665 0.195874 0.119578
0.327392 0.195874 0.118177
0.362602 0.195874 0.116775
0.397367 0.195874 0.115373
0.431740 0.195874 0.113972
0.465766 0.195874 0.112570
0.499477 0.195874 0.111169
0.532904 0.195874 0.109767
0.566071 0.195874 0.108366
0.598997 0.195874 0.106964
0.631700 0.195874 0.105562
0.664196 0.195874 0.104161
0.696499 0.195874 0.102759
0.728618 0.195874 0.101358
0.760567 0.195874 0.099956
0.792353 0.195874 0.098555
0.823985 0.195874 0.097153
0.855471 0.195874 0.095752
0.886818 0.195874 0.094350
0.918033 0.195874 0.092948
0.949121 0.195874 0.091547
0.980087 0.195874 0.090145
1.000000 0.195874 0.088744
1.000000 0.195874 0.087342
1.000000 0.195874 0.085941
1.000000 0.195874 0.084539
1.000000 0.195874 0.083138
0.050094 0.222969 0.125236
0.098147 0.222969 0.123834
0.139689 0.222969 0.122433
0.179080 0.222969 0.121031
0.217134 0.222969 0.119630
0.254225 0.222969 0.118228
0.290564 0.222969 0.116827
0.326291 0.222969 0.115425
0.361501 0.222969 0.114023
0.396266 0.222969 0.112622
0.430640 0.222969 0.111220
0.464665 0.222969 0.109819
0.498377 0.222969 0.108417
0.531804 0.222969 0.107016
0.564970 0.222969 0.105614
0.597896 0.222969 0.104212
0.630600 0.222969 0.102811
0.663096 0.222969 0.101409
0.695398 0.222969 0.100008
0.727518 0.222969 0.098606
0.759466 0.222969 0.097205
0.791252 0.222969 0.095803
0.822884 0.222969 0.094402
0.854371 0.222969 0.093000
0.885718 0.222969 0.091598
0.916932 0.222969 0.090197
0.948020 0.222969 0.088795
0.978986 0.222969 0.087394
1.000000 0.222969 0.085992
1.000000 0.222969 0.084591
1.000000 0.222969 0.083189
1.000000 0.222969 0.081787
1.000000 0.222969 0.080386
0.048994 0.250367 0.122484
0.097047 0.250367 0.121083
0.138589 0.250367 0.119681
0.177979 0.250367 0.118280
0.216034 0.250367 0.116878
0.253124 0.250367 0.115477
0.289464 0.250367 0.114075
0.325191 0.250367 0.112673
0.360401 0.250367 0.111272
0.395165 0.250367 0.109870
0.429539 0.250367 0.108469
0.463564 0.250367 0.107067
0.497276 0.250367 0.105666
0.530703 0.250367 0.104264
0.563870 0.250367 0.102863
0.596796 0.250367 0.101461
0.629499 0.250367 0.100059
0.661995 0.250367 0.098658
0.694297 0.250367 0.097256
0.726417 0.250367 0.095855
0.758365 0.250367 0.094453
0.790151 0.250367 0.093052
0.821784 0.250367 0.091650
0.853270 0.250367 0.090248
0.884617 0.250367 0.088847
0.915832 0.250367 0.087445
0.946919 0.250367 0.086044
0.977885 0.250367 0.084642
1.000000 0.250367 0.083241
1.000000 0.250367 0.081839
1.000000 0.250367 0.080438
1.000000 0.250367 0.079036
1.000000 0.250367 0.077634
0.047893 0.278041 0.119733
0.095946 0.278041 0.118331
0.137488 0.278041 0.116930
0.176879 0.278041 0.115528
0.214933 0.278041 0.114127
0.252023 0.278041 0.112725
0.288363 0.278041 0.111323
0.324090 0.278041 0.109922
0.359300 0.278041 0.108520
0.394065 0.278041 0.107119
0.428438 0.278041 0.105717
0.462464 0.278041 0.104316
0.496176 0.278041 0.102914
0.529603 0.278041 0.101512
0.562769 0.278041 0.100111
0.595695 0.278041 0.098709
0.628399 0.278041 0.097308
0.660895 0.278041 0.095906
0.693197 0.278041 0.094505
0.725317 0.278041 0.093103
0.757265 0.278041 0.091702
0.789051 0.278041 0.090300
0.820683 0.278041 0.088898
0.852169 0.278041 0.087497
0.883517 0.278041 0.086095
0.914731 0.278041 0.084694
0.945819 0.278041 0.083292
0.976785 0.278041 0.081891
1.000000 0.278041 0.080489
1.000000 0.278041 0.079087
1.000000 0.278041 0.077686
1.000000 0.278041 0.076284
1.000000 0.278041 0.074883
0.046793 0.305969 0.116981
0.094845 0.305969 0.115580
0.136387 0.305969 0.114178
0.175778 0.305969 0.112777
0.213832 0.305969 0.111375
0.250923 0.305969 0.109973
0.287263 0.305969 0.108572
0.322989 0.305969 0.107170
0.358200 0.305969 0.105769
0.392964 0.305969 0.104367
0.427338 0.305969 0.102966
0.461363 0.305969 0.101564
0.495075 0.305969 0.100163
0.528502 0.305969 0.098761
0.561668 0.305969 0.097359
0.594594 0.305969 0.095958
0.627298 0.305969 0.094556
0.659794 0.305969 0.093155
0.692096 0.305969 0.091753
0.724216 0.305969 0.090352
0.756164 0.305969 0.088950
0.787950 0.305969 0.087548
0.819583 0.305969 0.086147
0.851069 0.305969 0.084745
0.882416 0.305969 0.083344
0.913630 0.305969 0.081942
0.944718 0.305969 0.080541
0.975684 0.305969 0.079139
1.000000 0.305969 0.077738
1.000000 0.305969 0.076336
1.000000 0.305969 0.074934
1.000000 0.305969 0.073533
1.000000 0.305969 0.072131
0.045692 0.334130 0.114230
0.093745 0.334130 0.112828
0.135287 0.334130 0.111427
0.174677 0.334130 0.110025
0.212732 0.334130 0.108623
0.249822 0.334130 0.107222
0.286162 0.334130 0.105820
0.321889 0.334130 0.104419
0.357099 0.334130 0.103017
0.391864 0.334130 0.101616
0.426237 0.334130 0.100214
0.460262 0.334130 0.098813
0.493974 0.334130 0.097411
0.527401 0.334130 0.096009
0.560568 0.334130 0.094608
0.593494 0.334130 0.093206
0.626197 0.334130 0.091805
0.658693 0.334130 0.090403
0.690995 0.334130 0.089002
0.723115 0.334130 0.087600
0.755064 0.334130 0.086198
0.786850 0.334130 0.084797
0.818482 0.334130 0.083395
0.849968 0.334130 0.081994
0.881315 0.334130 0.080592
0.912530 0.334130 0.079191
0.943617 0.334130 0.077789
0.974583 0.334130 0.076387
1.000000 0.334130 0.074986
1.000000 0.334130 0.073584
1.000000 0.334130 0.072183
1.000000 0.334130 0.070781
1.000000 0.334130 0.069380
0.044591 0.362509 0.111478
0.092644 0.362509 0.110077
0.134186 0.362509 0.108675
0.173577 0.362509 0.107273
0.211631 0.362509 0.105872
0.248722 0.362509 0.104470
0.285061 0.362509 0.103069
0.320788 0.362509 0.101667
0.355998 0.362509 0.100266
0.390763 0.362509 0.098864
0.425136 0.362509 0.097463
0.459162 0.362509 0.096061
0.492874 0.362509 0.094659
0.526301 0.362509 0.093258
0.559467 0.362509 0.091856
0.592393 0.362509 0.090455
0.625097 0.362509 0.089053
0.657593 0.362509 0.087652
0.689895 0.362509 0.086250
0.722015 0.362509 0.084848
0.753963 0.362509 0.083447
0.785749 0.362509 0.082045
0.817381 0.362509 0.080644
0.848868 0.362509 0.079242
0.880215 0.362509 0.077841
0.911429 0.362509 0.076439
0.942517 0.362509 0.075037
0.973483 0.362509 0.073636
1.000000 0.362509 0.072234
1.000000 0.362509 0.070833
1.000000 0.362509 0.069431
1.000000 0.362509 0.068030
1.000000 0.362509 0.066628
0.043491 0.391091 0.108727
0.091544 0.391091 0.107325
0.133086 0.391091 0.105923
0.172476 0.391091 0.104522
0.210530 0.391091 0.103120
0.247621 0.391091 0.101719
0.283961 0.391091 0.100317
0.319687 0.391091 0.098916
0.354898 0.391091 0.097514
0.389662 0.391091 0.096113
0.424036 0.391091 0.094711
0.458061 0.391091 0.093309
0.491773 0.391091 0.091908
0.525200 0.391091 0.090506
0.558366 0.391091 0.089105
0.591293 0.391091 0.087703
0.623996 0.391091 0.086302
0.656492 0.391091 0.084900
0.688794 0.391091 0.083498
0.720914 0.391091 0.082097
0.752862 0.391091 0.080695
0.784648 0.391091 0.079294
0.816281 0.391091 0.077892
0.847767 0.391091 0.076491
0.879114 0.391091 0.075089
0.910329 0.391091 0.073687
0.941416 0.391091 0.072286
0.972382 0.391091 0.070884
1.000000 0.391091 0.069483
1.000000 0.391091 0.068081
1.000000 0.391091 0.066680
1.000000 0.391091 0.065278
1.000000 0.391091 0.063877
0.042390 0.419865 0.105975
0.090443 0.419865 0.104573
0.131985 0.419865 0.103172
0.171375 0.419865 0.101770
0.209430 0.419865 0.100369
0.246520 0.419865 0.098967
0.282860 0.419865 0.097566
0.318587 0.419865 0.096164
0.353797 0.419865 0.094762
0.388562 0.419865 0.093361
0.422935 0.419865 0.091959
0.456961 0.419865 0.090558
0.490672 0.419865 0.089156
0.524099 0.419865 0.087755
0.557266 0.419865 0.086353
0.590192 0.419865 0.084952
0.622895 0.419865 0.083550
0.655391 0.419865 0.082148
0.687694 0.419865 0.080747
0.719813 0.419865 0.079345
0.751762 0.419865 0.077944
0.783548 0.419865 0.076542
0.815180 0.419865 0.075141
0.846666 0.419865 0.073739
0.878013 0.419865 0.072338
0.909228 0.419865 0.070936
0.940316 0.419865 0.069534
0.971282 0.419865 0.068133
1.000000 0.419865 0.066731
1.000000 0.419865 0.065330
1.000000 0.419865 0.063928
1.000000 0.419865 0.062527
1.000000 0.419865 0.061125
0.041289 0.448819 0.103223
0.089342 0.448819 0.101822
0.130884 0.448819 0.100420
0.170275 0.448819 0.099019
0.208329 0.448819 0.097617
0.245420 0.448819 0.096216
0.281759 0.448819 0.094814
0.317486 0.448819 0.093412
0.352696 0.448819 0.092011
0.387461 0.448819 0.090609
0.421835 0.448819 0.089208
0.455860 0.448819 0.087806
0.489572 0.448819 0.086405
0.522999 0.448819 0.085003
0.556165 0.448819 0.083602
0.589091 0.448819 0.082200
0.621795 0.448819 0.080798
0.654291 0.448819 0.079397
0.686593 0.448819 0.077995
0.718713 0.448819 0.076594
0.750661 0.448819 0.075192
0.782447 0.448819 0.073791
0.814079 0.448819 0.072389
0.845566 0.448819 0.070988
0.876913 0.448819 0.069586
0.908127 0.448819 0.068184
0.939215 0.448819 0.066783
0.970181 0.448819 0.065381
1.000000 0.448819 0.063980
1.000000 0.448819 0.062578
1.000000 0.448819 0.061177
1.000000 0.448819 0.059775
1.000000 0.448819 0.058373
0.040189 0.477944 0.100472
0.088242 0.477944 0.099070
0.129784 0.477944 0.097669
0.169174 0.477944 0.096267
0.207229 0.477944 0.094866
0.244319 0.477944 0.093464
0.280659 0.477944 0.092063
0.316386 0.477944 0.090661
0.351596 0.477944 0.089259
0.386360 0.477944 0.087858
0.420734 0.477944 0.086456
0.454759 0.477944 0.085055
0.488471 0.477944 0.083653
0.521898 0.477944 0.082252
0.555065 0.477944 0.080850
0.587991 0.477944 0.079448
0.620694 0.477944 0.078047
0.653190 0.477944 0.076645
0.685492 0.477944 0.075244
0.717612 0.477944 0.073842
0.749560 0.477944 0.072441
0.781346 0.477944 0.071039
0.812979 0.477944 0.069638
0.844465 0.477944 0.068236
0.875812 0.477944 0.066834
0.907027 0.477944 0.065433
0.938114 0.477944 0.064031
0.969080 0.477944 0.062630
0.999930 0.477944 0.061228
1.000000 0.477944 0.059827
1.000000 0.477944 0.058425
1.000000 0.477944 0.057023
1.000000 0.477944 0.055622
0.039088 0.507232 0.097720
0.087141 0.507232 0.096319
0.128683 0.507232 0.094917
0.168074 0.507232 0.093516
0.206128 0.507232 0.092114
0.243218 0.507232 0.090713
0.279558 0.507232 0.089311
0.315285 0.507232 0.087909
0.350495 0.507232 0.086508
0.385260 0.507232 0.085106
0.419633 0.507232 0.083705
0.453659 0.507232 0.082303
0.487371 0.507232 0.080902
0.520798 0.507232 0.079500
0.553964 0.507232 0.078098
0.586890 0.507232 0.076697
0.619594 0.507232 0.075295
0.652090 0.507232 0.073894
0.684392 0.507232 0.072492
0.716512 0.507232 0.071091
0.748460 0.507232 0.069689
0.780246 0.507232 0.068288
0.811878 0.507232 0.066886
0.843364 0.507232 0.065484
0.874712 0.507232 0.064083
0.905926 0.507232 0.062681
0.937014 0.507232 0.061280
0.967980 0.507232 0.059878
0.998829 0.507232 0.058477
1.000000 0.507232 0.057075
1.000000 0.507232 0.055673
1.000000 0.507232 0.054272
1.000000 0.507232 0.052870
0.037988 0.536674 0.094969
0.086040 0.536674 0.093567
0.127582 0.536674 0.092166
0.166973 0.536674 0.090764
0.205027 0.536674 0.089362
0.242118 0.536674 0.087961
0.278458 0.536674 0.086559
0.314184 0.536674 0.085158
0.349395 0.536674 0.083756
0.384159 0.536674 0.082355
0.418533 0.536674 0.080953
0.452558 0.536674 0.079552
0.486270 0.536674 0.078150
0.519697 0.536674 0.076748
0.552863 0.536674 0.075347
0.585789 0.536674 0.073945
0.618493 0.536674 0.072544
0.650989 0.536674 0.071142
0.683291 0.536674 0.069741
0.715411 0.536674 0.068339
0.747359 0.536674 0.066937
0.779145 0.536674 0.065536
0.810778 0.536674 0.064134
0.842264 0.536674 0.062733
0.873611 0.536674 0.061331
0.904825 0.536674 0.059930
0.935913 0.536674 0.058528
0.966879 0.536674 0.057127
0.997729 0.536674 0.055725
1.000000 0.536674 0.054323
1.000000 0.536674 0.052922
1.000000 0.536674 0.051520
1.000000 0.536674 0.050119
0.036887 0.566264 0.092217
0.084940 0.566264 0.090816
0.126482 0.566264 0.089414
0.165872 0.566264 0.088012
0.203927 0.566264 0.086611
0.241017 0.566264 0.085209
0.277357 0.566264 0.083808
0.313084 0.566264 0.082406
0.348294 0.566264 0.081005
0.383059 0.566264 0.079603
0.417432 0.566264 0.078202
0.451457 0.566264 0.076800
0.485169 0.566264 0.075398
0.518596 0.566264 0.073997
0.551763 0.566264 0.072595
0.584689 0.566264 0.071194
0.617392 0.566264 0.069792
0.649888 0.566264 0.068391
0.682190 0.566264 0.066989
0.714310 0.566264 0.065588
0.746259 0.566264 0.064186
0.778045 0.566264 0.062784
0.809677 0.566264 0.061383
0.841163 0.566264 0.059981
0.872510 0.566264 0.058580
0.903725 0.566264 0.057178
0.934812 0.566264 0.055777
0.965778 0.566264 0.054375
0.996628 0.566264 0.052973
1.000000 0.566264 0.051572
1.000000 0.566264 0.050170
1.000000 0.566264 0.048769
1.000000 0.566264 0.047367
0.035786 0.595995 0.089466
0.083839 0.595995 0.088064
0.125381 0.595995 0.086662
0.164772 0.595995 0.085261
0.202826 0.595995 0.083859
0.239917 0.595995 0.082458
0.276256 0.595995 0.081056
0.311983 0.595995 0.079655
0.347193 0.595995 0.078253
0.381958 0.595995 0.076852
0.416331 0.595995 0.075450
0.450357 0.595995 0.074048
0.484069 0.595995 0.072647
0.517496 0.595995 0.071245
0.550662 0.595995 0.069844
0.583588 0.595995 0.068442
0.616292 0.595995 0.067041
0.648788 0.595995 0.065639
0.681090 0.595995 0.064238
0.713210 0.595995 0.062836
0.745158 0.595995 0.061434
0.776944 0.595995 0.060033
0.808576 0.595995 0.058631
0.840063 0.595995 0.057230
0.871410 0.595995 0.055828
0.902624 0.595995 0.054427
0.933712 0.595995 0.053025
0.964678 0.595995 0.051623
0.995527 0.595995 0.050222
1.000000 0.595995 0.048820
1.000000 0.595995 0.047419
1.000000 0.595995 0.046017
1.000000 0.595995 0.044616
0.034686 0.625861 0.086714
0.082739 0.625861 0.085313
0.124281 0.625861 0.083911
0.163671 0.625861 0.082509
0.201725 0.625861 0.081108
0.238816 0.625861 0.079706
0.275156 0.625861 0.078305
0.310882 0.625861 0.076903
0.346093 0.625861 0.075502
0.380857 0.625861 0.074100
0.415231 0.625861 0.072698
0.449256 0.625861 0.071297
0.482968 0.625861 0.069895
0.516395 0.625861 0.068494
0.549561 0.625861 0.067092
0.582488 0.625861 0.065691
0.615191 0.625861 0.064289
0.647687 0.625861 0.062887
0.679989 0.625861 0.061486
0.712109 0.625861 0.060084
0.744057 0.625861 0.058683
0.775843 0.625861 0.057281
0.807476 0.625861 0.055880
0.838962 0.625861 0.054478
0.870309 0.625861 0.053077
0.901524 0.625861 0.051675
0.932611 0.625861 0.050273
0.963577 0.625861 0.048872
0.994427 0.625861 0.047470
1.000000 0.625861 0.046069
1.000000 0.625861 0.044667
1.000000 0.625861 0.043266
1.000000 0.625861 0.041864
0.033585 0.655858 0.083962
0.081638 0.655858 0.082561
0.123180 0.655858 0.081159
0.162570 0.655858 0.079758
0.200625 0.655858 0.078356
0.237715 0.655858 0.076955
0.274055 0.655858 0.075553
0.309782 0.655858 0.074152
0.344992 0.655858 0.072750
0.379757 0.655858 0.071348
0.414130 0.655858 0.069947
0.448156 0.655858 0.068545
0.481867 0.655858 0.067144
0.515294 0.655858 0.065742
0.548461 0.655858 0.064341
0.581387 0.655858 0.062939
0.614090 0.655858 0.061537
0.646586 0.655858 0.060136
0.678889 0.655858 0.058734
0.711008 0.655858 0.057333
0.742957 0.655858 0.055931
0.774743 0.655858 0.054530
0.806375 0.655858 0.053128
0.837861 0.655858 0.051727
0.869208 0.655858 0.050325
0.900423 0.655858 0.048923
0.931511 0.655858 0.047522
0.962477 0.655858 0.046120
0.993326 0.655858 0.044719
1.000000 0.655858 0.043317
1.000000 0.655858 0.041916
1.000000 0.655858 0.040514
1.000000 0.655858 0.039113
0.032484 0.685980 0.081211
0.080537 0.685980 0.079809
0.122079 0.685980 0.078408
0.161470 0.685980 0.077006
0.199524 0.685980 0.075605
0.236615 0.685980 0.074203
0.272954 0.685980 0.072802
0.308681 0.685980 0.071400
0.343891 0.685980 0.069998
0.378656 0.685980 0.068597
0.413030 0.685980 0.067195
0.447055 0.685980 0.065794
0.480767 0.685980 0.064392
0.514194 0.685980 0.062991
0.547360 0.685980 0.061589
0.580286 0.685980 0.060188
0.612990 0.685980 0.058786
0.645486 0.685980 0.057384
0.677788 0.685980 0.055983
0.709908 0.685980 0.054581
0.741856 0.685980 0.053180
0.773642 0.685980 0.051778
0.805274 0.685980 0.050377
0.836761 0.685980 0.048975
0.868108 0.685980 0.047573
0.899322 0.685980 0.046172
0.930410 0.685980 0.044770
0.961376 0.685980 0.043369
0.992225 0.685980 0.041967
1.000000 0.685980 0.040566
1.000000 0.685980 0.039164
1.000000 0.685980 0.037763
1.000000 0.685980 0.036361
0.031384 0.716223 0.078459
0.079437 0.716223 0.077058
0.120979 0.716223 0.075656
0.160369 0.716223 0.074255
0.198424 0.716223 0.072853
0.235514 0.716223 0.071452
0.271854 0.716223 0.070050
0.307581 0.716223 0.068648
0.342791 0.716223 0.067247
0.377555 0.716223 0.065845
0.411929 0.716223 0.064444
0.445954 0.716223 0.063042
0.479666 0.716223 0.061641
0.513093 0.716223 0.060239
0.546260 0.716223 0.058837
0.579186 0.716223 0.057436
0.611889 0.716223 0.056034
0.644385 0.716223 0.054633
0.676687 0.716223 0.053231
0.708807 0.716223 0.051830
0.740755 0.716223 0.050428
0.772541 0.716223 0.049027
0.804174 0.716223 0.047625
0.835660 0.716223 0.046223
0.867007 0.716223 0.044822
0.898222 0.716223 0.043420
