public/luts/film-classic.cube
# KomfyEdit 3D LUT: film-classic
TITLE "film-classic"
LUT_3D_SIZE 9
DOMAIN_MIN 0.0 0.0 0.0
DOMAIN_MAX 1.0 1.0 1.0
0.015610 0.026327 0.005308
0.094924 0.025378 0.005308
0.205738 0.024053 0.005308
0.346874 0.022365 0.005308
0.506870 0.020451 0.005308
0.665970 0.018548 0.005308
0.804842 0.016887 0.005308
0.912925 0.015595 0.005308
0.989775 0.014676 0.005308
0.015610 0.105154 0.005308
0.094924 0.104205 0.005308
0.205738 0.102880 0.005308
0.346874 0.101192 0.005308
0.506870 0.099278 0.005308
0.665970 0.097375 0.005308
0.804842 0.095715 0.005308
0.912925 0.094422 0.005308
0.989775 0.093503 0.005308
0.015610 0.213483 0.005308
0.094924 0.212534 0.005308
0.205738 0.211209 0.005308
0.346874 0.209521 0.005308
0.506870 0.207607 0.005308
0.665970 0.205705 0.005308
0.804842 0.204044 0.005308
0.912925 0.202751 0.005308
0.989775 0.202447 0.005308
0.015610 0.349917 0.005308
0.094924 0.348968 0.005308
0.205738 0.347643 0.005308
0.346874 0.345955 0.005308
0.506870 0.344041 0.005308
0.665970 0.342162 0.005308
0.804842 0.342162 0.005308
0.912925 0.342162 0.005308
0.989775 0.342162 0.005308
0.015610 0.504049 0.005308
0.094924 0.503101 0.005308
0.205738 0.501775 0.005308
0.346874 0.500087 0.005308
0.506870 0.500000 0.005308
0.665970 0.500000 0.005308
0.804842 0.500000 0.005308
0.912925 0.500000 0.005308
0.989775 0.500000 0.005308
0.015610 0.658181 0.005308
0.094924 0.657838 0.005308
0.205738 0.657838 0.005308
0.346874 0.657838 0.005308
0.506870 0.657838 0.005308
0.665970 0.657838 0.005308
0.804842 0.657838 0.005308
0.912925 0.657838 0.005308
0.989775 0.657838 0.005308
0.015610 0.797553 0.005308
0.094924 0.797553 0.005308
0.205738 0.797553 0.005308
0.346874 0.797553 0.005308
0.506870 0.797553 0.005308
0.665970 0.797553 0.005308
0.804842 0.797553 0.005308
0.912925 0.797553 0.005308
0.989775 0.797553 0.005308
0.015610 0.908487 0.005308
0.094924 0.908487 0.005308
0.205738 0.908487 0.005308
0.346874 0.908487 0.005308
0.506870 0.908487 0.005308
0.665970 0.908487 0.005308
0.804842 0.908487 0.005308
0.912925 0.908487 0.005308
0.989775 0.908487 0.005308
0.015610 0.989209 0.005308
0.094924 0.989209 0.005308
0.205738 0.989209 0.005308
0.346874 0.989209 0.005308
0.506870 0.989209 0.005308
0.665970 0.989209 0.005308
0.804842 0.989209 0.005308
0.912925 0.989209 0.005308
0.989775 0.989209 0.005308
0.015610 0.025987 0.079825
0.094924 0.025038 0.079825
0.205738 0.023713 0.079825
0.346874 0.022025 0.079825
0.506870 0.020111 0.079825
0.665970 0.018209 0.079825
0.804842 0.016548 0.079825
0.912925 0.015255 0.079825
0.989775 0.014336 0.079825
0.015610 0.104814 0.079825
0.094924 0.103865 0.079825
0.205738 0.102540 0.079825
0.346874 0.100852 0.079825
0.506870 0.098938 0.079825
0.665970 0.097036 0.079825
0.804842 0.095375 0.079825
0.912925 0.094082 0.079825
0.989775 0.093163 0.079825
0.015610 0.213143 0.079825
0.094924 0.212195 0.079825
0.205738 0.210869 0.079825
0.346874 0.209181 0.079825
0.506870 0.207268 0.079825
0.665970 0.205365 0.079825
0.804842 0.203704 0.079825
0.912925 0.202447 0.079825
0.989775 0.202447 0.079825
0.015610 0.349577 0.079825
0.094924 0.348629 0.079825
0.205738 0.347303 0.079825
0.346874 0.345615 0.079825
0.506870 0.343702 0.079825
0.665970 0.342162 0.079825
0.804842 0.342162 0.079825
0.912925 0.342162 0.079825
0.989775 0.342162 0.079825
0.015610 0.503709 0.079825
0.094924 0.502761 0.079825
0.205738 0.501435 0.079825
0.346874 0.500000 0.079825
0.506870 0.500000 0.079825
0.665970 0.500000 0.079825
0.804842 0.500000 0.079825
0.912925 0.500000 0.079825
0.989775 0.500000 0.079825
0.015610 0.657841 0.079825
0.094924 0.657838 0.079825
0.205738 0.657838 0.079825
0.346874 0.657838 0.079825
0.506870 0.657838 0.079825
0.665970 0.657838 0.079825
0.804842 0.657838 0.079825
0.912925 0.657838 0.079825
0.989775 0.657838 0.079825
0.015610 0.797553 0.079825
0.094924 0.797553 0.079825
0.205738 0.797553 0.079825
0.346874 0.797553 0.079825
0.506870 0.797553 0.079825
0.665970 0.797553 0.079825
0.804842 0.797553 0.079825
0.912925 0.797553 0.079825
0.989775 0.797553 0.079825
0.015610 0.908487 0.079825
0.094924 0.908487 0.079825
0.205738 0.908487 0.079825
0.346874 0.908487 0.079825
0.506870 0.908487 0.079825
0.665970 0.908487 0.079825
0.804842 0.908487 0.079825
0.912925 0.908487 0.079825
0.989775 0.908487 0.079825
0.015610 0.989209 0.079825
0.094924 0.989209 0.079825
0.205738 0.989209 0.079825
0.346874 0.989209 0.079825
0.506870 0.989209 0.079825
0.665970 0.989209 0.079825
0.804842 0.989209 0.079825
0.912925 0.989209 0.079825
0.989775 0.989209 0.079825
0.015610 0.025522 0.181816
0.094924 0.024573 0.181816
0.205738 0.023248 0.181816
0.346874 0.021560 0.181816
0.506870 0.019646 0.181816
0.665970 0.017743 0.181816
0.804842 0.016083 0.181816
0.912925 0.014790 0.181816
0.989775 0.013871 0.181816
0.015610 0.104349 0.181816
0.094924 0.103400 0.181816
0.205738 0.102075 0.181816
0.346874 0.100387 0.181816
0.506870 0.098473 0.181816
0.665970 0.096571 0.181816
0.804842 0.094910 0.181816
0.912925 0.093617 0.181816
0.989775 0.092698 0.181816
0.015610 0.212678 0.181816
0.094924 0.211729 0.181816
0.205738 0.210404 0.181816
0.346874 0.208716 0.181816
0.506870 0.206803 0.181816
0.665970 0.204900 0.181816
0.804842 0.203239 0.181816
0.912925 0.202447 0.181816
0.989775 0.202447 0.181816
0.015610 0.349112 0.181816
0.094924 0.348163 0.181816
0.205738 0.346838 0.181816
0.346874 0.345150 0.181816
0.506870 0.343237 0.181816
0.665970 0.342162 0.181816
0.804842 0.342162 0.181816
0.912925 0.342162 0.181816
0.989775 0.342162 0.181816
0.015610 0.503244 0.181816
0.094924 0.502296 0.181816
0.205738 0.500970 0.181816
0.346874 0.500000 0.181816
0.506870 0.500000 0.181816
0.665970 0.500000 0.181816
0.804842 0.500000 0.181816
0.912925 0.500000 0.181816
0.989775 0.500000 0.181816
0.015610 0.657838 0.181816
0.094924 0.657838 0.181816
0.205738 0.657838 0.181816
0.346874 0.657838 0.181816
0.506870 0.657838 0.181816
0.665970 0.657838 0.181816
0.804842 0.657838 0.181816
0.912925 0.657838 0.181816
0.989775 0.657838 0.181816
0.015610 0.797553 0.181816
0.094924 0.797553 0.181816
0.205738 0.797553 0.181816
0.346874 0.797553 0.181816
0.506870 0.797553 0.181816
0.665970 0.797553 0.181816
0.804842 0.797553 0.181816
0.912925 0.797553 0.181816
0.989775 0.797553 0.181816
0.015610 0.908487 0.181816
0.094924 0.908487 0.181816
0.205738 0.908487 0.181816
0.346874 0.908487 0.181816
0.506870 0.908487 0.181816
0.665970 0.908487 0.181816
0.804842 0.908487 0.181816
0.912925 0.908487 0.181816
0.989775 0.908487 0.181816
0.015610 0.989209 0.181816
0.094924 0.989209 0.181816
0.205738 0.989209 0.181816
0.346874 0.989209 0.181816
0.506870 0.989209 0.181816
0.665970 0.989209 0.181816
0.804842 0.989209 0.181816
0.912925 0.989209 0.181816
0.989775 0.989209 0.181816
0.015610 0.024932 0.311062
0.094924 0.023984 0.311062
0.205738 0.022658 0.311062
0.346874 0.020970 0.311062
0.506870 0.019057 0.311062
0.665970 0.017154 0.311062
0.804842 0.015493 0.311062
0.912925 0.014201 0.311062
0.989775 0.013281 0.311062
0.015610 0.103760 0.311062
0.094924 0.102811 0.311062
0.205738 0.101486 0.311062
0.346874 0.099798 0.311062
0.506870 0.097884 0.311062
0.665970 0.095981 0.311062
0.804842 0.094320 0.311062
0.912925 0.093028 0.311062
0.989775 0.092109 0.311062
0.015610 0.212089 0.311062
0.094924 0.211140 0.311062
0.205738 0.209815 0.311062
0.346874 0.208127 0.311062
0.506870 0.206213 0.311062
0.665970 0.204310 0.311062
0.804842 0.202650 0.311062
0.912925 0.202447 0.311062
0.989775 0.202447 0.311062
0.015610 0.348523 0.311062
0.094924 0.347574 0.311062
0.205738 0.346249 0.311062
0.346874 0.344561 0.311062
0.506870 0.342647 0.311062
0.665970 0.342162 0.311062
0.804842 0.342162 0.311062
0.912925 0.342162 0.311062
0.989775 0.342162 0.311062
0.015610 0.502655 0.311062
0.094924 0.501706 0.311062
0.205738 0.500381 0.311062
0.346874 0.500000 0.311062
0.506870 0.500000 0.311062
0.665970 0.500000 0.311062
0.804842 0.500000 0.311062
0.912925 0.500000 0.311062
0.989775 0.500000 0.311062
0.015610 0.657838 0.311062
0.094924 0.657838 0.311062
0.205738 0.657838 0.311062
0.346874 0.657838 0.311062
0.506870 0.657838 0.311062
0.665970 0.657838 0.311062
0.804842 0.657838 0.311062
0.912925 0.657838 0.311062
0.989775 0.657838 0.311062
0.015610 0.797553 0.311062
0.094924 0.797553 0.311062
0.205738 0.797553 0.311062
0.346874 0.797553 0.311062
0.506870 0.797553 0.311062
0.665970 0.797553 0.311062
0.804842 0.797553 0.311062
0.912925 0.797553 0.311062
0.989775 0.797553 0.311062
0.015610 0.908487 0.311062
0.094924 0.908487 0.311062
0.205738 0.908487 0.311062
0.346874 0.908487 0.311062
0.506870 0.908487 0.311062
0.665970 0.908487 0.311062
0.804842 0.908487 0.311062
0.912925 0.908487 0.311062
0.989775 0.908487 0.311062
0.015610 0.989209 0.311062
0.094924 0.989209 0.311062
0.205738 0.989209 0.311062
0.346874 0.989209 0.311062
0.506870 0.989209 0.311062
0.665970 0.989209 0.311062
0.804842 0.989209 0.311062
0.912925 0.989209 0.311062
0.989775 0.989209 0.311062
0.015610 0.024254 0.459762
0.094924 0.023306 0.459762
0.205738 0.021980 0.459762
0.346874 0.020292 0.459762
0.506870 0.018379 0.459762
0.665970 0.016476 0.459762
0.804842 0.014815 0.459762
0.912925 0.013522 0.459762
0.989775 0.012603 0.459762
0.015610 0.103081 0.459762
0.094924 0.102133 0.459762
0.205738 0.100808 0.459762
0.346874 0.099120 0.459762
0.506870 0.097206 0.459762
0.665970 0.095303 0.459762
0.804842 0.093642 0.459762
0.912925 0.092350 0.459762
0.989775 0.091513 0.459762
0.015610 0.211411 0.459762
0.094924 0.210462 0.459762
0.205738 0.209137 0.459762
0.346874 0.207449 0.459762
0.506870 0.205535 0.459762
0.665970 0.203632 0.459762
0.804842 0.202447 0.459762
0.912925 0.202447 0.459762
0.989775 0.202447 0.459762
0.015610 0.347845 0.459762
0.094924 0.346896 0.459762
0.205738 0.345571 0.459762
0.346874 0.343883 0.459762
0.506870 0.342162 0.459762
0.665970 0.342162 0.459762
0.804842 0.342162 0.459762
0.912925 0.342162 0.459762
0.989775 0.342162 0.459762
0.015610 0.501977 0.459762
0.094924 0.501028 0.459762
0.205738 0.500000 0.459762
0.346874 0.500000 0.459762
0.506870 0.500000 0.459762
0.665970 0.500000 0.459762
0.804842 0.500000 0.459762
0.912925 0.500000 0.459762
0.989775 0.500000 0.459762
0.015610 0.657838 0.459762
0.094924 0.657838 0.459762
0.205738 0.657838 0.459762
0.346874 0.657838 0.459762
0.506870 0.657838 0.459762
0.665970 0.657838 0.459762
0.804842 0.657838 0.459762
0.912925 0.657838 0.459762
0.989775 0.657838 0.459762
0.015610 0.797553 0.459762
0.094924 0.797553 0.459762
0.205738 0.797553 0.459762
0.346874 0.797553 0.459762
0.506870 0.797553 0.459762
0.665970 0.797553 0.459762
0.804842 0.797553 0.459762
0.912925 0.797553 0.459762
0.989775 0.797553 0.459762
0.015610 0.908487 0.459762
0.094924 0.908487 0.459762
0.205738 0.908487 0.459762
0.346874 0.908487 0.459762
0.506870 0.908487 0.459762
0.665970 0.908487 0.459762
0.804842 0.908487 0.459762
0.912925 0.908487 0.459762
0.989775 0.908487 0.459762
0.015610 0.989209 0.459762
0.094924 0.989209 0.459762
0.205738 0.989209 0.459762
0.346874 0.989209 0.459762
0.506870 0.989209 0.459762
0.665970 0.989209 0.459762
0.804842 0.989209 0.459762
0.912925 0.989209 0.459762
0.989775 0.989209 0.459762
0.015610 0.023556 0.612962
0.094924 0.022607 0.612962
0.205738 0.021282 0.612962
0.346874 0.019594 0.612962
0.506870 0.017680 0.612962
0.665970 0.015777 0.612962
0.804842 0.014117 0.612962
0.912925 0.012824 0.612962
0.989775 0.011905 0.612962
0.015610 0.102383 0.612962
0.094924 0.101434 0.612962
0.205738 0.100109 0.612962
0.346874 0.098421 0.612962
0.506870 0.096507 0.612962
0.665970 0.094605 0.612962
0.804842 0.092944 0.612962
0.912925 0.091651 0.612962
0.989775 0.091513 0.612962
0.015610 0.210712 0.612962
0.094924 0.209763 0.612962
0.205738 0.208438 0.612962
0.346874 0.206750 0.612962
0.506870 0.204837 0.612962
0.665970 0.202934 0.612962
0.804842 0.202447 0.612962
0.912925 0.202447 0.612962
0.989775 0.202447 0.612962
0.015610 0.347146 0.612962
0.094924 0.346197 0.612962
0.205738 0.344872 0.612962
0.346874 0.343184 0.612962
0.506870 0.342162 0.612962
0.665970 0.342162 0.612962
0.804842 0.342162 0.612962
0.912925 0.342162 0.612962
0.989775 0.342162 0.612962
0.015610 0.501278 0.612962
0.094924 0.500330 0.612962
0.205738 0.500000 0.612962
0.346874 0.500000 0.612962
0.506870 0.500000 0.612962
0.665970 0.500000 0.612962
0.804842 0.500000 0.612962
0.912925 0.500000 0.612962
0.989775 0.500000 0.612962
0.015610 0.657838 0.612962
0.094924 0.657838 0.612962
0.205738 0.657838 0.612962
0.346874 0.657838 0.612962
0.506870 0.657838 0.612962
0.665970 0.657838 0.612962
0.804842 0.657838 0.612962
0.912925 0.657838 0.612962
0.989775 0.657838 0.612962
0.015610 0.797553 0.612962
0.094924 0.797553 0.612962
0.205738 0.797553 0.612962
0.346874 0.797553 0.612962
0.506870 0.797553 0.612962
0.665970 0.797553 0.612962
0.804842 0.797553 0.612962
0.912925 0.797553 0.612962
0.989775 0.797553 0.612962
0.015610 0.908487 0.612962
0.094924 0.908487 0.612962
0.205738 0.908487 0.612962
0.346874 0.908487 0.612962
0.506870 0.908487 0.612962
0.665970 0.908487 0.612962
0.804842 0.908487 0.612962
0.912925 0.908487 0.612962
0.989775 0.908487 0.612962
0.015610 0.989209 0.612962
0.094924 0.989209 0.612962
0.205738 0.989209 0.612962
0.346874 0.989209 0.612962
0.506870 0.989209 0.612962
0.665970 0.989209 0.612962
0.804842 0.989209 0.612962
0.912925 0.989209 0.612962
0.989775 0.989209 0.612962
0.015610 0.022913 0.753855
0.094924 0.021965 0.753855
0.205738 0.020639 0.753855
0.346874 0.018951 0.753855
0.506870 0.017038 0.753855
0.665970 0.015135 0.753855
0.804842 0.013474 0.753855
0.912925 0.012181 0.753855
0.989775 0.011262 0.753855
0.015610 0.101740 0.753855
0.094924 0.100792 0.753855
0.205738 0.099466 0.753855
0.346874 0.097778 0.753855
0.506870 0.095865 0.753855
0.665970 0.093962 0.753855
0.804842 0.092301 0.753855
0.912925 0.091513 0.753855
0.989775 0.091513 0.753855
0.015610 0.210070 0.753855
0.094924 0.209121 0.753855
0.205738 0.207796 0.753855
0.346874 0.206108 0.753855
0.506870 0.204194 0.753855
0.665970 0.202447 0.753855
0.804842 0.202447 0.753855
0.912925 0.202447 0.753855
0.989775 0.202447 0.753855
0.015610 0.346504 0.753855
0.094924 0.345555 0.753855
0.205738 0.344230 0.753855
0.346874 0.342542 0.753855
0.506870 0.342162 0.753855
0.665970 0.342162 0.753855
0.804842 0.342162 0.753855
0.912925 0.342162 0.753855
0.989775 0.342162 0.753855
0.015610 0.500636 0.753855
0.094924 0.500000 0.753855
0.205738 0.500000 0.753855
0.346874 0.500000 0.753855
0.506870 0.500000 0.753855
0.665970 0.500000 0.753855
0.804842 0.500000 0.753855
0.912925 0.500000 0.753855
0.989775 0.500000 0.753855
0.015610 0.657838 0.753855
0.094924 0.657838 0.753855
0.205738 0.657838 0.753855
0.346874 0.657838 0.753855
0.506870 0.657838 0.753855
0.665970 0.657838 0.753855
0.804842 0.657838 0.753855
0.912925 0.657838 0.753855
0.989775 0.657838 0.753855
0.015610 0.797553 0.753855
0.094924 0.797553 0.753855
0.205738 0.797553 0.753855
0.346874 0.797553 0.753855
0.506870 0.797553 0.753855
0.665970 0.797553 0.753855
0.804842 0.797553 0.753855
0.912925 0.797553 0.753855
0.989775 0.797553 0.753855
0.015610 0.908487 0.753855
0.094924 0.908487 0.753855
0.205738 0.908487 0.753855
0.346874 0.908487 0.753855
0.506870 0.908487 0.753855
0.665970 0.908487 0.753855
0.804842 0.908487 0.753855
0.912925 0.908487 0.753855
0.989775 0.908487 0.753855
0.015610 0.989209 0.753855
0.094924 0.989209 0.753855
0.205738 0.989209 0.753855
0.346874 0.989209 0.753855
0.506870 0.989209 0.753855
0.665970 0.989209 0.753855
0.804842 0.989209 0.753855
0.912925 0.989209 0.753855
0.989775 0.989209 0.753855
0.015610 0.022381 0.870527
0.094924 0.021433 0.870527
0.205738 0.020107 0.870527
0.346874 0.018419 0.870527
0.506870 0.016506 0.870527
0.665970 0.014603 0.870527
0.804842 0.012942 0.870527
0.912925 0.011649 0.870527
0.989775 0.010791 0.870527
0.015610 0.101208 0.870527
0.094924 0.100260 0.870527
0.205738 0.098934 0.870527
0.346874 0.097246 0.870527
0.506870 0.095333 0.870527
0.665970 0.093430 0.870527
0.804842 0.091769 0.870527
0.912925 0.091513 0.870527
0.989775 0.091513 0.870527
0.015610 0.209538 0.870527
0.094924 0.208589 0.870527
0.205738 0.207264 0.870527
0.346874 0.205576 0.870527
0.506870 0.203662 0.870527
0.665970 0.202447 0.870527
0.804842 0.202447 0.870527
0.912925 0.202447 0.870527
0.989775 0.202447 0.870527
0.015610 0.345972 0.870527
0.094924 0.345023 0.870527
0.205738 0.343698 0.870527
0.346874 0.342162 0.870527
0.506870 0.342162 0.870527
0.665970 0.342162 0.870527
0.804842 0.342162 0.870527
0.912925 0.342162 0.870527
0.989775 0.342162 0.870527
0.015610 0.500104 0.870527
0.094924 0.500000 0.870527
0.205738 0.500000 0.870527
0.346874 0.500000 0.870527
0.506870 0.500000 0.870527
0.665970 0.500000 0.870527
0.804842 0.500000 0.870527
0.912925 0.500000 0.870527
0.989775 0.500000 0.870527
0.015610 0.657838 0.870527
0.094924 0.657838 0.870527
0.205738 0.657838 0.870527
0.346874 0.657838 0.870527
0.506870 0.657838 0.870527
0.665970 0.657838 0.870527
0.804842 0.657838 0.870527
0.912925 0.657838 0.870527
0.989775 0.657838 0.870527
0.015610 0.797553 0.870527
0.094924 0.797553 0.870527
0.205738 0.797553 0.870527
0.346874 0.797553 0.870527
0.506870 0.797553 0.870527
0.665970 0.797553 0.870527
0.804842 0.797553 0.870527
0.912925 0.797553 0.870527
0.989775 0.797553 0.870527
0.015610 0.908487 0.870527
0.094924 0.908487 0.870527
0.205738 0.908487 0.870527
0.346874 0.908487 0.870527
0.506870 0.908487 0.870527
0.665970 0.908487 0.870527
0.804842 0.908487 0.870527
0.912925 0.908487 0.870527
0.989775 0.908487 0.870527
0.015610 0.989209 0.870527
0.094924 0.989209 0.870527
0.205738 0.989209 0.870527
0.346874 0.989209 0.870527
0.506870 0.989209 0.870527
0.665970 0.989209 0.870527
0.804842 0.989209 0.870527
0.912925 0.989209 0.870527
0.989775 0.989209 0.870527
0.015610 0.021978 0.959037
0.094924 0.021029 0.959037
0.205738 0.019704 0.959037
0.346874 0.018016 0.959037
0.506870 0.016102 0.959037
0.665970 0.014199 0.959037
0.804842 0.012538 0.959037
0.912925 0.011246 0.959037
0.989775 0.010791 0.959037
0.015610 0.100805 0.959037
0.094924 0.099856 0.959037
0.205738 0.098531 0.959037
0.346874 0.096843 0.959037
0.506870 0.094929 0.959037
0.665970 0.093026 0.959037
0.804842 0.091513 0.959037
0.912925 0.091513 0.959037
0.989775 0.091513 0.959037
0.015610 0.209134 0.959037
0.094924 0.208185 0.959037
0.205738 0.206860 0.959037
0.346874 0.205172 0.959037
0.506870 0.203258 0.959037
0.665970 0.202447 0.959037
0.804842 0.202447 0.959037
0.912925 0.202447 0.959037
0.989775 0.202447 0.959037
0.015610 0.345568 0.959037
0.094924 0.344619 0.959037
0.205738 0.343294 0.959037
0.346874 0.342162 0.959037
0.506870 0.342162 0.959037
0.665970 0.342162 0.959037
0.804842 0.342162 0.959037
0.912925 0.342162 0.959037
0.989775 0.342162 0.959037
0.015610 0.500000 0.959037
0.094924 0.500000 0.959037
0.205738 0.500000 0.959037
0.346874 0.500000 0.959037
0.506870 0.500000 0.959037
0.665970 0.500000 0.959037
0.804842 0.500000 0.959037
0.912925 0.500000 0.959037
0.989775 0.500000 0.959037
0.015610 0.657838 0.959037
0.094924 0.657838 0.959037
0.205738 0.657838 0.959037
0.346874 0.657838 0.959037
0.506870 0.657838 0.959037
0.665970 0.657838 0.959037
0.804842 0.657838 0.959037
0.912925 0.657838 0.959037
0.989775 0.657838 0.959037
0.015610 0.797553 0.959037
0.094924 0.797553 0.959037
0.205738 0.797553 0.959037
0.346874 0.797553 0.959037
0.506870 0.797553 0.959037
0.665970 0.797553 0.959037
0.804842 0.797553 0.959037
0.912925 0.797553 0.959037
0.989775 0.797553 0.959037
0.015610 0.908487 0.959037
0.094924 0.908487 0.959037
0.205738 0.908487 0.959037
0.346874 0.908487 0.959037
0.506870 0.908487 0.959037
0.665970 0.908487 0.959037
0.804842 0.908487 0.959037
0.912925 0.908487 0.959037
0.989775 0.908487 0.959037
0.015610 0.989209 0.959037
0.094924 0.989209 0.959037
0.205738 0.989209 0.959037
0.346874 0.989209 0.959037
0.506870 0.989209 0.959037
0.665970 0.989209 0.959037
0.804842 0.989209 0.959037
0.912925 0.989209 0.959037
0.989775 0.989209 0.959037
