public/luts/film-classic.cube
# KomfyEdit 3D LUT: film-classic
TITLE "film-classic"
LUT_3D_SIZE 33
DOMAIN_MIN 0.0 0.0 0.0
DOMAIN_MAX 1.0 1.0 1.0
0.015610 0.026327 0.005308
0.032712 0.026122 0.005308
0.051569 0.025897 0.005308
0.072278 0.025649 0.005308
0.094924 0.025378 0.005308
0.119570 0.025083 0.005308
0.146255 0.024764 0.005308
0.174987 0.024421 0.005308
0.205738 0.024053 0.005308
0.238438 0.023662 0.005308
0.272975 0.023249 0.005308
0.309188 0.022815 0.005308
0.346874 0.022365 0.005308
0.385785 0.021899 0.005308
0.425635 0.021423 0.005308
0.466109 0.020939 0.005308
0.506870 0.020451 0.005308
0.547573 0.019964 0.005308
0.587874 0.019482 0.005308
0.627441 0.019009 0.005308
0.665970 0.018548 0.005308
0.703185 0.018103 0.005308
0.738855 0.017677 0.005308
0.772788 0.017271 0.005308
0.804842 0.016887 0.005308
0.834919 0.016528 0.005308
0.862962 0.016192 0.005308
0.888958 0.015881 0.005308
0.912925 0.015595 0.005308
0.934910 0.015332 0.005308
0.954985 0.015092 0.005308
0.973239 0.014873 0.005308
0.989775 0.014676 0.005308
0.015610 0.043453 0.005308
0.032712 0.043248 0.005308
0.051569 0.043023 0.005308
0.072278 0.042775 0.005308
0.094924 0.042504 0.005308
0.119570 0.042209 0.005308
0.146255 0.041890 0.005308
0.174987 0.041547 0.005308
0.205738 0.041179 0.005308
0.238438 0.040788 0.005308
0.272975 0.040375 0.005308
0.309188 0.039942 0.005308
0.346874 0.039491 0.005308
0.385785 0.039025 0.005308
0.425635 0.038549 0.005308
0.466109 0.038065 0.005308
0.506870 0.037577 0.005308
0.547573 0.037090 0.005308
0.587874 0.036608 0.005308
0.627441 0.036135 0.005308
0.665970 0.035674 0.005308
0.703185 0.035229 0.005308
0.738855 0.034803 0.005308
0.772788 0.034397 0.005308
0.804842 0.034014 0.005308
0.834919 0.033654 0.005308
0.862962 0.033318 0.005308
0.888958 0.033008 0.005308
0.912925 0.032721 0.005308
0.934910 0.032458 0.005308
0.954985 0.032218 0.005308
0.973239 0.032000 0.005308
0.989775 0.031802 0.005308
0.015610 0.062246 0.005308
0.032712 0.062041 0.005308
0.051569 0.061815 0.005308
0.072278 0.061568 0.005308
0.094924 0.061297 0.005308
0.119570 0.061002 0.005308
0.146255 0.060683 0.005308
0.174987 0.060339 0.005308
0.205738 0.059972 0.005308
0.238438 0.059581 0.005308
0.272975 0.059167 0.005308
0.309188 0.058734 0.005308
0.346874 0.058284 0.005308
0.385785 0.057818 0.005308
0.425635 0.057342 0.005308
0.466109 0.056858 0.005308
0.506870 0.056370 0.005308
0.547573 0.055883 0.005308
0.587874 0.055401 0.005308
0.627441 0.054928 0.005308
0.665970 0.054467 0.005308
0.703185 0.054022 0.005308
0.738855 0.053596 0.005308
0.772788 0.053190 0.005308
0.804842 0.052806 0.005308
0.834919 0.052447 0.005308
0.862962 0.052111 0.005308
0.888958 0.051800 0.005308
0.912925 0.051514 0.005308
0.934910 0.051251 0.005308
0.954985 0.051011 0.005308
0.973239 0.050792 0.005308
0.989775 0.050595 0.005308
0.015610 0.082789 0.005308
0.032712 0.082585 0.005308
0.051569 0.082359 0.005308
0.072278 0.082111 0.005308
0.094924 0.081841 0.005308
0.119570 0.081546 0.005308
0.146255 0.081227 0.005308
0.174987 0.080883 0.005308
0.205738 0.080515 0.005308
0.238438 0.080124 0.005308
0.272975 0.079711 0.005308
0.309188 0.079278 0.005308
0.346874 0.078827 0.005308
0.385785 0.078362 0.005308
0.425635 0.077885 0.005308
0.466109 0.077401 0.005308
0.506870 0.076914 0.005308
0.547573 0.076427 0.005308
0.587874 0.075945 0.005308
0.627441 0.075472 0.005308
0.665970 0.075011 0.005308
0.703185 0.074566 0.005308
0.738855 0.074139 0.005308
0.772788 0.073733 0.005308
0.804842 0.073350 0.005308
0.834919 0.072990 0.005308
0.862962 0.072655 0.005308
0.888958 0.072344 0.005308
0.912925 0.072057 0.005308
0.934910 0.071794 0.005308
0.954985 0.071554 0.005308
0.973239 0.071336 0.005308
0.989775 0.071138 0.005308
0.015610 0.105154 0.005308
0.032712 0.104949 0.005308
0.051569 0.104724 0.005308
0.072278 0.104476 0.005308
0.094924 0.104205 0.005308
0.119570 0.103910 0.005308
0.146255 0.103591 0.005308
0.174987 0.103248 0.005308
0.205738 0.102880 0.005308
0.238438 0.102489 0.005308
0.272975 0.102076 0.005308
0.309188 0.101643 0.005308
0.346874 0.101192 0.005308
0.385785 0.100726 0.005308
0.425635 0.100250 0.005308
0.466109 0.099766 0.005308
0.506870 0.099278 0.005308
0.547573 0.098791 0.005308
0.587874 0.098309 0.005308
0.627441 0.097836 0.005308
0.665970 0.097375 0.005308
0.703185 0.096930 0.005308
0.738855 0.096504 0.005308
0.772788 0.096098 0.005308
0.804842 0.095715 0.005308
0.834919 0.095355 0.005308
0.862962 0.095019 0.005308
0.888958 0.094709 0.005308
0.912925 0.094422 0.005308
0.934910 0.094159 0.005308
0.954985 0.093919 0.005308
0.973239 0.093701 0.005308
0.989775 0.093503 0.005308
0.015610 0.129391 0.005308
0.032712 0.129187 0.005308
0.051569 0.128961 0.005308
0.072278 0.128713 0.005308
0.094924 0.128443 0.005308
0.119570 0.128148 0.005308
0.146255 0.127829 0.005308
0.174987 0.127485 0.005308
0.205738 0.127117 0.005308
0.238438 0.126726 0.005308
0.272975 0.126313 0.005308
0.309188 0.125880 0.005308
0.346874 0.125429 0.005308
0.385785 0.124964 0.005308
0.425635 0.124487 0.005308
0.466109 0.124003 0.005308
0.506870 0.123516 0.005308
0.547573 0.123029 0.005308
0.587874 0.122547 0.005308
0.627441 0.122074 0.005308
0.665970 0.121613 0.005308
0.703185 0.121168 0.005308
0.738855 0.120741 0.005308
0.772788 0.120335 0.005308
0.804842 0.119952 0.005308
0.834919 0.119592 0.005308
0.862962 0.119257 0.005308
0.888958 0.118946 0.005308
0.912925 0.118659 0.005308
0.934910 0.118396 0.005308
0.954985 0.118156 0.005308
0.973239 0.117938 0.005308
0.989775 0.117740 0.005308
0.015610 0.155530 0.005308
0.032712 0.155325 0.005308
0.051569 0.155100 0.005308
0.072278 0.154852 0.005308
0.094924 0.154581 0.005308
0.119570 0.154286 0.005308
0.146255 0.153967 0.005308
0.174987 0.153624 0.005308
0.205738 0.153256 0.005308
0.238438 0.152865 0.005308
0.272975 0.152452 0.005308
0.309188 0.152019 0.005308
0.346874 0.151568 0.005308
0.385785 0.151103 0.005308
0.425635 0.150626 0.005308
0.466109 0.150142 0.005308
0.506870 0.149654 0.005308
0.547573 0.149168 0.005308
0.587874 0.148686 0.005308
0.627441 0.148212 0.005308
0.665970 0.147752 0.005308
0.703185 0.147306 0.005308
0.738855 0.146880 0.005308
0.772788 0.146474 0.005308
0.804842 0.146091 0.005308
0.834919 0.145731 0.005308
0.862962 0.145396 0.005308
0.888958 0.145085 0.005308
0.912925 0.144798 0.005308
0.934910 0.144535 0.005308
0.954985 0.144295 0.005308
0.973239 0.144077 0.005308
0.989775 0.143879 0.005308
0.015610 0.183571 0.005308
0.032712 0.183366 0.005308
0.051569 0.183141 0.005308
0.072278 0.182893 0.005308
0.094924 0.182622 0.005308
0.119570 0.182328 0.005308
0.146255 0.182008 0.005308
0.174987 0.181665 0.005308
0.205738 0.181297 0.005308
0.238438 0.180906 0.005308
0.272975 0.180493 0.005308
0.309188 0.180060 0.005308
0.346874 0.179609 0.005308
0.385785 0.179144 0.005308
0.425635 0.178667 0.005308
0.466109 0.178183 0.005308
0.506870 0.177695 0.005308
0.547573 0.177209 0.005308
0.587874 0.176727 0.005308
0.627441 0.176253 0.005308
0.665970 0.175793 0.005308
0.703185 0.175347 0.005308
0.738855 0.174921 0.005308
0.772788 0.174515 0.005308
0.804842 0.174132 0.005308
0.834919 0.173772 0.005308
0.862962 0.173437 0.005308
0.888958 0.173126 0.005308
0.912925 0.172839 0.005308
0.934910 0.172576 0.005308
0.954985 0.172336 0.005308
0.973239 0.172118 0.005308
0.989775 0.171920 0.005308
0.015610 0.213483 0.005308
0.032712 0.213278 0.005308
0.051569 0.213053 0.005308
0.072278 0.212805 0.005308
0.094924 0.212534 0.005308
0.119570 0.212240 0.005308
0.146255 0.211920 0.005308
0.174987 0.211577 0.005308
0.205738 0.211209 0.005308
0.238438 0.210818 0.005308
0.272975 0.210405 0.005308
0.309188 0.209972 0.005308
0.346874 0.209521 0.005308
0.385785 0.209056 0.005308
0.425635 0.208579 0.005308
0.466109 0.208095 0.005308
0.506870 0.207607 0.005308
0.547573 0.207121 0.005308
0.587874 0.206639 0.005308
0.627441 0.206165 0.005308
0.665970 0.205705 0.005308
0.703185 0.205260 0.005308
0.738855 0.204833 0.005308
0.772788 0.204427 0.005308
0.804842 0.204044 0.005308
0.834919 0.203684 0.005308
0.862962 0.203349 0.005308
0.888958 0.203038 0.005308
0.912925 0.202751 0.005308
0.934910 0.202488 0.005308
0.954985 0.202447 0.005308
0.973239 0.202447 0.005308
0.989775 0.202447 0.005308
0.015610 0.245199 0.005308
0.032712 0.244995 0.005308
0.051569 0.244769 0.005308
0.072278 0.244521 0.005308
0.094924 0.244250 0.005308
0.119570 0.243956 0.005308
0.146255 0.243637 0.005308
0.174987 0.243293 0.005308
0.205738 0.242925 0.005308
0.238438 0.242534 0.005308
0.272975 0.242121 0.005308
0.309188 0.241688 0.005308
0.346874 0.241237 0.005308
0.385785 0.240772 0.005308
0.425635 0.240295 0.005308
0.466109 0.239811 0.005308
0.506870 0.239324 0.005308
0.547573 0.238837 0.005308
0.587874 0.238355 0.005308
0.627441 0.237882 0.005308
0.665970 0.237421 0.005308
0.703185 0.236976 0.005308
0.738855 0.236549 0.005308
0.772788 0.236143 0.005308
0.804842 0.235760 0.005308
0.834919 0.235400 0.005308
0.862962 0.235065 0.005308
0.888958 0.234926 0.005308
0.912925 0.234926 0.005308
0.934910 0.234926 0.005308
0.954985 0.234926 0.005308
0.973239 0.234926 0.005308
0.989775 0.234926 0.005308
0.015610 0.278614 0.005308
0.032712 0.278409 0.005308
0.051569 0.278184 0.005308
0.072278 0.277936 0.005308
0.094924 0.277665 0.005308
0.119570 0.277370 0.005308
0.146255 0.277051 0.005308
0.174987 0.276707 0.005308
0.205738 0.276340 0.005308
0.238438 0.275949 0.005308
0.272975 0.275536 0.005308
0.309188 0.275102 0.005308
0.346874 0.274652 0.005308
0.385785 0.274186 0.005308
0.425635 0.273710 0.005308
0.466109 0.273226 0.005308
0.506870 0.272738 0.005308
0.547573 0.272251 0.005308
0.587874 0.271769 0.005308
0.627441 0.271296 0.005308
0.665970 0.270835 0.005308
0.703185 0.270390 0.005308
0.738855 0.269964 0.005308
0.772788 0.269558 0.005308
0.804842 0.269174 0.005308
0.834919 0.269144 0.005308
0.862962 0.269144 0.005308
0.888958 0.269144 0.005308
0.912925 0.269144 0.005308
0.934910 0.269144 0.005308
0.954985 0.269144 0.005308
0.973239 0.269144 0.005308
0.989775 0.269144 0.005308
0.015610 0.313581 0.005308
0.032712 0.313377 0.005308
0.051569 0.313151 0.005308
0.072278 0.312903 0.005308
0.094924 0.312633 0.005308
0.119570 0.312338 0.005308
0.146255 0.312019 0.005308
0.174987 0.311675 0.005308
0.205738 0.311307 0.005308
0.238438 0.310916 0.005308
0.272975 0.310503 0.005308
0.309188 0.310070 0.005308
0.346874 0.309619 0.005308
0.385785 0.309154 0.005308
0.425635 0.308677 0.005308
0.466109 0.308193 0.005308
0.506870 0.307706 0.005308
0.547573 0.307219 0.005308
0.587874 0.306737 0.005308
0.627441 0.306264 0.005308
0.665970 0.305803 0.005308
0.703185 0.305358 0.005308
0.738855 0.304952 0.005308
0.772788 0.304952 0.005308
0.804842 0.304952 0.005308
0.834919 0.304952 0.005308
0.862962 0.304952 0.005308
0.888958 0.304952 0.005308
0.912925 0.304952 0.005308
0.934910 0.304952 0.005308
0.954985 0.304952 0.005308
0.973239 0.304952 0.005308
0.989775 0.304952 0.005308
0.015610 0.349917 0.005308
0.032712 0.349712 0.005308
0.051569 0.349487 0.005308
0.072278 0.349239 0.005308
0.094924 0.348968 0.005308
0.119570 0.348674 0.005308
0.146255 0.348354 0.005308
0.174987 0.348011 0.005308
0.205738 0.347643 0.005308
0.238438 0.347252 0.005308
0.272975 0.346839 0.005308
0.309188 0.346406 0.005308
0.346874 0.345955 0.005308
0.385785 0.345490 0.005308
0.425635 0.345013 0.005308
0.466109 0.344529 0.005308
0.506870 0.344041 0.005308
0.547573 0.343555 0.005308
0.587874 0.343073 0.005308
0.627441 0.342599 0.005308
0.665970 0.342162 0.005308
0.703185 0.342162 0.005308
0.738855 0.342162 0.005308
0.772788 0.342162 0.005308
0.804842 0.342162 0.005308
0.834919 0.342162 0.005308
0.862962 0.342162 0.005308
0.888958 0.342162 0.005308
0.912925 0.342162 0.005308
0.934910 0.342162 0.005308
0.954985 0.342162 0.005308
0.973239 0.342162 0.005308
0.989775 0.342162 0.005308
0.015610 0.387399 0.005308
0.032712 0.387194 0.005308
0.051569 0.386969 0.005308
0.072278 0.386721 0.005308
0.094924 0.386450 0.005308
0.119570 0.386156 0.005308
0.146255 0.385836 0.005308
0.174987 0.385493 0.005308
0.205738 0.385125 0.005308
0.238438 0.384734 0.005308
0.272975 0.384321 0.005308
0.309188 0.383888 0.005308
0.346874 0.383437 0.005308
0.385785 0.382972 0.005308
0.425635 0.382495 0.005308
0.466109 0.382011 0.005308
0.506870 0.381523 0.005308
0.547573 0.381037 0.005308
0.587874 0.380555 0.005308
0.627441 0.380545 0.005308
0.665970 0.380545 0.005308
0.703185 0.380545 0.005308
0.738855 0.380545 0.005308
0.772788 0.380545 0.005308
0.804842 0.380545 0.005308
0.834919 0.380545 0.005308
0.862962 0.380545 0.005308
0.888958 0.380545 0.005308
0.912925 0.380545 0.005308
0.934910 0.380545 0.005308
0.954985 0.380545 0.005308
0.973239 0.380545 0.005308
0.989775 0.380545 0.005308
0.015610 0.425772 0.005308
0.032712 0.425568 0.005308
0.051569 0.425342 0.005308
0.072278 0.425095 0.005308
0.094924 0.424824 0.005308
0.119570 0.424529 0.005308
0.146255 0.424210 0.005308
0.174987 0.423866 0.005308
0.205738 0.423498 0.005308
0.238438 0.423107 0.005308
0.272975 0.422694 0.005308
0.309188 0.422261 0.005308
0.346874 0.421810 0.005308
0.385785 0.421345 0.005308
0.425635 0.420868 0.005308
0.466109 0.420384 0.005308
0.506870 0.419897 0.005308
0.547573 0.419841 0.005308
0.587874 0.419841 0.005308
0.627441 0.419841 0.005308
0.665970 0.419841 0.005308
0.703185 0.419841 0.005308
0.738855 0.419841 0.005308
0.772788 0.419841 0.005308
0.804842 0.419841 0.005308
0.834919 0.419841 0.005308
0.862962 0.419841 0.005308
0.888958 0.419841 0.005308
0.912925 0.419841 0.005308
0.934910 0.419841 0.005308
0.954985 0.419841 0.005308
0.973239 0.419841 0.005308
0.989775 0.419841 0.005308
0.015610 0.464756 0.005308
0.032712 0.464551 0.005308
0.051569 0.464326 0.005308
0.072278 0.464078 0.005308
0.094924 0.463807 0.005308
0.119570 0.463512 0.005308
0.146255 0.463193 0.005308
0.174987 0.462850 0.005308
0.205738 0.462482 0.005308
0.238438 0.462091 0.005308
0.272975 0.461678 0.005308
0.309188 0.461245 0.005308
0.346874 0.460794 0.005308
0.385785 0.460329 0.005308
0.425635 0.459852 0.005308
0.466109 0.459762 0.005308
0.506870 0.459762 0.005308
0.547573 0.459762 0.005308
0.587874 0.459762 0.005308
0.627441 0.459762 0.005308
0.665970 0.459762 0.005308
0.703185 0.459762 0.005308
0.738855 0.459762 0.005308
0.772788 0.459762 0.005308
0.804842 0.459762 0.005308
0.834919 0.459762 0.005308
0.862962 0.459762 0.005308
0.888958 0.459762 0.005308
0.912925 0.459762 0.005308
0.934910 0.459762 0.005308
0.954985 0.459762 0.005308
0.973239 0.459762 0.005308
0.989775 0.459762 0.005308
0.015610 0.504049 0.005308
0.032712 0.503845 0.005308
0.051569 0.503619 0.005308
0.072278 0.503371 0.005308
0.094924 0.503101 0.005308
0.119570 0.502806 0.005308
0.146255 0.502487 0.005308
0.174987 0.502143 0.005308
0.205738 0.501775 0.005308
0.238438 0.501384 0.005308
0.272975 0.500971 0.005308
0.309188 0.500538 0.005308
0.346874 0.500087 0.005308
0.385785 0.500000 0.005308
0.425635 0.500000 0.005308
0.466109 0.500000 0.005308
0.506870 0.500000 0.005308
0.547573 0.500000 0.005308
0.587874 0.500000 0.005308
0.627441 0.500000 0.005308
0.665970 0.500000 0.005308
0.703185 0.500000 0.005308
0.738855 0.500000 0.005308
0.772788 0.500000 0.005308
0.804842 0.500000 0.005308
0.834919 0.500000 0.005308
0.862962 0.500000 0.005308
0.888958 0.500000 0.005308
0.912925 0.500000 0.005308
0.934910 0.500000 0.005308
0.954985 0.500000 0.005308
0.973239 0.500000 0.005308
0.989775 0.500000 0.005308
0.015610 0.543342 0.005308
0.032712 0.543138 0.005308
0.051569 0.542912 0.005308
0.072278 0.542665 0.005308
0.094924 0.542394 0.005308
0.119570 0.542099 0.005308
0.146255 0.541780 0.005308
0.174987 0.541436 0.005308
0.205738 0.541068 0.005308
0.238438 0.540677 0.005308
0.272975 0.540264 0.005308
0.309188 0.540238 0.005308
0.346874 0.540238 0.005308
0.385785 0.540238 0.005308
0.425635 0.540238 0.005308
0.466109 0.540238 0.005308
0.506870 0.540238 0.005308
0.547573 0.540238 0.005308
0.587874 0.540238 0.005308
0.627441 0.540238 0.005308
0.665970 0.540238 0.005308
0.703185 0.540238 0.005308
0.738855 0.540238 0.005308
0.772788 0.540238 0.005308
0.804842 0.540238 0.005308
0.834919 0.540238 0.005308
0.862962 0.540238 0.005308
0.888958 0.540238 0.005308
0.912925 0.540238 0.005308
0.934910 0.540238 0.005308
0.954985 0.540238 0.005308
0.973239 0.540238 0.005308
0.989775 0.540238 0.005308
0.015610 0.582326 0.005308
0.032712 0.582121 0.005308
0.051569 0.581896 0.005308
0.072278 0.581648 0.005308
0.094924 0.581377 0.005308
0.119570 0.581082 0.005308
0.146255 0.580763 0.005308
0.174987 0.580420 0.005308
0.205738 0.580159 0.005308
0.238438 0.580159 0.005308
0.272975 0.580159 0.005308
0.309188 0.580159 0.005308
0.346874 0.580159 0.005308
0.385785 0.580159 0.005308
0.425635 0.580159 0.005308
0.466109 0.580159 0.005308
0.506870 0.580159 0.005308
0.547573 0.580159 0.005308
0.587874 0.580159 0.005308
0.627441 0.580159 0.005308
0.665970 0.580159 0.005308
0.703185 0.580159 0.005308
0.738855 0.580159 0.005308
0.772788 0.580159 0.005308
0.804842 0.580159 0.005308
0.834919 0.580159 0.005308
0.862962 0.580159 0.005308
0.888958 0.580159 0.005308
0.912925 0.580159 0.005308
0.934910 0.580159 0.005308
0.954985 0.580159 0.005308
0.973239 0.580159 0.005308
0.989775 0.580159 0.005308
0.015610 0.620699 0.005308
0.032712 0.620495 0.005308
0.051569 0.620269 0.005308
0.072278 0.620021 0.005308
0.094924 0.619751 0.005308
0.119570 0.619456 0.005308
0.146255 0.619455 0.005308
0.174987 0.619455 0.005308
0.205738 0.619455 0.005308
0.238438 0.619455 0.005308
0.272975 0.619455 0.005308
0.309188 0.619455 0.005308
0.346874 0.619455 0.005308
0.385785 0.619455 0.005308
0.425635 0.619455 0.005308
0.466109 0.619455 0.005308
0.506870 0.619455 0.005308
0.547573 0.619455 0.005308
0.587874 0.619455 0.005308
0.627441 0.619455 0.005308
0.665970 0.619455 0.005308
0.703185 0.619455 0.005308
0.738855 0.619455 0.005308
0.772788 0.619455 0.005308
0.804842 0.619455 0.005308
0.834919 0.619455 0.005308
0.862962 0.619455 0.005308
0.888958 0.619455 0.005308
0.912925 0.619455 0.005308
0.934910 0.619455 0.005308
0.954985 0.619455 0.005308
0.973239 0.619455 0.005308
0.989775 0.619455 0.005308
0.015610 0.658181 0.005308
0.032712 0.657977 0.005308
0.051569 0.657838 0.005308
0.072278 0.657838 0.005308
0.094924 0.657838 0.005308
0.119570 0.657838 0.005308
0.146255 0.657838 0.005308
0.174987 0.657838 0.005308
0.205738 0.657838 0.005308
0.238438 0.657838 0.005308
0.272975 0.657838 0.005308
0.309188 0.657838 0.005308
0.346874 0.657838 0.005308
0.385785 0.657838 0.005308
0.425635 0.657838 0.005308
0.466109 0.657838 0.005308
0.506870 0.657838 0.005308
0.547573 0.657838 0.005308
0.587874 0.657838 0.005308
0.627441 0.657838 0.005308
0.665970 0.657838 0.005308
0.703185 0.657838 0.005308
0.738855 0.657838 0.005308
0.772788 0.657838 0.005308
0.804842 0.657838 0.005308
0.834919 0.657838 0.005308
0.862962 0.657838 0.005308
0.888958 0.657838 0.005308
0.912925 0.657838 0.005308
0.934910 0.657838 0.005308
0.954985 0.657838 0.005308
0.973239 0.657838 0.005308
0.989775 0.657838 0.005308
0.015610 0.695048 0.005308
0.032712 0.695048 0.005308
0.051569 0.695048 0.005308
0.072278 0.695048 0.005308
0.094924 0.695048 0.005308
0.119570 0.695048 0.005308
0.146255 0.695048 0.005308
0.174987 0.695048 0.005308
0.205738 0.695048 0.005308
0.238438 0.695048 0.005308
0.272975 0.695048 0.005308
0.309188 0.695048 0.005308
0.346874 0.695048 0.005308
0.385785 0.695048 0.005308
0.425635 0.695048 0.005308
0.466109 0.695048 0.005308
0.506870 0.695048 0.005308
0.547573 0.695048 0.005308
0.587874 0.695048 0.005308
0.627441 0.695048 0.005308
0.665970 0.695048 0.005308
0.703185 0.695048 0.005308
0.738855 0.695048 0.005308
0.772788 0.695048 0.005308
0.804842 0.695048 0.005308
0.834919 0.695048 0.005308
0.862962 0.695048 0.005308
0.888958 0.695048 0.005308
0.912925 0.695048 0.005308
0.934910 0.695048 0.005308
0.954985 0.695048 0.005308
0.973239 0.695048 0.005308
0.989775 0.695048 0.005308
0.015610 0.730856 0.005308
0.032712 0.730856 0.005308
0.051569 0.730856 0.005308
0.072278 0.730856 0.005308
0.094924 0.730856 0.005308
0.119570 0.730856 0.005308
0.146255 0.730856 0.005308
0.174987 0.730856 0.005308
0.205738 0.730856 0.005308
0.238438 0.730856 0.005308
0.272975 0.730856 0.005308
0.309188 0.730856 0.005308
0.346874 0.730856 0.005308
0.385785 0.730856 0.005308
0.425635 0.730856 0.005308
0.466109 0.730856 0.005308
0.506870 0.730856 0.005308
0.547573 0.730856 0.005308
0.587874 0.730856 0.005308
0.627441 0.730856 0.005308
0.665970 0.730856 0.005308
0.703185 0.730856 0.005308
0.738855 0.730856 0.005308
0.772788 0.730856 0.005308
0.804842 0.730856 0.005308
0.834919 0.730856 0.005308
0.862962 0.730856 0.005308
0.888958 0.730856 0.005308
0.912925 0.730856 0.005308
0.934910 0.730856 0.005308
0.954985 0.730856 0.005308
0.973239 0.730856 0.005308
0.989775 0.730856 0.005308
0.015610 0.765074 0.005308
0.032712 0.765074 0.005308
0.051569 0.765074 0.005308
0.072278 0.765074 0.005308
0.094924 0.765074 0.005308
0.119570 0.765074 0.005308
0.146255 0.765074 0.005308
0.174987 0.765074 0.005308
0.205738 0.765074 0.005308
0.238438 0.765074 0.005308
0.272975 0.765074 0.005308
0.309188 0.765074 0.005308
0.346874 0.765074 0.005308
0.385785 0.765074 0.005308
0.425635 0.765074 0.005308
0.466109 0.765074 0.005308
0.506870 0.765074 0.005308
0.547573 0.765074 0.005308
0.587874 0.765074 0.005308
0.627441 0.765074 0.005308
0.665970 0.765074 0.005308
0.703185 0.765074 0.005308
0.738855 0.765074 0.005308
0.772788 0.765074 0.005308
0.804842 0.765074 0.005308
0.834919 0.765074 0.005308
0.862962 0.765074 0.005308
0.888958 0.765074 0.005308
0.912925 0.765074 0.005308
0.934910 0.765074 0.005308
0.954985 0.765074 0.005308
0.973239 0.765074 0.005308
0.989775 0.765074 0.005308
0.015610 0.797553 0.005308
0.032712 0.797553 0.005308
0.051569 0.797553 0.005308
0.072278 0.797553 0.005308
0.094924 0.797553 0.005308
0.119570 0.797553 0.005308
0.146255 0.797553 0.005308
0.174987 0.797553 0.005308
0.205738 0.797553 0.005308
0.238438 0.797553 0.005308
0.272975 0.797553 0.005308
0.309188 0.797553 0.005308
0.346874 0.797553 0.005308
0.385785 0.797553 0.005308
0.425635 0.797553 0.005308
0.466109 0.797553 0.005308
0.506870 0.797553 0.005308
0.547573 0.797553 0.005308
0.587874 0.797553 0.005308
0.627441 0.797553 0.005308
0.665970 0.797553 0.005308
0.703185 0.797553 0.005308
0.738855 0.797553 0.005308
0.772788 0.797553 0.005308
0.804842 0.797553 0.005308
0.834919 0.797553 0.005308
0.862962 0.797553 0.005308
0.888958 0.797553 0.005308
0.912925 0.797553 0.005308
0.934910 0.797553 0.005308
0.954985 0.797553 0.005308
0.973239 0.797553 0.005308
0.989775 0.797553 0.005308
0.015610 0.828184 0.005308
0.032712 0.828184 0.005308
0.051569 0.828184 0.005308
0.072278 0.828184 0.005308
0.094924 0.828184 0.005308
0.119570 0.828184 0.005308
0.146255 0.828184 0.005308
0.174987 0.828184 0.005308
0.205738 0.828184 0.005308
0.238438 0.828184 0.005308
0.272975 0.828184 0.005308
0.309188 0.828184 0.005308
0.346874 0.828184 0.005308
0.385785 0.828184 0.005308
0.425635 0.828184 0.005308
0.466109 0.828184 0.005308
0.506870 0.828184 0.005308
0.547573 0.828184 0.005308
0.587874 0.828184 0.005308
0.627441 0.828184 0.005308
0.665970 0.828184 0.005308
0.703185 0.828184 0.005308
0.738855 0.828184 0.005308
0.772788 0.828184 0.005308
0.804842 0.828184 0.005308
0.834919 0.828184 0.005308
0.862962 0.828184 0.005308
0.888958 0.828184 0.005308
0.912925 0.828184 0.005308
0.934910 0.828184 0.005308
0.954985 0.828184 0.005308
0.973239 0.828184 0.005308
0.989775 0.828184 0.005308
0.015610 0.856899 0.005308
0.032712 0.856899 0.005308
0.051569 0.856899 0.005308
0.072278 0.856899 0.005308
0.094924 0.856899 0.005308
0.119570 0.856899 0.005308
0.146255 0.856899 0.005308
0.174987 0.856899 0.005308
0.205738 0.856899 0.005308
0.238438 0.856899 0.005308
0.272975 0.856899 0.005308
0.309188 0.856899 0.005308
0.346874 0.856899 0.005308
0.385785 0.856899 0.005308
0.425635 0.856899 0.005308
0.466109 0.856899 0.005308
0.506870 0.856899 0.005308
0.547573 0.856899 0.005308
0.587874 0.856899 0.005308
0.627441 0.856899 0.005308
0.665970 0.856899 0.005308
0.703185 0.856899 0.005308
0.738855 0.856899 0.005308
0.772788 0.856899 0.005308
0.804842 0.856899 0.005308
0.834919 0.856899 0.005308
