public/luts/film-classic.cube
# KomfyEdit 3D LUT: film-classic
TITLE "film-classic"
LUT_3D_SIZE 5
DOMAIN_MIN 0.0 0.0 0.0
DOMAIN_MAX 1.0 1.0 1.0
0.015610 0.026327 0.005308
0.205738 0.024053 0.005308
0.506870 0.020451 0.005308
0.804842 0.016887 0.005308
0.989775 0.014676 0.005308
0.015610 0.213483 0.005308
0.205738 0.211209 0.005308
0.506870 0.207607 0.005308
0.804842 0.204044 0.005308
0.989775 0.202447 0.005308
0.015610 0.504049 0.005308
0.205738 0.501775 0.005308
0.506870 0.500000 0.005308
0.804842 0.500000 0.005308
0.989775 0.500000 0.005308
0.015610 0.797553 0.005308
0.205738 0.797553 0.005308
0.506870 0.797553 0.005308
0.804842 0.797553 0.005308
0.989775 0.797553 0.005308
0.015610 0.989209 0.005308
0.205738 0.989209 0.005308
0.506870 0.989209 0.005308
0.804842 0.989209 0.005308
0.989775 0.989209 0.005308
0.015610 0.025522 0.181816
0.205738 0.023248 0.181816
0.506870 0.019646 0.181816
0.804842 0.016083 0.181816
0.989775 0.013871 0.181816
0.015610 0.212678 0.181816
0.205738 0.210404 0.181816
0.506870 0.206803 0.181816
0.804842 0.203239 0.181816
0.989775 0.202447 0.181816
0.015610 0.503244 0.181816
0.205738 0.500970 0.181816
0.506870 0.500000 0.181816
0.804842 0.500000 0.181816
0.989775 0.500000 0.181816
0.015610 0.797553 0.181816
0.205738 0.797553 0.181816
0.506870 0.797553 0.181816
0.804842 0.797553 0.181816
0.989775 0.797553 0.181816
0.015610 0.989209 0.181816
0.205738 0.989209 0.181816
0.506870 0.989209 0.181816
0.804842 0.989209 0.181816
0.989775 0.989209 0.181816
0.015610 0.024254 0.459762
0.205738 0.021980 0.459762
0.506870 0.018379 0.459762
0.804842 0.014815 0.459762
0.989775 0.012603 0.459762
0.015610 0.211411 0.459762
0.205738 0.209137 0.459762
0.506870 0.205535 0.459762
0.804842 0.202447 0.459762
0.989775 0.202447 0.459762
0.015610 0.501977 0.459762
0.205738 0.500000 0.459762
0.506870 0.500000 0.459762
0.804842 0.500000 0.459762
0.989775 0.500000 0.459762
0.015610 0.797553 0.459762
0.205738 0.797553 0.459762
0.506870 0.797553 0.459762
0.804842 0.797553 0.459762
0.989775 0.797553 0.459762
0.015610 0.989209 0.459762
0.205738 0.989209 0.459762
0.506870 0.989209 0.459762
0.804842 0.989209 0.459762
0.989775 0.989209 0.459762
0.015610 0.022913 0.753855
0.205738 0.020639 0.753855
0.506870 0.017038 0.753855
0.804842 0.013474 0.753855
0.989775 0.011262 0.753855
0.015610 0.210070 0.753855
0.205738 0.207796 0.753855
0.506870 0.204194 0.753855
0.804842 0.202447 0.753855
0.989775 0.202447 0.753855
0.015610 0.500636 0.753855
0.205738 0.500000 0.753855
0.506870 0.500000 0.753855
0.804842 0.500000 0.753855
0.989775 0.500000 0.753855
0.015610 0.797553 0.753855
0.205738 0.797553 0.753855
0.506870 0.797553 0.753855
0.804842 0.797553 0.753855
0.989775 0.797553 0.753855
0.015610 0.989209 0.753855
0.205738 0.989209 0.753855
0.506870 0.989209 0.753855
0.804842 0.989209 0.753855
0.989775 0.989209 0.753855
0.015610 0.021978 0.959037
0.205738 0.019704 0.959037
0.506870 0.016102 0.959037
0.804842 0.012538 0.959037
0.989775 0.010791 0.959037
0.015610 0.209134 0.959037
0.205738 0.206860 0.959037
0.506870 0.203258 0.959037
0.804842 0.202447 0.959037
0.989775 0.202447 0.959037
0.015610 0.500000 0.959037
0.205738 0.500000 0.959037
0.506870 0.500000 0.959037
0.804842 0.500000 0.959037
0.989775 0.500000 0.959037
0.015610 0.797553 0.959037
0.205738 0.797553 0.959037
0.506870 0.797553 0.959037
0.804842 0.797553 0.959037
0.989775 0.797553 0.959037
0.015610 0.989209 0.959037
0.205738 0.989209 0.959037
0.506870 0.989209 0.959037
0.804842 0.989209 0.959037
0.989775 0.989209 0.959037
