public/luts/golden-hour.cube
# KomfyEdit 3D LUT: golden-hour
TITLE "golden-hour"
LUT_3D_SIZE 9
DOMAIN_MIN 0.0 0.0 0.0
DOMAIN_MAX 1.0 1.0 1.0
0.010225 0.005308 0.000000
0.106087 0.005308 0.000000
0.247354 0.005308 0.000000
0.428177 0.005308 0.000000
0.622082 0.005308 0.000000
0.794262 0.005308 0.000000
0.923350 0.005308 0.000000
1.000000 0.005308 0.000000
1.000000 0.005308 0.000000
0.010225 0.092509 0.000000
0.106087 0.092509 0.000000
0.247354 0.092509 0.000000
0.428177 0.092509 0.000000
0.622082 0.092509 0.000000
0.794262 0.092509 0.000000
0.923350 0.092509 0.000000
1.000000 0.092509 0.000000
1.000000 0.092509 0.000000
0.010225 0.215761 0.000000
0.106087 0.215761 0.000000
0.247354 0.215761 0.000000
0.428177 0.215761 0.000000
0.622082 0.215761 0.000000
0.794262 0.215761 0.000000
0.923350 0.215761 0.000000
1.000000 0.215761 0.000000
1.000000 0.215761 0.000000
0.010225 0.372464 0.000000
0.106087 0.372464 0.000000
0.247354 0.372464 0.000000
0.428177 0.372464 0.000000
0.622082 0.372464 0.000000
0.794262 0.372464 0.000000
0.923350 0.372464 0.000000
1.000000 0.372464 0.000000
1.000000 0.372464 0.000000
0.010225 0.546922 0.000000
0.106087 0.546922 0.000000
0.247354 0.546922 0.000000
0.428177 0.546922 0.000000
0.622082 0.546922 0.000000
0.794262 0.546922 0.000000
0.923350 0.546922 0.000000
1.000000 0.546922 0.000000
1.000000 0.546922 0.000000
0.010225 0.714631 0.000000
0.106087 0.714631 0.000000
0.247354 0.714631 0.000000
0.428177 0.714631 0.000000
0.622082 0.714631 0.000000
0.794262 0.714631 0.000000
0.923350 0.714631 0.000000
1.000000 0.714631 0.000000
1.000000 0.714631 0.000000
0.010225 0.854581 0.000000
0.106087 0.854581 0.000000
0.247354 0.854581 0.000000
0.428177 0.854581 0.000000
0.622082 0.854581 0.000000
0.794262 0.854581 0.000000
0.923350 0.854581 0.000000
1.000000 0.854581 0.000000
1.000000 0.854581 0.000000
0.010225 0.958221 0.000000
0.106087 0.958221 0.000000
0.247354 0.958221 0.000000
0.428177 0.958221 0.000000
0.622082 0.958221 0.000000
0.794262 0.958221 0.000000
0.923350 0.958221 0.000000
1.000000 0.958221 0.000000
1.000000 0.958221 0.000000
0.010225 1.000000 0.000000
0.106087 1.000000 0.000000
0.247354 1.000000 0.000000
0.428177 1.000000 0.000000
0.622082 1.000000 0.000000
0.794262 1.000000 0.000000
0.923350 1.000000 0.000000
1.000000 1.000000 0.000000
1.000000 1.000000 0.000000
0.010225 0.005308 0.102500
0.106087 0.005308 0.102500
0.247354 0.005308 0.102500
0.428177 0.005308 0.102500
0.622082 0.005308 0.102500
0.794262 0.005308 0.102500
0.923350 0.005308 0.102500
1.000000 0.005308 0.102500
1.000000 0.005308 0.102500
0.010225 0.092509 0.102500
0.106087 0.092509 0.102500
0.247354 0.092509 0.102500
0.428177 0.092509 0.102500
0.622082 0.092509 0.102500
0.794262 0.092509 0.102500
0.923350 0.092509 0.102500
1.000000 0.092509 0.102500
1.000000 0.092509 0.102500
0.010225 0.215761 0.102500
0.106087 0.215761 0.102500
0.247354 0.215761 0.102500
0.428177 0.215761 0.102500
0.622082 0.215761 0.102500
0.794262 0.215761 0.102500
0.923350 0.215761 0.102500
1.000000 0.215761 0.102500
1.000000 0.215761 0.102500
0.010225 0.372464 0.102500
0.106087 0.372464 0.102500
0.247354 0.372464 0.102500
0.428177 0.372464 0.102500
0.622082 0.372464 0.102500
0.794262 0.372464 0.102500
0.923350 0.372464 0.102500
1.000000 0.372464 0.102500
1.000000 0.372464 0.102500
0.010225 0.546922 0.102500
0.106087 0.546922 0.102500
0.247354 0.546922 0.102500
0.428177 0.546922 0.102500
0.622082 0.546922 0.102500
0.794262 0.546922 0.102500
0.923350 0.546922 0.102500
1.000000 0.546922 0.102500
1.000000 0.546922 0.102500
0.010225 0.714631 0.102500
0.106087 0.714631 0.102500
0.247354 0.714631 0.102500
0.428177 0.714631 0.102500
0.622082 0.714631 0.102500
0.794262 0.714631 0.102500
0.923350 0.714631 0.102500
1.000000 0.714631 0.102500
1.000000 0.714631 0.102500
0.010225 0.854581 0.102500
0.106087 0.854581 0.102500
0.247354 0.854581 0.102500
0.428177 0.854581 0.102500
0.622082 0.854581 0.102500
0.794262 0.854581 0.102500
0.923350 0.854581 0.102500
1.000000 0.854581 0.102500
1.000000 0.854581 0.102500
0.010225 0.958221 0.102500
0.106087 0.958221 0.102500
0.247354 0.958221 0.102500
0.428177 0.958221 0.102500
0.622082 0.958221 0.102500
0.794262 0.958221 0.102500
0.923350 0.958221 0.102500
1.000000 0.958221 0.102500
1.000000 0.958221 0.102500
0.010225 1.000000 0.102500
0.106087 1.000000 0.102500
0.247354 1.000000 0.102500
0.428177 1.000000 0.102500
0.622082 1.000000 0.102500
0.794262 1.000000 0.102500
0.923350 1.000000 0.102500
1.000000 1.000000 0.102500
1.000000 1.000000 0.102500
0.010225 0.005308 0.205000
0.106087 0.005308 0.205000
0.247354 0.005308 0.205000
0.428177 0.005308 0.205000
0.622082 0.005308 0.205000
0.794262 0.005308 0.205000
0.923350 0.005308 0.205000
1.000000 0.005308 0.205000
1.000000 0.005308 0.205000
0.010225 0.092509 0.205000
0.106087 0.092509 0.205000
0.247354 0.092509 0.205000
0.428177 0.092509 0.205000
0.622082 0.092509 0.205000
0.794262 0.092509 0.205000
0.923350 0.092509 0.205000
1.000000 0.092509 0.205000
1.000000 0.092509 0.205000
0.010225 0.215761 0.205000
0.106087 0.215761 0.205000
0.247354 0.215761 0.205000
0.428177 0.215761 0.205000
0.622082 0.215761 0.205000
0.794262 0.215761 0.205000
0.923350 0.215761 0.205000
1.000000 0.215761 0.205000
1.000000 0.215761 0.205000
0.010225 0.372464 0.205000
0.106087 0.372464 0.205000
0.247354 0.372464 0.205000
0.428177 0.372464 0.205000
0.622082 0.372464 0.205000
0.794262 0.372464 0.205000
0.923350 0.372464 0.205000
1.000000 0.372464 0.205000
1.000000 0.372464 0.205000
0.010225 0.546922 0.205000
0.106087 0.546922 0.205000
0.247354 0.546922 0.205000
0.428177 0.546922 0.205000
0.622082 0.546922 0.205000
0.794262 0.546922 0.205000
0.923350 0.546922 0.205000
1.000000 0.546922 0.205000
1.000000 0.546922 0.205000
0.010225 0.714631 0.205000
0.106087 0.714631 0.205000
0.247354 0.714631 0.205000
0.428177 0.714631 0.205000
0.622082 0.714631 0.205000
0.794262 0.714631 0.205000
0.923350 0.714631 0.205000
1.000000 0.714631 0.205000
1.000000 0.714631 0.205000
0.010225 0.854581 0.205000
0.106087 0.854581 0.205000
0.247354 0.854581 0.205000
0.428177 0.854581 0.205000
0.622082 0.854581 0.205000
0.794262 0.854581 0.205000
0.923350 0.854581 0.205000
1.000000 0.854581 0.205000
1.000000 0.854581 0.205000
0.010225 0.958221 0.205000
0.106087 0.958221 0.205000
0.247354 0.958221 0.205000
0.428177 0.958221 0.205000
0.622082 0.958221 0.205000
0.794262 0.958221 0.205000
0.923350 0.958221 0.205000
1.000000 0.958221 0.205000
1.000000 0.958221 0.205000
0.010225 1.000000 0.205000
0.106087 1.000000 0.205000
0.247354 1.000000 0.205000
0.428177 1.000000 0.205000
0.622082 1.000000 0.205000
0.794262 1.000000 0.205000
0.923350 1.000000 0.205000
1.000000 1.000000 0.205000
1.000000 1.000000 0.205000
0.010225 0.005308 0.307500
0.106087 0.005308 0.307500
0.247354 0.005308 0.307500
0.428177 0.005308 0.307500
0.622082 0.005308 0.307500
0.794262 0.005308 0.307500
0.923350 0.005308 0.307500
1.000000 0.005308 0.307500
1.000000 0.005308 0.307500
0.010225 0.092509 0.307500
0.106087 0.092509 0.307500
0.247354 0.092509 0.307500
0.428177 0.092509 0.307500
0.622082 0.092509 0.307500
0.794262 0.092509 0.307500
0.923350 0.092509 0.307500
1.000000 0.092509 0.307500
1.000000 0.092509 0.307500
0.010225 0.215761 0.307500
0.106087 0.215761 0.307500
0.247354 0.215761 0.307500
0.428177 0.215761 0.307500
0.622082 0.215761 0.307500
0.794262 0.215761 0.307500
0.923350 0.215761 0.307500
1.000000 0.215761 0.307500
1.000000 0.215761 0.307500
0.010225 0.372464 0.307500
0.106087 0.372464 0.307500
0.247354 0.372464 0.307500
0.428177 0.372464 0.307500
0.622082 0.372464 0.307500
0.794262 0.372464 0.307500
0.923350 0.372464 0.307500
1.000000 0.372464 0.307500
1.000000 0.372464 0.307500
0.010225 0.546922 0.307500
0.106087 0.546922 0.307500
0.247354 0.546922 0.307500
0.428177 0.546922 0.307500
0.622082 0.546922 0.307500
0.794262 0.546922 0.307500
0.923350 0.546922 0.307500
1.000000 0.546922 0.307500
1.000000 0.546922 0.307500
0.010225 0.714631 0.307500
0.106087 0.714631 0.307500
0.247354 0.714631 0.307500
0.428177 0.714631 0.307500
0.622082 0.714631 0.307500
0.794262 0.714631 0.307500
0.923350 0.714631 0.307500
1.000000 0.714631 0.307500
1.000000 0.714631 0.307500
0.010225 0.854581 0.307500
0.106087 0.854581 0.307500
0.247354 0.854581 0.307500
0.428177 0.854581 0.307500
0.622082 0.854581 0.307500
0.794262 0.854581 0.307500
0.923350 0.854581 0.307500
1.000000 0.854581 0.307500
1.000000 0.854581 0.307500
0.010225 0.958221 0.307500
0.106087 0.958221 0.307500
0.247354 0.958221 0.307500
0.428177 0.958221 0.307500
0.622082 0.958221 0.307500
0.794262 0.958221 0.307500
0.923350 0.958221 0.307500
1.000000 0.958221 0.307500
1.000000 0.958221 0.307500
0.010225 1.000000 0.307500
0.106087 1.000000 0.307500
0.247354 1.000000 0.307500
0.428177 1.000000 0.307500
0.622082 1.000000 0.307500
0.794262 1.000000 0.307500
0.923350 1.000000 0.307500
1.000000 1.000000 0.307500
1.000000 1.000000 0.307500
0.010225 0.005308 0.410000
0.106087 0.005308 0.410000
0.247354 0.005308 0.410000
0.428177 0.005308 0.410000
0.622082 0.005308 0.410000
0.794262 0.005308 0.410000
0.923350 0.005308 0.410000
1.000000 0.005308 0.410000
1.000000 0.005308 0.410000
0.010225 0.092509 0.410000
0.106087 0.092509 0.410000
0.247354 0.092509 0.410000
0.428177 0.092509 0.410000
0.622082 0.092509 0.410000
0.794262 0.092509 0.410000
0.923350 0.092509 0.410000
1.000000 0.092509 0.410000
1.000000 0.092509 0.410000
0.010225 0.215761 0.410000
0.106087 0.215761 0.410000
0.247354 0.215761 0.410000
0.428177 0.215761 0.410000
0.622082 0.215761 0.410000
0.794262 0.215761 0.410000
0.923350 0.215761 0.410000
1.000000 0.215761 0.410000
1.000000 0.215761 0.410000
0.010225 0.372464 0.410000
0.106087 0.372464 0.410000
0.247354 0.372464 0.410000
0.428177 0.372464 0.410000
0.622082 0.372464 0.410000
0.794262 0.372464 0.410000
0.923350 0.372464 0.410000
1.000000 0.372464 0.410000
1.000000 0.372464 0.410000
0.010225 0.546922 0.410000
0.106087 0.546922 0.410000
0.247354 0.546922 0.410000
0.428177 0.546922 0.410000
0.622082 0.546922 0.410000
0.794262 0.546922 0.410000
0.923350 0.546922 0.410000
1.000000 0.546922 0.410000
1.000000 0.546922 0.410000
0.010225 0.714631 0.410000
0.106087 0.714631 0.410000
0.247354 0.714631 0.410000
0.428177 0.714631 0.410000
0.622082 0.714631 0.410000
0.794262 0.714631 0.410000
0.923350 0.714631 0.410000
1.000000 0.714631 0.410000
1.000000 0.714631 0.410000
0.010225 0.854581 0.410000
0.106087 0.854581 0.410000
0.247354 0.854581 0.410000
0.428177 0.854581 0.410000
0.622082 0.854581 0.410000
0.794262 0.854581 0.410000
0.923350 0.854581 0.410000
1.000000 0.854581 0.410000
1.000000 0.854581 0.410000
0.010225 0.958221 0.410000
0.106087 0.958221 0.410000
0.247354 0.958221 0.410000
0.428177 0.958221 0.410000
0.622082 0.958221 0.410000
0.794262 0.958221 0.410000
0.923350 0.958221 0.410000
1.000000 0.958221 0.410000
1.000000 0.958221 0.410000
0.010225 1.000000 0.410000
0.106087 1.000000 0.410000
0.247354 1.000000 0.410000
0.428177 1.000000 0.410000
0.622082 1.000000 0.410000
0.794262 1.000000 0.410000
0.923350 1.000000 0.410000
1.000000 1.000000 0.410000
1.000000 1.000000 0.410000
0.010225 0.005308 0.512500
0.106087 0.005308 0.512500
0.247354 0.005308 0.512500
0.428177 0.005308 0.512500
0.622082 0.005308 0.512500
0.794262 0.005308 0.512500
0.923350 0.005308 0.512500
1.000000 0.005308 0.512500
1.000000 0.005308 0.512500
0.010225 0.092509 0.512500
0.106087 0.092509 0.512500
0.247354 0.092509 0.512500
0.428177 0.092509 0.512500
0.622082 0.092509 0.512500
0.794262 0.092509 0.512500
0.923350 0.092509 0.512500
1.000000 0.092509 0.512500
1.000000 0.092509 0.512500
0.010225 0.215761 0.512500
0.106087 0.215761 0.512500
0.247354 0.215761 0.512500
0.428177 0.215761 0.512500
0.622082 0.215761 0.512500
0.794262 0.215761 0.512500
0.923350 0.215761 0.512500
1.000000 0.215761 0.512500
1.000000 0.215761 0.512500
0.010225 0.372464 0.512500
0.106087 0.372464 0.512500
0.247354 0.372464 0.512500
0.428177 0.372464 0.512500
0.622082 0.372464 0.512500
0.794262 0.372464 0.512500
0.923350 0.372464 0.512500
1.000000 0.372464 0.512500
1.000000 0.372464 0.512500
0.010225 0.546922 0.512500
0.106087 0.546922 0.512500
0.247354 0.546922 0.512500
0.428177 0.546922 0.512500
0.622082 0.546922 0.512500
0.794262 0.546922 0.512500
0.923350 0.546922 0.512500
1.000000 0.546922 0.512500
1.000000 0.546922 0.512500
0.010225 0.714631 0.512500
0.106087 0.714631 0.512500
0.247354 0.714631 0.512500
0.428177 0.714631 0.512500
0.622082 0.714631 0.512500
0.794262 0.714631 0.512500
0.923350 0.714631 0.512500
1.000000 0.714631 0.512500
1.000000 0.714631 0.512500
0.010225 0.854581 0.512500
0.106087 0.854581 0.512500
0.247354 0.854581 0.512500
0.428177 0.854581 0.512500
0.622082 0.854581 0.512500
0.794262 0.854581 0.512500
0.923350 0.854581 0.512500
1.000000 0.854581 0.512500
1.000000 0.854581 0.512500
0.010225 0.958221 0.512500
0.106087 0.958221 0.512500
0.247354 0.958221 0.512500
0.428177 0.958221 0.512500
0.622082 0.958221 0.512500
0.794262 0.958221 0.512500
0.923350 0.958221 0.512500
1.000000 0.958221 0.512500
1.000000 0.958221 0.512500
0.010225 1.000000 0.512500
0.106087 1.000000 0.512500
0.247354 1.000000 0.512500
0.428177 1.000000 0.512500
0.622082 1.000000 0.512500
0.794262 1.000000 0.512500
0.923350 1.000000 0.512500
1.000000 1.000000 0.512500
1.000000 1.000000 0.512500
0.010225 0.005308 0.615000
0.106087 0.005308 0.615000
0.247354 0.005308 0.615000
0.428177 0.005308 0.615000
0.622082 0.005308 0.615000
0.794262 0.005308 0.615000
0.923350 0.005308 0.615000
1.000000 0.005308 0.615000
1.000000 0.005308 0.615000
0.010225 0.092509 0.615000
0.106087 0.092509 0.615000
0.247354 0.092509 0.615000
0.428177 0.092509 0.615000
0.622082 0.092509 0.615000
0.794262 0.092509 0.615000
0.923350 0.092509 0.615000
1.000000 0.092509 0.615000
1.000000 0.092509 0.615000
0.010225 0.215761 0.615000
0.106087 0.215761 0.615000
0.247354 0.215761 0.615000
0.428177 0.215761 0.615000
0.622082 0.215761 0.615000
0.794262 0.215761 0.615000
0.923350 0.215761 0.615000
1.000000 0.215761 0.615000
1.000000 0.215761 0.615000
0.010225 0.372464 0.615000
0.106087 0.372464 0.615000
0.247354 0.372464 0.615000
0.428177 0.372464 0.615000
0.622082 0.372464 0.615000
0.794262 0.372464 0.615000
0.923350 0.372464 0.615000
1.000000 0.372464 0.615000
1.000000 0.372464 0.615000
0.010225 0.546922 0.615000
0.106087 0.546922 0.615000
0.247354 0.546922 0.615000
0.428177 0.546922 0.615000
0.622082 0.546922 0.615000
0.794262 0.546922 0.615000
0.923350 0.546922 0.615000
1.000000 0.546922 0.615000
1.000000 0.546922 0.615000
0.010225 0.714631 0.615000
0.106087 0.714631 0.615000
0.247354 0.714631 0.615000
0.428177 0.714631 0.615000
0.622082 0.714631 0.615000
0.794262 0.714631 0.615000
0.923350 0.714631 0.615000
1.000000 0.714631 0.615000
1.000000 0.714631 0.615000
0.010225 0.854581 0.615000
0.106087 0.854581 0.615000
0.247354 0.854581 0.615000
0.428177 0.854581 0.615000
0.622082 0.854581 0.615000
0.794262 0.854581 0.615000
0.923350 0.854581 0.615000
1.000000 0.854581 0.615000
1.000000 0.854581 0.615000
0.010225 0.958221 0.615000
0.106087 0.958221 0.615000
0.247354 0.958221 0.615000
0.428177 0.958221 0.615000
0.622082 0.958221 0.615000
0.794262 0.958221 0.615000
0.923350 0.958221 0.615000
1.000000 0.958221 0.615000
1.000000 0.958221 0.615000
0.010225 1.000000 0.615000
0.106087 1.000000 0.615000
0.247354 1.000000 0.615000
0.428177 1.000000 0.615000
0.622082 1.000000 0.615000
0.794262 1.000000 0.615000
0.923350 1.000000 0.615000
1.000000 1.000000 0.615000
1.000000 1.000000 0.615000
0.010225 0.005308 0.717500
0.106087 0.005308 0.717500
0.247354 0.005308 0.717500
0.428177 0.005308 0.717500
0.622082 0.005308 0.717500
0.794262 0.005308 0.717500
0.923350 0.005308 0.717500
1.000000 0.005308 0.717500
1.000000 0.005308 0.717500
0.010225 0.092509 0.717500
0.106087 0.092509 0.717500
0.247354 0.092509 0.717500
0.428177 0.092509 0.717500
0.622082 0.092509 0.717500
0.794262 0.092509 0.717500
0.923350 0.092509 0.717500
1.000000 0.092509 0.717500
1.000000 0.092509 0.717500
0.010225 0.215761 0.717500
0.106087 0.215761 0.717500
0.247354 0.215761 0.717500
0.428177 0.215761 0.717500
0.622082 0.215761 0.717500
0.794262 0.215761 0.717500
0.923350 0.215761 0.717500
1.000000 0.215761 0.717500
1.000000 0.215761 0.717500
0.010225 0.372464 0.717500
0.106087 0.372464 0.717500
0.247354 0.372464 0.717500
0.428177 0.372464 0.717500
0.622082 0.372464 0.717500
0.794262 0.372464 0.717500
0.923350 0.372464 0.717500
1.000000 0.372464 0.717500
1.000000 0.372464 0.717500
0.010225 0.546922 0.717500
0.106087 0.546922 0.717500
0.247354 0.546922 0.717500
0.428177 0.546922 0.717500
0.622082 0.546922 0.717500
0.794262 0.546922 0.717500
0.923350 0.546922 0.717500
1.000000 0.546922 0.717500
1.000000 0.546922 0.717500
0.010225 0.714631 0.717500
0.106087 0.714631 0.717500
0.247354 0.714631 0.717500
0.428177 0.714631 0.717500
0.622082 0.714631 0.717500
0.794262 0.714631 0.717500
0.923350 0.714631 0.717500
1.000000 0.714631 0.717500
1.000000 0.714631 0.717500
0.010225 0.854581 0.717500
0.106087 0.854581 0.717500
0.247354 0.854581 0.717500
0.428177 0.854581 0.717500
0.622082 0.854581 0.717500
0.794262 0.854581 0.717500
0.923350 0.854581 0.717500
1.000000 0.854581 0.717500
1.000000 0.854581 0.717500
0.010225 0.958221 0.717500
0.106087 0.958221 0.717500
0.247354 0.958221 0.717500
0.428177 0.958221 0.717500
0.622082 0.958221 0.717500
0.794262 0.958221 0.717500
0.923350 0.958221 0.717500
1.000000 0.958221 0.717500
1.000000 0.958221 0.717500
0.010225 1.000000 0.717500
0.106087 1.000000 0.717500
0.247354 1.000000 0.717500
0.428177 1.000000 0.717500
0.622082 1.000000 0.717500
0.794262 1.000000 0.717500
0.923350 1.000000 0.717500
1.000000 1.000000 0.717500
1.000000 1.000000 0.717500
0.010225 0.005308 0.820000
0.106087 0.005308 0.820000
0.247354 0.005308 0.820000
0.428177 0.005308 0.820000
0.622082 0.005308 0.820000
0.794262 0.005308 0.820000
0.923350 0.005308 0.820000
1.000000 0.005308 0.820000
1.000000 0.005308 0.820000
0.010225 0.092509 0.820000
0.106087 0.092509 0.820000
0.247354 0.092509 0.820000
0.428177 0.092509 0.820000
0.622082 0.092509 0.820000
0.794262 0.092509 0.820000
0.923350 0.092509 0.820000
1.000000 0.092509 0.820000
1.000000 0.092509 0.820000
0.010225 0.215761 0.820000
0.106087 0.215761 0.820000
0.247354 0.215761 0.820000
0.428177 0.215761 0.820000
0.622082 0.215761 0.820000
0.794262 0.215761 0.820000
0.923350 0.215761 0.820000
1.000000 0.215761 0.820000
1.000000 0.215761 0.820000
0.010225 0.372464 0.820000
0.106087 0.372464 0.820000
0.247354 0.372464 0.820000
0.428177 0.372464 0.820000
0.622082 0.372464 0.820000
0.794262 0.372464 0.820000
0.923350 0.372464 0.820000
1.000000 0.372464 0.820000
1.000000 0.372464 0.820000
0.010225 0.546922 0.820000
0.106087 0.546922 0.820000
0.247354 0.546922 0.820000
0.428177 0.546922 0.820000
0.622082 0.546922 0.820000
0.794262 0.546922 0.820000
0.923350 0.546922 0.820000
1.000000 0.546922 0.820000
1.000000 0.546922 0.820000
0.010225 0.714631 0.820000
0.106087 0.714631 0.820000
0.247354 0.714631 0.820000
0.428177 0.714631 0.820000
0.622082 0.714631 0.820000
0.794262 0.714631 0.820000
0.923350 0.714631 0.820000
1.000000 0.714631 0.820000
1.000000 0.714631 0.820000
0.010225 0.854581 0.820000
0.106087 0.854581 0.820000
0.247354 0.854581 0.820000
0.428177 0.854581 0.820000
0.622082 0.854581 0.820000
0.794262 0.854581 0.820000
0.923350 0.854581 0.820000
1.000000 0.854581 0.820000
1.000000 0.854581 0.820000
0.010225 0.958221 0.820000
0.106087 0.958221 0.820000
0.247354 0.958221 0.820000
0.428177 0.958221 0.820000
0.622082 0.958221 0.820000
0.794262 0.958221 0.820000
0.923350 0.958221 0.820000
1.000000 0.958221 0.820000
1.000000 0.958221 0.820000
0.010225 1.000000 0.820000
0.106087 1.000000 0.820000
0.247354 1.000000 0.820000
0.428177 1.000000 0.820000
0.622082 1.000000 0.820000
0.794262 1.000000 0.820000
0.923350 1.000000 0.820000
1.000000 1.000000 0.820000
1.000000 1.000000 0.820000
