public/luts/golden-hour.cube
# KomfyEdit 3D LUT: golden-hour
TITLE "golden-hour"
LUT_3D_SIZE 5
DOMAIN_MIN 0.0 0.0 0.0
DOMAIN_MAX 1.0 1.0 1.0
0.010225 0.005308 0.000000
0.247354 0.005308 0.000000
0.622082 0.005308 0.000000
0.923350 0.005308 0.000000
1.000000 0.005308 0.000000
0.010225 0.215761 0.000000
0.247354 0.215761 0.000000
0.622082 0.215761 0.000000
0.923350 0.215761 0.000000
1.000000 0.215761 0.000000
0.010225 0.546922 0.000000
0.247354 0.546922 0.000000
0.622082 0.546922 0.000000
0.923350 0.546922 0.000000
1.000000 0.546922 0.000000
0.010225 0.854581 0.000000
0.247354 0.854581 0.000000
0.622082 0.854581 0.000000
0.923350 0.854581 0.000000
1.000000 0.854581 0.000000
0.010225 1.000000 0.000000
0.247354 1.000000 0.000000
0.622082 1.000000 0.000000
0.923350 1.000000 0.000000
1.000000 1.000000 0.000000
0.010225 0.005308 0.205000
0.247354 0.005308 0.205000
0.622082 0.005308 0.205000
0.923350 0.005308 0.205000
1.000000 0.005308 0.205000
0.010225 0.215761 0.205000
0.247354 0.215761 0.205000
0.622082 0.215761 0.205000
0.923350 0.215761 0.205000
1.000000 0.215761 0.205000
0.010225 0.546922 0.205000
0.247354 0.546922 0.205000
0.622082 0.546922 0.205000
0.923350 0.546922 0.205000
1.000000 0.546922 0.205000
0.010225 0.854581 0.205000
0.247354 0.854581 0.205000
0.622082 0.854581 0.205000
0.923350 0.854581 0.205000
1.000000 0.854581 0.205000
0.010225 1.000000 0.205000
0.247354 1.000000 0.205000
0.622082 1.000000 0.205000
0.923350 1.000000 0.205000
1.000000 1.000000 0.205000
0.010225 0.005308 0.410000
0.247354 0.005308 0.410000
0.622082 0.005308 0.410000
0.923350 0.005308 0.410000
1.000000 0.005308 0.410000
0.010225 0.215761 0.410000
0.247354 0.215761 0.410000
0.622082 0.215761 0.410000
0.923350 0.215761 0.410000
1.000000 0.215761 0.410000
0.010225 0.546922 0.410000
0.247354 0.546922 0.410000
0.622082 0.546922 0.410000
0.923350 0.546922 0.410000
1.000000 0.546922 0.410000
0.010225 0.854581 0.410000
0.247354 0.854581 0.410000
0.622082 0.854581 0.410000
0.923350 0.854581 0.410000
1.000000 0.854581 0.410000
0.010225 1.000000 0.410000
0.247354 1.000000 0.410000
0.622082 1.000000 0.410000
0.923350 1.000000 0.410000
1.000000 1.000000 0.410000
0.010225 0.005308 0.615000
0.247354 0.005308 0.615000
0.622082 0.005308 0.615000
0.923350 0.005308 0.615000
1.000000 0.005308 0.615000
0.010225 0.215761 0.615000
0.247354 0.215761 0.615000
0.622082 0.215761 0.615000
0.923350 0.215761 0.615000
1.000000 0.215761 0.615000
0.010225 0.546922 0.615000
0.247354 0.546922 0.615000
0.622082 0.546922 0.615000
0.923350 0.546922 0.615000
1.000000 0.546922 0.615000
0.010225 0.854581 0.615000
0.247354 0.854581 0.615000
0.622082 0.854581 0.615000
0.923350 0.854581 0.615000
1.000000 0.854581 0.615000
0.010225 1.000000 0.615000
0.247354 1.000000 0.615000
0.622082 1.000000 0.615000
0.923350 1.000000 0.615000
1.000000 1.000000 0.615000
0.010225 0.005308 0.820000
0.247354 0.005308 0.820000
0.622082 0.005308 0.820000
0.923350 0.005308 0.820000
1.000000 0.005308 0.820000
0.010225 0.215761 0.820000
0.247354 0.215761 0.820000
0.622082 0.215761 0.820000
0.923350 0.215761 0.820000
1.000000 0.215761 0.820000
0.010225 0.546922 0.820000
0.247354 0.546922 0.820000
0.622082 0.546922 0.820000
0.923350 0.546922 0.820000
1.000000 0.546922 0.820000
0.010225 0.854581 0.820000
0.247354 0.854581 0.820000
0.622082 0.854581 0.820000
0.923350 0.854581 0.820000
1.000000 0.854581 0.820000
0.010225 1.000000 0.820000
0.247354 1.000000 0.820000
0.622082 1.000000 0.820000
0.923350 1.000000 0.820000
1.000000 1.000000 0.820000
