public/luts/golden-hour.cube
# KomfyEdit 3D LUT: golden-hour
TITLE "golden-hour"
LUT_3D_SIZE 33
DOMAIN_MIN 0.0 0.0 0.0
DOMAIN_MAX 1.0 1.0 1.0
0.010225 0.005308 0.000000
0.030271 0.005308 0.000000
0.052821 0.005308 0.000000
0.078047 0.005308 0.000000
0.106087 0.005308 0.000000
0.137038 0.005308 0.000000
0.170935 0.005308 0.000000
0.207746 0.005308 0.000000
0.247354 0.005308 0.000000
0.289550 0.005308 0.000000
0.334030 0.005308 0.000000
0.380398 0.005308 0.000000
0.428177 0.005308 0.000000
0.476822 0.005308 0.000000
0.525751 0.005308 0.000000
0.574365 0.005308 0.000000
0.622082 0.005308 0.000000
0.668362 0.005308 0.000000
0.712731 0.005308 0.000000
0.754797 0.005308 0.000000
0.794262 0.005308 0.000000
0.830922 0.005308 0.000000
0.864665 0.005308 0.000000
0.895460 0.005308 0.000000
0.923350 0.005308 0.000000
0.948431 0.005308 0.000000
0.970845 0.005308 0.000000
0.990764 0.005308 0.000000
1.000000 0.005308 0.000000
1.000000 0.005308 0.000000
1.000000 0.005308 0.000000
1.000000 0.005308 0.000000
1.000000 0.005308 0.000000
0.010225 0.023975 0.000000
0.030271 0.023975 0.000000
0.052821 0.023975 0.000000
0.078047 0.023975 0.000000
0.106087 0.023975 0.000000
0.137038 0.023975 0.000000
0.170935 0.023975 0.000000
0.207746 0.023975 0.000000
0.247354 0.023975 0.000000
0.289550 0.023975 0.000000
0.334030 0.023975 0.000000
0.380398 0.023975 0.000000
0.428177 0.023975 0.000000
0.476822 0.023975 0.000000
0.525751 0.023975 0.000000
0.574365 0.023975 0.000000
0.622082 0.023975 0.000000
0.668362 0.023975 0.000000
0.712731 0.023975 0.000000
0.754797 0.023975 0.000000
0.794262 0.023975 0.000000
0.830922 0.023975 0.000000
0.864665 0.023975 0.000000
0.895460 0.023975 0.000000
0.923350 0.023975 0.000000
0.948431 0.023975 0.000000
0.970845 0.023975 0.000000
0.990764 0.023975 0.000000
1.000000 0.023975 0.000000
1.000000 0.023975 0.000000
1.000000 0.023975 0.000000
1.000000 0.023975 0.000000
1.000000 0.023975 0.000000
0.010225 0.044657 0.000000
0.030271 0.044657 0.000000
0.052821 0.044657 0.000000
0.078047 0.044657 0.000000
0.106087 0.044657 0.000000
0.137038 0.044657 0.000000
0.170935 0.044657 0.000000
0.207746 0.044657 0.000000
0.247354 0.044657 0.000000
0.289550 0.044657 0.000000
0.334030 0.044657 0.000000
0.380398 0.044657 0.000000
0.428177 0.044657 0.000000
0.476822 0.044657 0.000000
0.525751 0.044657 0.000000
0.574365 0.044657 0.000000
0.622082 0.044657 0.000000
0.668362 0.044657 0.000000
0.712731 0.044657 0.000000
0.754797 0.044657 0.000000
0.794262 0.044657 0.000000
0.830922 0.044657 0.000000
0.864665 0.044657 0.000000
0.895460 0.044657 0.000000
0.923350 0.044657 0.000000
0.948431 0.044657 0.000000
0.970845 0.044657 0.000000
0.990764 0.044657 0.000000
1.000000 0.044657 0.000000
1.000000 0.044657 0.000000
1.000000 0.044657 0.000000
1.000000 0.044657 0.000000
1.000000 0.044657 0.000000
0.010225 0.067470 0.000000
0.030271 0.067470 0.000000
0.052821 0.067470 0.000000
0.078047 0.067470 0.000000
0.106087 0.067470 0.000000
0.137038 0.067470 0.000000
0.170935 0.067470 0.000000
0.207746 0.067470 0.000000
0.247354 0.067470 0.000000
0.289550 0.067470 0.000000
0.334030 0.067470 0.000000
0.380398 0.067470 0.000000
0.428177 0.067470 0.000000
0.476822 0.067470 0.000000
0.525751 0.067470 0.000000
0.574365 0.067470 0.000000
0.622082 0.067470 0.000000
0.668362 0.067470 0.000000
0.712731 0.067470 0.000000
0.754797 0.067470 0.000000
0.794262 0.067470 0.000000
0.830922 0.067470 0.000000
0.864665 0.067470 0.000000
0.895460 0.067470 0.000000
0.923350 0.067470 0.000000
0.948431 0.067470 0.000000
0.970845 0.067470 0.000000
0.990764 0.067470 0.000000
1.000000 0.067470 0.000000
1.000000 0.067470 0.000000
1.000000 0.067470 0.000000
1.000000 0.067470 0.000000
1.000000 0.067470 0.000000
0.010225 0.092509 0.000000
0.030271 0.092509 0.000000
0.052821 0.092509 0.000000
0.078047 0.092509 0.000000
0.106087 0.092509 0.000000
0.137038 0.092509 0.000000
0.170935 0.092509 0.000000
0.207746 0.092509 0.000000
0.247354 0.092509 0.000000
0.289550 0.092509 0.000000
0.334030 0.092509 0.000000
0.380398 0.092509 0.000000
0.428177 0.092509 0.000000
0.476822 0.092509 0.000000
0.525751 0.092509 0.000000
0.574365 0.092509 0.000000
0.622082 0.092509 0.000000
0.668362 0.092509 0.000000
0.712731 0.092509 0.000000
0.754797 0.092509 0.000000
0.794262 0.092509 0.000000
0.830922 0.092509 0.000000
0.864665 0.092509 0.000000
0.895460 0.092509 0.000000
0.923350 0.092509 0.000000
0.948431 0.092509 0.000000
0.970845 0.092509 0.000000
0.990764 0.092509 0.000000
1.000000 0.092509 0.000000
1.000000 0.092509 0.000000
1.000000 0.092509 0.000000
1.000000 0.092509 0.000000
1.000000 0.092509 0.000000
0.010225 0.119844 0.000000
0.030271 0.119844 0.000000
0.052821 0.119844 0.000000
0.078047 0.119844 0.000000
0.106087 0.119844 0.000000
0.137038 0.119844 0.000000
0.170935 0.119844 0.000000
0.207746 0.119844 0.000000
0.247354 0.119844 0.000000
0.289550 0.119844 0.000000
0.334030 0.119844 0.000000
0.380398 0.119844 0.000000
0.428177 0.119844 0.000000
0.476822 0.119844 0.000000
0.525751 0.119844 0.000000
0.574365 0.119844 0.000000
0.622082 0.119844 0.000000
0.668362 0.119844 0.000000
0.712731 0.119844 0.000000
0.754797 0.119844 0.000000
0.794262 0.119844 0.000000
0.830922 0.119844 0.000000
0.864665 0.119844 0.000000
0.895460 0.119844 0.000000
0.923350 0.119844 0.000000
0.948431 0.119844 0.000000
0.970845 0.119844 0.000000
0.990764 0.119844 0.000000
1.000000 0.119844 0.000000
1.000000 0.119844 0.000000
1.000000 0.119844 0.000000
1.000000 0.119844 0.000000
1.000000 0.119844 0.000000
0.010225 0.149510 0.000000
0.030271 0.149510 0.000000
0.052821 0.149510 0.000000
0.078047 0.149510 0.000000
0.106087 0.149510 0.000000
0.137038 0.149510 0.000000
0.170935 0.149510 0.000000
0.207746 0.149510 0.000000
0.247354 0.149510 0.000000
0.289550 0.149510 0.000000
0.334030 0.149510 0.000000
0.380398 0.149510 0.000000
0.428177 0.149510 0.000000
0.476822 0.149510 0.000000
0.525751 0.149510 0.000000
0.574365 0.149510 0.000000
0.622082 0.149510 0.000000
0.668362 0.149510 0.000000
0.712731 0.149510 0.000000
0.754797 0.149510 0.000000
0.794262 0.149510 0.000000
0.830922 0.149510 0.000000
0.864665 0.149510 0.000000
0.895460 0.149510 0.000000
0.923350 0.149510 0.000000
0.948431 0.149510 0.000000
0.970845 0.149510 0.000000
0.990764 0.149510 0.000000
1.000000 0.149510 0.000000
1.000000 0.149510 0.000000
1.000000 0.149510 0.000000
1.000000 0.149510 0.000000
1.000000 0.149510 0.000000
0.010225 0.181500 0.000000
0.030271 0.181500 0.000000
0.052821 0.181500 0.000000
0.078047 0.181500 0.000000
0.106087 0.181500 0.000000
0.137038 0.181500 0.000000
0.170935 0.181500 0.000000
0.207746 0.181500 0.000000
0.247354 0.181500 0.000000
0.289550 0.181500 0.000000
0.334030 0.181500 0.000000
0.380398 0.181500 0.000000
0.428177 0.181500 0.000000
0.476822 0.181500 0.000000
0.525751 0.181500 0.000000
0.574365 0.181500 0.000000
0.622082 0.181500 0.000000
0.668362 0.181500 0.000000
0.712731 0.181500 0.000000
0.754797 0.181500 0.000000
0.794262 0.181500 0.000000
0.830922 0.181500 0.000000
0.864665 0.181500 0.000000
0.895460 0.181500 0.000000
0.923350 0.181500 0.000000
0.948431 0.181500 0.000000
0.970845 0.181500 0.000000
0.990764 0.181500 0.000000
1.000000 0.181500 0.000000
1.000000 0.181500 0.000000
1.000000 0.181500 0.000000
1.000000 0.181500 0.000000
1.000000 0.181500 0.000000
0.010225 0.215761 0.000000
0.030271 0.215761 0.000000
0.052821 0.215761 0.000000
0.078047 0.215761 0.000000
0.106087 0.215761 0.000000
0.137038 0.215761 0.000000
0.170935 0.215761 0.000000
0.207746 0.215761 0.000000
0.247354 0.215761 0.000000
0.289550 0.215761 0.000000
0.334030 0.215761 0.000000
0.380398 0.215761 0.000000
0.428177 0.215761 0.000000
0.476822 0.215761 0.000000
0.525751 0.215761 0.000000
0.574365 0.215761 0.000000
0.622082 0.215761 0.000000
0.668362 0.215761 0.000000
0.712731 0.215761 0.000000
0.754797 0.215761 0.000000
0.794262 0.215761 0.000000
0.830922 0.215761 0.000000
0.864665 0.215761 0.000000
0.895460 0.215761 0.000000
0.923350 0.215761 0.000000
0.948431 0.215761 0.000000
0.970845 0.215761 0.000000
0.990764 0.215761 0.000000
1.000000 0.215761 0.000000
1.000000 0.215761 0.000000
1.000000 0.215761 0.000000
1.000000 0.215761 0.000000
1.000000 0.215761 0.000000
0.010225 0.252183 0.000000
0.030271 0.252183 0.000000
0.052821 0.252183 0.000000
0.078047 0.252183 0.000000
0.106087 0.252183 0.000000
0.137038 0.252183 0.000000
0.170935 0.252183 0.000000
0.207746 0.252183 0.000000
0.247354 0.252183 0.000000
0.289550 0.252183 0.000000
0.334030 0.252183 0.000000
0.380398 0.252183 0.000000
0.428177 0.252183 0.000000
0.476822 0.252183 0.000000
0.525751 0.252183 0.000000
0.574365 0.252183 0.000000
0.622082 0.252183 0.000000
0.668362 0.252183 0.000000
0.712731 0.252183 0.000000
0.754797 0.252183 0.000000
0.794262 0.252183 0.000000
0.830922 0.252183 0.000000
0.864665 0.252183 0.000000
0.895460 0.252183 0.000000
0.923350 0.252183 0.000000
0.948431 0.252183 0.000000
0.970845 0.252183 0.000000
0.990764 0.252183 0.000000
1.000000 0.252183 0.000000
1.000000 0.252183 0.000000
1.000000 0.252183 0.000000
1.000000 0.252183 0.000000
1.000000 0.252183 0.000000
0.010225 0.290599 0.000000
0.030271 0.290599 0.000000
0.052821 0.290599 0.000000
0.078047 0.290599 0.000000
0.106087 0.290599 0.000000
0.137038 0.290599 0.000000
0.170935 0.290599 0.000000
0.207746 0.290599 0.000000
0.247354 0.290599 0.000000
0.289550 0.290599 0.000000
0.334030 0.290599 0.000000
0.380398 0.290599 0.000000
0.428177 0.290599 0.000000
0.476822 0.290599 0.000000
0.525751 0.290599 0.000000
0.574365 0.290599 0.000000
0.622082 0.290599 0.000000
0.668362 0.290599 0.000000
0.712731 0.290599 0.000000
0.754797 0.290599 0.000000
0.794262 0.290599 0.000000
0.830922 0.290599 0.000000
0.864665 0.290599 0.000000
0.895460 0.290599 0.000000
0.923350 0.290599 0.000000
0.948431 0.290599 0.000000
0.970845 0.290599 0.000000
0.990764 0.290599 0.000000
1.000000 0.290599 0.000000
1.000000 0.290599 0.000000
1.000000 0.290599 0.000000
1.000000 0.290599 0.000000
1.000000 0.290599 0.000000
0.010225 0.330787 0.000000
0.030271 0.330787 0.000000
0.052821 0.330787 0.000000
0.078047 0.330787 0.000000
0.106087 0.330787 0.000000
0.137038 0.330787 0.000000
0.170935 0.330787 0.000000
0.207746 0.330787 0.000000
0.247354 0.330787 0.000000
0.289550 0.330787 0.000000
0.334030 0.330787 0.000000
0.380398 0.330787 0.000000
0.428177 0.330787 0.000000
0.476822 0.330787 0.000000
0.525751 0.330787 0.000000
0.574365 0.330787 0.000000
0.622082 0.330787 0.000000
0.668362 0.330787 0.000000
0.712731 0.330787 0.000000
0.754797 0.330787 0.000000
0.794262 0.330787 0.000000
0.830922 0.330787 0.000000
0.864665 0.330787 0.000000
0.895460 0.330787 0.000000
0.923350 0.330787 0.000000
0.948431 0.330787 0.000000
0.970845 0.330787 0.000000
0.990764 0.330787 0.000000
1.000000 0.330787 0.000000
1.000000 0.330787 0.000000
1.000000 0.330787 0.000000
1.000000 0.330787 0.000000
1.000000 0.330787 0.000000
0.010225 0.372464 0.000000
0.030271 0.372464 0.000000
0.052821 0.372464 0.000000
0.078047 0.372464 0.000000
0.106087 0.372464 0.000000
0.137038 0.372464 0.000000
0.170935 0.372464 0.000000
0.207746 0.372464 0.000000
0.247354 0.372464 0.000000
0.289550 0.372464 0.000000
0.334030 0.372464 0.000000
0.380398 0.372464 0.000000
0.428177 0.372464 0.000000
0.476822 0.372464 0.000000
0.525751 0.372464 0.000000
0.574365 0.372464 0.000000
0.622082 0.372464 0.000000
0.668362 0.372464 0.000000
0.712731 0.372464 0.000000
0.754797 0.372464 0.000000
0.794262 0.372464 0.000000
0.830922 0.372464 0.000000
0.864665 0.372464 0.000000
0.895460 0.372464 0.000000
0.923350 0.372464 0.000000
0.948431 0.372464 0.000000
0.970845 0.372464 0.000000
0.990764 0.372464 0.000000
1.000000 0.372464 0.000000
1.000000 0.372464 0.000000
1.000000 0.372464 0.000000
1.000000 0.372464 0.000000
1.000000 0.372464 0.000000
0.010225 0.415301 0.000000
0.030271 0.415301 0.000000
0.052821 0.415301 0.000000
0.078047 0.415301 0.000000
0.106087 0.415301 0.000000
0.137038 0.415301 0.000000
0.170935 0.415301 0.000000
0.207746 0.415301 0.000000
0.247354 0.415301 0.000000
0.289550 0.415301 0.000000
0.334030 0.415301 0.000000
0.380398 0.415301 0.000000
0.428177 0.415301 0.000000
0.476822 0.415301 0.000000
0.525751 0.415301 0.000000
0.574365 0.415301 0.000000
0.622082 0.415301 0.000000
0.668362 0.415301 0.000000
0.712731 0.415301 0.000000
0.754797 0.415301 0.000000
0.794262 0.415301 0.000000
0.830922 0.415301 0.000000
0.864665 0.415301 0.000000
0.895460 0.415301 0.000000
0.923350 0.415301 0.000000
0.948431 0.415301 0.000000
0.970845 0.415301 0.000000
0.990764 0.415301 0.000000
1.000000 0.415301 0.000000
1.000000 0.415301 0.000000
1.000000 0.415301 0.000000
1.000000 0.415301 0.000000
1.000000 0.415301 0.000000
0.010225 0.458926 0.000000
0.030271 0.458926 0.000000
0.052821 0.458926 0.000000
0.078047 0.458926 0.000000
0.106087 0.458926 0.000000
0.137038 0.458926 0.000000
0.170935 0.458926 0.000000
0.207746 0.458926 0.000000
0.247354 0.458926 0.000000
0.289550 0.458926 0.000000
0.334030 0.458926 0.000000
0.380398 0.458926 0.000000
0.428177 0.458926 0.000000
0.476822 0.458926 0.000000
0.525751 0.458926 0.000000
0.574365 0.458926 0.000000
0.622082 0.458926 0.000000
0.668362 0.458926 0.000000
0.712731 0.458926 0.000000
0.754797 0.458926 0.000000
0.794262 0.458926 0.000000
0.830922 0.458926 0.000000
0.864665 0.458926 0.000000
0.895460 0.458926 0.000000
0.923350 0.458926 0.000000
0.948431 0.458926 0.000000
0.970845 0.458926 0.000000
0.990764 0.458926 0.000000
1.000000 0.458926 0.000000
1.000000 0.458926 0.000000
1.000000 0.458926 0.000000
1.000000 0.458926 0.000000
1.000000 0.458926 0.000000
0.010225 0.502938 0.000000
0.030271 0.502938 0.000000
0.052821 0.502938 0.000000
0.078047 0.502938 0.000000
0.106087 0.502938 0.000000
0.137038 0.502938 0.000000
0.170935 0.502938 0.000000
0.207746 0.502938 0.000000
0.247354 0.502938 0.000000
0.289550 0.502938 0.000000
0.334030 0.502938 0.000000
0.380398 0.502938 0.000000
0.428177 0.502938 0.000000
0.476822 0.502938 0.000000
0.525751 0.502938 0.000000
0.574365 0.502938 0.000000
0.622082 0.502938 0.000000
0.668362 0.502938 0.000000
0.712731 0.502938 0.000000
0.754797 0.502938 0.000000
0.794262 0.502938 0.000000
0.830922 0.502938 0.000000
0.864665 0.502938 0.000000
0.895460 0.502938 0.000000
0.923350 0.502938 0.000000
0.948431 0.502938 0.000000
0.970845 0.502938 0.000000
0.990764 0.502938 0.000000
1.000000 0.502938 0.000000
1.000000 0.502938 0.000000
1.000000 0.502938 0.000000
1.000000 0.502938 0.000000
1.000000 0.502938 0.000000
0.010225 0.546922 0.000000
0.030271 0.546922 0.000000
0.052821 0.546922 0.000000
0.078047 0.546922 0.000000
0.106087 0.546922 0.000000
0.137038 0.546922 0.000000
0.170935 0.546922 0.000000
0.207746 0.546922 0.000000
0.247354 0.546922 0.000000
0.289550 0.546922 0.000000
0.334030 0.546922 0.000000
0.380398 0.546922 0.000000
0.428177 0.546922 0.000000
0.476822 0.546922 0.000000
0.525751 0.546922 0.000000
0.574365 0.546922 0.000000
0.622082 0.546922 0.000000
0.668362 0.546922 0.000000
0.712731 0.546922 0.000000
0.754797 0.546922 0.000000
0.794262 0.546922 0.000000
0.830922 0.546922 0.000000
0.864665 0.546922 0.000000
0.895460 0.546922 0.000000
0.923350 0.546922 0.000000
0.948431 0.546922 0.000000
0.970845 0.546922 0.000000
0.990764 0.546922 0.000000
1.000000 0.546922 0.000000
1.000000 0.546922 0.000000
1.000000 0.546922 0.000000
1.000000 0.546922 0.000000
1.000000 0.546922 0.000000
0.010225 0.590464 0.000000
0.030271 0.590464 0.000000
0.052821 0.590464 0.000000
0.078047 0.590464 0.000000
0.106087 0.590464 0.000000
0.137038 0.590464 0.000000
0.170935 0.590464 0.000000
0.207746 0.590464 0.000000
0.247354 0.590464 0.000000
0.289550 0.590464 0.000000
0.334030 0.590464 0.000000
0.380398 0.590464 0.000000
0.428177 0.590464 0.000000
0.476822 0.590464 0.000000
0.525751 0.590464 0.000000
0.574365 0.590464 0.000000
0.622082 0.590464 0.000000
0.668362 0.590464 0.000000
0.712731 0.590464 0.000000
0.754797 0.590464 0.000000
0.794262 0.590464 0.000000
0.830922 0.590464 0.000000
0.864665 0.590464 0.000000
0.895460 0.590464 0.000000
0.923350 0.590464 0.000000
0.948431 0.590464 0.000000
0.970845 0.590464 0.000000
0.990764 0.590464 0.000000
1.000000 0.590464 0.000000
1.000000 0.590464 0.000000
1.000000 0.590464 0.000000
1.000000 0.590464 0.000000
1.000000 0.590464 0.000000
0.010225 0.633168 0.000000
0.030271 0.633168 0.000000
0.052821 0.633168 0.000000
0.078047 0.633168 0.000000
0.106087 0.633168 0.000000
0.137038 0.633168 0.000000
0.170935 0.633168 0.000000
0.207746 0.633168 0.000000
0.247354 0.633168 0.000000
0.289550 0.633168 0.000000
0.334030 0.633168 0.000000
0.380398 0.633168 0.000000
0.428177 0.633168 0.000000
0.476822 0.633168 0.000000
0.525751 0.633168 0.000000
0.574365 0.633168 0.000000
0.622082 0.633168 0.000000
0.668362 0.633168 0.000000
0.712731 0.633168 0.000000
0.754797 0.633168 0.000000
0.794262 0.633168 0.000000
0.830922 0.633168 0.000000
0.864665 0.633168 0.000000
0.895460 0.633168 0.000000
0.923350 0.633168 0.000000
0.948431 0.633168 0.000000
0.970845 0.633168 0.000000
0.990764 0.633168 0.000000
1.000000 0.633168 0.000000
1.000000 0.633168 0.000000
1.000000 0.633168 0.000000
1.000000 0.633168 0.000000
1.000000 0.633168 0.000000
0.010225 0.674664 0.000000
0.030271 0.674664 0.000000
0.052821 0.674664 0.000000
0.078047 0.674664 0.000000
0.106087 0.674664 0.000000
0.137038 0.674664 0.000000
0.170935 0.674664 0.000000
0.207746 0.674664 0.000000
0.247354 0.674664 0.000000
0.289550 0.674664 0.000000
0.334030 0.674664 0.000000
0.380398 0.674664 0.000000
0.428177 0.674664 0.000000
0.476822 0.674664 0.000000
0.525751 0.674664 0.000000
0.574365 0.674664 0.000000
0.622082 0.674664 0.000000
0.668362 0.674664 0.000000
0.712731 0.674664 0.000000
0.754797 0.674664 0.000000
0.794262 0.674664 0.000000
0.830922 0.674664 0.000000
0.864665 0.674664 0.000000
0.895460 0.674664 0.000000
0.923350 0.674664 0.000000
0.948431 0.674664 0.000000
0.970845 0.674664 0.000000
0.990764 0.674664 0.000000
1.000000 0.674664 0.000000
1.000000 0.674664 0.000000
1.000000 0.674664 0.000000
1.000000 0.674664 0.000000
1.000000 0.674664 0.000000
0.010225 0.714631 0.000000
0.030271 0.714631 0.000000
0.052821 0.714631 0.000000
0.078047 0.714631 0.000000
0.106087 0.714631 0.000000
0.137038 0.714631 0.000000
0.170935 0.714631 0.000000
0.207746 0.714631 0.000000
0.247354 0.714631 0.000000
0.289550 0.714631 0.000000
0.334030 0.714631 0.000000
0.380398 0.714631 0.000000
0.428177 0.714631 0.000000
0.476822 0.714631 0.000000
0.525751 0.714631 0.000000
0.574365 0.714631 0.000000
0.622082 0.714631 0.000000
0.668362 0.714631 0.000000
0.712731 0.714631 0.000000
0.754797 0.714631 0.000000
0.794262 0.714631 0.000000
0.830922 0.714631 0.000000
0.864665 0.714631 0.000000
0.895460 0.714631 0.000000
0.923350 0.714631 0.000000
0.948431 0.714631 0.000000
0.970845 0.714631 0.000000
0.990764 0.714631 0.000000
1.000000 0.714631 0.000000
1.000000 0.714631 0.000000
1.000000 0.714631 0.000000
1.000000 0.714631 0.000000
1.000000 0.714631 0.000000
0.010225 0.752793 0.000000
0.030271 0.752793 0.000000
0.052821 0.752793 0.000000
0.078047 0.752793 0.000000
0.106087 0.752793 0.000000
0.137038 0.752793 0.000000
0.170935 0.752793 0.000000
0.207746 0.752793 0.000000
0.247354 0.752793 0.000000
0.289550 0.752793 0.000000
0.334030 0.752793 0.000000
0.380398 0.752793 0.000000
0.428177 0.752793 0.000000
0.476822 0.752793 0.000000
0.525751 0.752793 0.000000
0.574365 0.752793 0.000000
0.622082 0.752793 0.000000
0.668362 0.752793 0.000000
0.712731 0.752793 0.000000
0.754797 0.752793 0.000000
0.794262 0.752793 0.000000
0.830922 0.752793 0.000000
0.864665 0.752793 0.000000
0.895460 0.752793 0.000000
0.923350 0.752793 0.000000
0.948431 0.752793 0.000000
0.970845 0.752793 0.000000
0.990764 0.752793 0.000000
1.000000 0.752793 0.000000
1.000000 0.752793 0.000000
1.000000 0.752793 0.000000
1.000000 0.752793 0.000000
1.000000 0.752793 0.000000
0.010225 0.788935 0.000000
0.030271 0.788935 0.000000
0.052821 0.788935 0.000000
0.078047 0.788935 0.000000
0.106087 0.788935 0.000000
0.137038 0.788935 0.000000
0.170935 0.788935 0.000000
0.207746 0.788935 0.000000
0.247354 0.788935 0.000000
0.289550 0.788935 0.000000
0.334030 0.788935 0.000000
0.380398 0.788935 0.000000
0.428177 0.788935 0.000000
0.476822 0.788935 0.000000
0.525751 0.788935 0.000000
0.574365 0.788935 0.000000
0.622082 0.788935 0.000000
0.668362 0.788935 0.000000
0.712731 0.788935 0.000000
0.754797 0.788935 0.000000
0.794262 0.788935 0.000000
0.830922 0.788935 0.000000
0.864665 0.788935 0.000000
0.895460 0.788935 0.000000
0.923350 0.788935 0.000000
0.948431 0.788935 0.000000
0.970845 0.788935 0.000000
0.990764 0.788935 0.000000
1.000000 0.788935 0.000000
1.000000 0.788935 0.000000
1.000000 0.788935 0.000000
1.000000 0.788935 0.000000
1.000000 0.788935 0.000000
0.010225 0.822898 0.000000
0.030271 0.822898 0.000000
0.052821 0.822898 0.000000
0.078047 0.822898 0.000000
0.106087 0.822898 0.000000
0.137038 0.822898 0.000000
0.170935 0.822898 0.000000
0.207746 0.822898 0.000000
0.247354 0.822898 0.000000
0.289550 0.822898 0.000000
0.334030 0.822898 0.000000
0.380398 0.822898 0.000000
0.428177 0.822898 0.000000
0.476822 0.822898 0.000000
0.525751 0.822898 0.000000
0.574365 0.822898 0.000000
0.622082 0.822898 0.000000
0.668362 0.822898 0.000000
0.712731 0.822898 0.000000
0.754797 0.822898 0.000000
0.794262 0.822898 0.000000
0.830922 0.822898 0.000000
0.864665 0.822898 0.000000
0.895460 0.822898 0.000000
0.923350 0.822898 0.000000
0.948431 0.822898 0.000000
0.970845 0.822898 0.000000
0.990764 0.822898 0.000000
1.000000 0.822898 0.000000
1.000000 0.822898 0.000000
1.000000 0.822898 0.000000
1.000000 0.822898 0.000000
1.000000 0.822898 0.000000
0.010225 0.854581 0.000000
0.030271 0.854581 0.000000
0.052821 0.854581 0.000000
0.078047 0.854581 0.000000
0.106087 0.854581 0.000000
0.137038 0.854581 0.000000
0.170935 0.854581 0.000000
0.207746 0.854581 0.000000
0.247354 0.854581 0.000000
0.289550 0.854581 0.000000
0.334030 0.854581 0.000000
0.380398 0.854581 0.000000
0.428177 0.854581 0.000000
0.476822 0.854581 0.000000
0.525751 0.854581 0.000000
0.574365 0.854581 0.000000
0.622082 0.854581 0.000000
0.668362 0.854581 0.000000
0.712731 0.854581 0.000000
0.754797 0.854581 0.000000
0.794262 0.854581 0.000000
0.830922 0.854581 0.000000
0.864665 0.854581 0.000000
0.895460 0.854581 0.000000
0.923350 0.854581 0.000000
0.948431 0.854581 0.000000
0.970845 0.854581 0.000000
0.990764 0.854581 0.000000
1.000000 0.854581 0.000000
1.000000 0.854581 0.000000
1.000000 0.854581 0.000000
1.000000 0.854581 0.000000
1.000000 0.854581 0.000000
0.010225 0.883935 0.000000
0.030271 0.883935 0.000000
0.052821 0.883935 0.000000
0.078047 0.883935 0.000000
0.106087 0.883935 0.000000
0.137038 0.883935 0.000000
0.170935 0.883935 0.000000
0.207746 0.883935 0.000000
0.247354 0.883935 0.000000
0.289550 0.883935 0.000000
0.334030 0.883935 0.000000
0.380398 0.883935 0.000000
0.428177 0.883935 0.000000
0.476822 0.883935 0.000000
0.525751 0.883935 0.000000
0.574365 0.883935 0.000000
0.622082 0.883935 0.000000
0.668362 0.883935 0.000000
0.712731 0.883935 0.000000
0.754797 0.883935 0.000000
0.794262 0.883935 0.000000
0.830922 0.883935 0.000000
0.864665 0.883935 0.000000
0.895460 0.883935 0.000000
0.923350 0.883935 0.000000
0.948431 0.883935 0.000000
0.970845 0.883935 0.000000
0.990764 0.883935 0.000000
1.000000 0.883935 0.000000
1.000000 0.883935 0.000000
1.000000 0.883935 0.000000
1.000000 0.883935 0.000000
1.000000 0.883935 0.000000
0.010225 0.910961 0.000000
0.030271 0.910961 0.000000
0.052821 0.910961 0.000000
0.078047 0.910961 0.000000
0.106087 0.910961 0.000000
0.137038 0.910961 0.000000
0.170935 0.910961 0.000000
0.207746 0.910961 0.000000
0.247354 0.910961 0.000000
0.289550 0.910961 0.000000
0.334030 0.910961 0.000000
0.380398 0.910961 0.000000
0.428177 0.910961 0.000000
0.476822 0.910961 0.000000
0.525751 0.910961 0.000000
0.574365 0.910961 0.000000
0.622082 0.910961 0.000000
0.668362 0.910961 0.000000
0.712731 0.910961 0.000000
0.754797 0.910961 0.000000
0.794262 0.910961 0.000000
0.830922 0.910961 0.000000
0.864665 0.910961 0.000000
0.895460 0.910961 0.000000
0.923350 0.910961 0.000000
0.948431 0.910961 0.000000
