public/luts/noir-bw.cube
# KomfyEdit 3D LUT: noir-bw
TITLE "noir-bw"
LUT_3D_SIZE 9
DOMAIN_MIN 0.0 0.0 0.0
DOMAIN_MAX 1.0 1.0 1.0
0.000000 0.000000 0.000000
0.009235 0.009235 0.009235
0.020390 0.020390 0.020390
0.033780 0.033780 0.033780
0.049734 0.049734 0.049734
0.068575 0.068575 0.068575
0.129418 0.129418 0.129418
0.165729 0.165729 0.165729
0.207059 0.207059 0.207059
0.019942 0.019942 0.019942
0.033244 0.033244 0.033244
0.049098 0.049098 0.049098
0.067827 0.067827 0.067827
0.128176 0.128176 0.128176
0.164305 0.164305 0.164305
0.205450 0.205450 0.205450
0.251566 0.251566 0.251566
0.302337 0.302337 0.302337
0.048466 0.048466 0.048466
0.067084 0.067084 0.067084
0.126941 0.126941 0.126941
0.162887 0.162887 0.162887
0.203847 0.203847 0.203847
0.249784 0.249784 0.249784
0.300393 0.300393 0.300393
0.355067 0.355067 0.355067
0.412894 0.412894 0.412894
0.125713 0.125713 0.125713
0.161476 0.161476 0.161476
0.202251 0.202251 0.202251
0.248008 0.248008 0.248008
0.298455 0.298455 0.298455
0.352993 0.352993 0.352993
0.410724 0.410724 0.410724
0.470483 0.470483 0.470483
0.530929 0.530929 0.530929
0.200661 0.200661 0.200661
0.246239 0.246239 0.246239
0.296522 0.296522 0.296522
0.350924 0.350924 0.350924
0.408556 0.408556 0.408556
0.468264 0.468264 0.468264
0.528709 0.528709 0.528709
0.588487 0.588487 0.588487
0.646253 0.646253 0.646253
0.294594 0.294594 0.294594
0.348859 0.348859 0.348859
0.406392 0.406392 0.406392
0.466046 0.466046 0.466046
0.526489 0.526489 0.526489
0.586316 0.586316 0.586316
0.644178 0.644178 0.644178
0.698900 0.698900 0.698900
0.749569 0.749569 0.749569
0.404230 0.404230 0.404230
0.463829 0.463829 0.463829
0.524268 0.524268 0.524268
0.584142 0.584142 0.584142
0.642098 0.642098 0.642098
0.696954 0.696954 0.696954
0.747785 0.747785 0.747785
0.793966 0.793966 0.793966
0.835178 0.835178 0.835178
0.522045 0.522045 0.522045
0.581965 0.581965 0.581965
0.640014 0.640014 0.640014
0.695003 0.695003 0.695003
0.745994 0.745994 0.745994
0.792354 0.792354 0.792354
0.833751 0.833751 0.833751
0.870129 0.870129 0.870129
0.901646 0.901646 0.901646
0.637926 0.637926 0.637926
0.693046 0.693046 0.693046
0.744197 0.744197 0.744197
0.790735 0.790735 0.790735
0.832318 0.832318 0.832318
0.868878 0.868878 0.868878
0.900569 0.900569 0.900569
0.927703 0.927703 0.927703
0.950690 0.950690 0.950690
0.003314 0.003314 0.003314
0.013245 0.013245 0.013245
0.025214 0.025214 0.025214
0.039543 0.039543 0.039543
0.056560 0.056560 0.056560
0.109401 0.109401 0.109401
0.142677 0.142677 0.142677
0.180892 0.180892 0.180892
0.224136 0.224136 0.224136
0.024734 0.024734 0.024734
0.038970 0.038970 0.038970
0.055883 0.055883 0.055883
0.108268 0.108268 0.108268
0.141366 0.141366 0.141366
0.179397 0.179397 0.179397
0.222457 0.222457 0.222457
0.270401 0.270401 0.270401
0.322801 0.322801 0.322801
0.055210 0.055210 0.055210
0.107142 0.107142 0.107142
0.140062 0.140062 0.140062
0.177909 0.177909 0.177909
0.220784 0.220784 0.220784
0.268555 0.268555 0.268555
0.320802 0.320802 0.320802
0.376802 0.376802 0.376802
0.435535 0.435535 0.435535
0.138765 0.138765 0.138765
0.176428 0.176428 0.176428
0.219119 0.219119 0.219119
0.266715 0.266715 0.266715
0.318808 0.318808 0.318808
0.374686 0.374686 0.374686
0.433339 0.433339 0.433339
0.493525 0.493525 0.493525
0.553861 0.553861 0.553861
0.217460 0.217460 0.217460
0.264880 0.264880 0.264880
0.316820 0.316820 0.316820
0.372574 0.372574 0.372574
0.431146 0.431146 0.431146
0.491299 0.491299 0.491299
0.551655 0.551655 0.551655
0.610817 0.610817 0.610817
0.667496 0.667496 0.667496
0.314836 0.314836 0.314836
0.370466 0.370466 0.370466
0.428955 0.428955 0.428955
0.489074 0.489074 0.489074
0.549448 0.549448 0.549448
0.608677 0.608677 0.608677
0.665468 0.665468 0.665468
0.718737 0.718737 0.718737
0.767682 0.767682 0.767682
0.426766 0.426766 0.426766
0.486849 0.486849 0.486849
0.547238 0.547238 0.547238
0.606534 0.606534 0.606534
0.663436 0.663436 0.663436
0.716850 0.716850 0.716850
0.765964 0.765964 0.765964
0.810273 0.810273 0.810273
0.849565 0.849565 0.849565
0.545028 0.545028 0.545028
0.604388 0.604388 0.604388
0.661398 0.661398 0.661398
0.714957 0.714957 0.714957
0.764241 0.764241 0.764241
0.808731 0.808731 0.808731
0.848209 0.848209 0.848209
0.882704 0.882704 0.882704
0.912445 0.912445 0.912445
0.659356 0.659356 0.659356
0.713058 0.713058 0.713058
0.762510 0.762510 0.762510
0.807183 0.807183 0.807183
0.846845 0.846845 0.846845
0.881521 0.881521 0.881521
0.911431 0.911431 0.911431
0.936932 0.936932 0.936932
0.958458 0.958458 0.958458
0.006880 0.006880 0.006880
0.017551 0.017551 0.017551
0.030381 0.030381 0.030381
0.045696 0.045696 0.045696
0.063824 0.063824 0.063824
0.121519 0.121519 0.121519
0.156655 0.156655 0.156655
0.196789 0.196789 0.196789
0.241924 0.241924 0.241924
0.029867 0.029867 0.029867
0.045085 0.045085 0.045085
0.063103 0.063103 0.063103
0.120320 0.120320 0.120320
0.155275 0.155275 0.155275
0.195224 0.195224 0.195224
0.240177 0.240177 0.240177
0.289888 0.289888 0.289888
0.343809 0.343809 0.343809
0.062387 0.062387 0.062387
0.119127 0.119127 0.119127
0.153901 0.153901 0.153901
0.193664 0.193664 0.193664
0.238437 0.238437 0.238437
0.287980 0.287980 0.287980
0.341760 0.341760 0.341760
0.398936 0.398936 0.398936
0.458392 0.458392 0.458392
0.152534 0.152534 0.152534
0.192112 0.192112 0.192112
0.236703 0.236703 0.236703
0.286078 0.286078 0.286078
0.339715 0.339715 0.339715
0.396785 0.396785 0.396785
0.456179 0.456179 0.456179
0.516588 0.516588 0.516588
0.576612 0.576612 0.576612
0.234975 0.234975 0.234975
0.284182 0.284182 0.284182
0.337675 0.337675 0.337675
0.394636 0.394636 0.394636
0.453967 0.453967 0.453967
0.514364 0.514364 0.514364
0.574426 0.574426 0.574426
0.632784 0.632784 0.632784
0.688219 0.688219 0.688219
0.335640 0.335640 0.335640
0.392491 0.392491 0.392491
0.451757 0.451757 0.451757
0.512140 0.512140 0.512140
0.572239 0.572239 0.572239
0.630682 0.630682 0.630682
0.686244 0.686244 0.686244
0.737942 0.737942 0.737942
0.785091 0.785091 0.785091
0.449549 0.449549 0.449549
0.509914 0.509914 0.509914
0.570049 0.570049 0.570049
0.628576 0.628576 0.628576
0.684263 0.684263 0.684263
0.736117 0.736117 0.736117
0.783442 0.783442 0.783442
0.825849 0.825849 0.825849
0.863227 0.863227 0.863227
0.567857 0.567857 0.567857
0.626466 0.626466 0.626466
0.682277 0.682277 0.682277
0.734287 0.734287 0.734287
0.781787 0.781787 0.781787
0.824378 0.824378 0.824378
0.861940 0.861940 0.861940
0.894587 0.894587 0.894587
0.922604 0.922604 0.922604
0.680286 0.680286 0.680286
0.732450 0.732450 0.732450
0.780125 0.780125 0.780125
0.822900 0.822900 0.822900
0.860646 0.860646 0.860646
0.893470 0.893470 0.893470
0.921651 0.921651 0.921651
0.945583 0.945583 0.945583
0.965717 0.965717 0.965717
0.010714 0.010714 0.010714
0.022170 0.022170 0.022170
0.035909 0.035909 0.035909
0.052259 0.052259 0.052259
0.102200 0.102200 0.102200
0.134335 0.134335 0.134335
0.171362 0.171362 0.171362
0.213416 0.213416 0.213416
0.260405 0.260405 0.260405
0.035359 0.035359 0.035359
0.051607 0.051607 0.051607
0.101107 0.101107 0.101107
0.133068 0.133068 0.133068
0.169911 0.169911 0.169911
0.211780 0.211780 0.211780
0.258592 0.258592 0.258592
0.309989 0.309989 0.309989
0.365308 0.365308 0.365308
0.100021 0.100021 0.100021
0.131807 0.131807 0.131807
0.168467 0.168467 0.168467
0.210151 0.210151 0.210151
0.256785 0.256785 0.256785
0.308024 0.308024 0.308024
0.363214 0.363214 0.363214
0.421404 0.421404 0.421404
0.481390 0.481390 0.481390
0.167030 0.167030 0.167030
0.208528 0.208528 0.208528
0.254985 0.254985 0.254985
0.306064 0.306064 0.306064
0.361124 0.361124 0.361124
0.419223 0.419223 0.419223
0.479167 0.479167 0.479167
0.539595 0.539595 0.539595
0.599105 0.599105 0.599105
0.253191 0.253191 0.253191
0.304109 0.304109 0.304109
0.359038 0.359038 0.359038
0.417045 0.417045 0.417045
0.476944 0.476944 0.476944
0.537380 0.537380 0.537380
0.596948 0.596948 0.596948
0.654324 0.654324 0.654324
0.708373 0.708373 0.708373
0.356956 0.356956 0.356956
0.414870 0.414870 0.414870
0.474723 0.474723 0.474723
0.535164 0.535164 0.535164
0.594788 0.594788 0.594788
0.652265 0.652265 0.652265
0.706455 0.706455 0.706455
0.756482 0.756482 0.756482
0.801781 0.801781 0.801781
0.472502 0.472502 0.472502
0.532946 0.532946 0.532946
0.592625 0.592625 0.592625
0.650203 0.650203 0.650203
0.704530 0.704530 0.704530
0.754723 0.754723 0.754723
0.800203 0.800203 0.800203
0.840691 0.840691 0.840691
0.876173 0.876173 0.876173
0.590459 0.590459 0.590459
0.648136 0.648136 0.648136
0.702600 0.702600 0.702600
0.752957 0.752957 0.752957
0.798617 0.798617 0.798617
0.839290 0.839290 0.839290
0.874954 0.874954 0.874954
0.905796 0.905796 0.905796
0.932148 0.932148 0.932148
0.700665 0.700665 0.700665
0.751185 0.751185 0.751185
0.797025 0.797025 0.797025
0.837883 0.837883 0.837883
0.873730 0.873730 0.873730
0.904743 0.904743 0.904743
0.931253 0.931253 0.931253
0.953682 0.953682 0.953682
0.972492 0.972492 0.972492
0.014834 0.014834 0.014834
0.027122 0.027122 0.027122
0.041817 0.041817 0.041817
0.059248 0.059248 0.059248
0.113891 0.113891 0.113891
0.147864 0.147864 0.147864
0.186803 0.186803 0.186803
0.230763 0.230763 0.230763
0.279552 0.279552 0.279552
0.041230 0.041230 0.041230
0.058554 0.058554 0.058554
0.112733 0.112733 0.112733
0.146527 0.146527 0.146527
0.185281 0.185281 0.185281
0.229058 0.229058 0.229058
0.277677 0.277677 0.277677
0.330664 0.330664 0.330664
0.387240 0.387240 0.387240
0.111582 0.111582 0.111582
0.145197 0.145197 0.145197
0.183766 0.183766 0.183766
0.227360 0.227360 0.227360
0.275807 0.275807 0.275807
0.328646 0.328646 0.328646
0.385107 0.385107 0.385107
0.444135 0.444135 0.444135
0.504452 0.504452 0.504452
0.182258 0.182258 0.182258
0.225668 0.225668 0.225668
0.273943 0.273943 0.273943
0.326632 0.326632 0.326632
0.382977 0.382977 0.382977
0.441932 0.441932 0.441932
0.502226 0.502226 0.502226
0.562468 0.562468 0.562468
0.621272 0.621272 0.621272
0.272085 0.272085 0.272085
0.324623 0.324623 0.324623
0.380851 0.380851 0.380851
0.439731 0.439731 0.439731
0.500000 0.500000 0.500000
0.560269 0.560269 0.560269
0.619149 0.619149 0.619149
0.675377 0.675377 0.675377
0.727915 0.727915 0.727915
0.378728 0.378728 0.378728
0.437532 0.437532 0.437532
0.497774 0.497774 0.497774
0.558068 0.558068 0.558068
0.617023 0.617023 0.617023
0.673368 0.673368 0.673368
0.726057 0.726057 0.726057
0.774332 0.774332 0.774332
0.817742 0.817742 0.817742
0.495548 0.495548 0.495548
0.555865 0.555865 0.555865
0.614893 0.614893 0.614893
0.671354 0.671354 0.671354
0.724193 0.724193 0.724193
0.772640 0.772640 0.772640
0.816234 0.816234 0.816234
0.854803 0.854803 0.854803
0.888418 0.888418 0.888418
0.612760 0.612760 0.612760
0.669336 0.669336 0.669336
0.722323 0.722323 0.722323
0.770942 0.770942 0.770942
0.814719 0.814719 0.814719
0.853473 0.853473 0.853473
0.887267 0.887267 0.887267
0.916351 0.916351 0.916351
0.941100 0.941100 0.941100
0.720448 0.720448 0.720448
0.769237 0.769237 0.769237
0.813197 0.813197 0.813197
0.852136 0.852136 0.852136
0.886109 0.886109 0.886109
0.915360 0.915360 0.915360
0.940262 0.940262 0.940262
0.961255 0.961255 0.961255
0.978809 0.978809 0.978809
0.019256 0.019256 0.019256
0.032423 0.032423 0.032423
0.048123 0.048123 0.048123
0.066680 0.066680 0.066680
0.126270 0.126270 0.126270
0.162117 0.162117 0.162117
0.202975 0.202975 0.202975
0.248815 0.248815 0.248815
0.299335 0.299335 0.299335
0.047496 0.047496 0.047496
0.065943 0.065943 0.065943
0.125046 0.125046 0.125046
0.160710 0.160710 0.160710
0.201383 0.201383 0.201383
0.247043 0.247043 0.247043
0.297400 0.297400 0.297400
0.351864 0.351864 0.351864
0.409541 0.409541 0.409541
0.123827 0.123827 0.123827
0.159309 0.159309 0.159309
0.199797 0.199797 0.199797
0.245277 0.245277 0.245277
0.295470 0.295470 0.295470
0.349797 0.349797 0.349797
0.407375 0.407375 0.407375
0.467054 0.467054 0.467054
0.527498 0.527498 0.527498
0.198219 0.198219 0.198219
0.243518 0.243518 0.243518
0.293545 0.293545 0.293545
0.347735 0.347735 0.347735
0.405212 0.405212 0.405212
0.464836 0.464836 0.464836
0.525277 0.525277 0.525277
0.585130 0.585130 0.585130
0.643044 0.643044 0.643044
0.291627 0.291627 0.291627
0.345676 0.345676 0.345676
0.403052 0.403052 0.403052
0.462620 0.462620 0.462620
0.523056 0.523056 0.523056
0.582955 0.582955 0.582955
0.640962 0.640962 0.640962
0.695891 0.695891 0.695891
0.746809 0.746809 0.746809
0.400895 0.400895 0.400895
0.460405 0.460405 0.460405
0.520833 0.520833 0.520833
0.580777 0.580777 0.580777
0.638876 0.638876 0.638876
0.693936 0.693936 0.693936
0.745015 0.745015 0.745015
0.791472 0.791472 0.791472
0.832970 0.832970 0.832970
0.518610 0.518610 0.518610
0.578596 0.578596 0.578596
0.636786 0.636786 0.636786
0.691976 0.691976 0.691976
0.743215 0.743215 0.743215
0.789849 0.789849 0.789849
0.831533 0.831533 0.831533
0.868193 0.868193 0.868193
0.899979 0.899979 0.899979
0.634692 0.634692 0.634692
0.690011 0.690011 0.690011
0.741408 0.741408 0.741408
0.788220 0.788220 0.788220
0.830089 0.830089 0.830089
0.866932 0.866932 0.866932
0.898893 0.898893 0.898893
0.926275 0.926275 0.926275
0.949487 0.949487 0.949487
0.739595 0.739595 0.739595
0.786584 0.786584 0.786584
0.828638 0.828638 0.828638
0.865665 0.865665 0.865665
0.897800 0.897800 0.897800
0.925345 0.925345 0.925345
0.948701 0.948701 0.948701
0.968328 0.968328 0.968328
0.984694 0.984694 0.984694
0.023998 0.023998 0.023998
0.038092 0.038092 0.038092
0.054844 0.054844 0.054844
0.106530 0.106530 0.106530
0.139354 0.139354 0.139354
0.177100 0.177100 0.177100
0.219875 0.219875 0.219875
0.267550 0.267550 0.267550
0.319714 0.319714 0.319714
0.054177 0.054177 0.054177
0.105413 0.105413 0.105413
0.138060 0.138060 0.138060
0.175622 0.175622 0.175622
0.218213 0.218213 0.218213
0.265713 0.265713 0.265713
0.317723 0.317723 0.317723
0.373534 0.373534 0.373534
0.432143 0.432143 0.432143
0.136773 0.136773 0.136773
0.174151 0.174151 0.174151
0.216558 0.216558 0.216558
0.263883 0.263883 0.263883
0.315737 0.315737 0.315737
0.371424 0.371424 0.371424
0.429951 0.429951 0.429951
0.490086 0.490086 0.490086
0.550451 0.550451 0.550451
0.214909 0.214909 0.214909
0.262058 0.262058 0.262058
0.313756 0.313756 0.313756
0.369318 0.369318 0.369318
0.427761 0.427761 0.427761
0.487860 0.487860 0.487860
0.548243 0.548243 0.548243
0.607509 0.607509 0.607509
0.664360 0.664360 0.664360
0.311781 0.311781 0.311781
0.367216 0.367216 0.367216
0.425574 0.425574 0.425574
0.485636 0.485636 0.485636
0.546033 0.546033 0.546033
0.605364 0.605364 0.605364
0.662325 0.662325 0.662325
0.715818 0.715818 0.715818
0.765025 0.765025 0.765025
0.423388 0.423388 0.423388
0.483412 0.483412 0.483412
0.543821 0.543821 0.543821
0.603215 0.603215 0.603215
0.660285 0.660285 0.660285
0.713922 0.713922 0.713922
0.763297 0.763297 0.763297
0.807888 0.807888 0.807888
0.847466 0.847466 0.847466
0.541608 0.541608 0.541608
0.601064 0.601064 0.601064
0.658240 0.658240 0.658240
0.712020 0.712020 0.712020
0.761563 0.761563 0.761563
0.806336 0.806336 0.806336
0.846099 0.846099 0.846099
0.880873 0.880873 0.880873
0.910876 0.910876 0.910876
0.656191 0.656191 0.656191
0.710112 0.710112 0.710112
0.759823 0.759823 0.759823
0.804776 0.804776 0.804776
0.844725 0.844725 0.844725
0.879680 0.879680 0.879680
0.909853 0.909853 0.909853
0.935593 0.935593 0.935593
0.957333 0.957333 0.957333
0.758076 0.758076 0.758076
0.803211 0.803211 0.803211
0.843345 0.843345 0.843345
0.878481 0.878481 0.878481
0.908824 0.908824 0.908824
0.934720 0.934720 0.934720
0.956599 0.956599 0.956599
0.974927 0.974927 0.974927
0.990172 0.990172 0.990172
0.029079 0.029079 0.029079
0.044148 0.044148 0.044148
0.061998 0.061998 0.061998
0.118479 0.118479 0.118479
0.153155 0.153155 0.153155
0.192817 0.192817 0.192817
0.237490 0.237490 0.237490
0.286942 0.286942 0.286942
0.340644 0.340644 0.340644
0.061289 0.061289 0.061289
0.117296 0.117296 0.117296
0.151791 0.151791 0.151791
0.191269 0.191269 0.191269
0.235759 0.235759 0.235759
0.285043 0.285043 0.285043
0.338602 0.338602 0.338602
0.395612 0.395612 0.395612
0.454972 0.454972 0.454972
0.150435 0.150435 0.150435
0.189727 0.189727 0.189727
0.234036 0.234036 0.234036
0.283150 0.283150 0.283150
0.336564 0.336564 0.336564
0.393466 0.393466 0.393466
0.452762 0.452762 0.452762
0.513151 0.513151 0.513151
0.573234 0.573234 0.573234
0.232318 0.232318 0.232318
0.281263 0.281263 0.281263
0.334532 0.334532 0.334532
0.391323 0.391323 0.391323
0.450552 0.450552 0.450552
0.510926 0.510926 0.510926
0.571045 0.571045 0.571045
0.629534 0.629534 0.629534
0.685164 0.685164 0.685164
0.332504 0.332504 0.332504
0.389183 0.389183 0.389183
0.448345 0.448345 0.448345
0.508701 0.508701 0.508701
0.568854 0.568854 0.568854
0.627426 0.627426 0.627426
0.683180 0.683180 0.683180
0.735120 0.735120 0.735120
0.782540 0.782540 0.782540
0.446139 0.446139 0.446139
0.506475 0.506475 0.506475
0.566661 0.566661 0.566661
0.625314 0.625314 0.625314
0.681192 0.681192 0.681192
0.733285 0.733285 0.733285
0.780881 0.780881 0.780881
0.823572 0.823572 0.823572
0.861235 0.861235 0.861235
0.564465 0.564465 0.564465
0.623198 0.623198 0.623198
0.679198 0.679198 0.679198
0.731445 0.731445 0.731445
0.779216 0.779216 0.779216
0.822091 0.822091 0.822091
0.859938 0.859938 0.859938
0.892858 0.892858 0.892858
0.921129 0.921129 0.921129
0.677199 0.677199 0.677199
0.729599 0.729599 0.729599
0.777543 0.777543 0.777543
0.820603 0.820603 0.820603
0.858634 0.858634 0.858634
0.891732 0.891732 0.891732
0.920167 0.920167 0.920167
0.944329 0.944329 0.944329
0.964666 0.964666 0.964666
0.775864 0.775864 0.775864
0.819108 0.819108 0.819108
0.857323 0.857323 0.857323
0.890599 0.890599 0.890599
0.919199 0.919199 0.919199
0.943510 0.943510 0.943510
0.963980 0.963980 0.963980
0.981078 0.981078 0.981078
0.995266 0.995266 0.995266
0.034517 0.034517 0.034517
0.050608 0.050608 0.050608
0.069602 0.069602 0.069602
0.131122 0.131122 0.131122
0.167682 0.167682 0.167682
0.209265 0.209265 0.209265
0.255803 0.255803 0.255803
0.306954 0.306954 0.306954
0.362074 0.362074 0.362074
0.068848 0.068848 0.068848
0.129871 0.129871 0.129871
0.166249 0.166249 0.166249
0.207646 0.207646 0.207646
0.254006 0.254006 0.254006
0.304997 0.304997 0.304997
0.359986 0.359986 0.359986
0.418035 0.418035 0.418035
0.477955 0.477955 0.477955
0.164822 0.164822 0.164822
0.206034 0.206034 0.206034
0.252215 0.252215 0.252215
0.303046 0.303046 0.303046
0.357902 0.357902 0.357902
0.415858 0.415858 0.415858
0.475732 0.475732 0.475732
0.536171 0.536171 0.536171
0.595770 0.595770 0.595770
0.250431 0.250431 0.250431
0.301100 0.301100 0.301100
0.355822 0.355822 0.355822
0.413684 0.413684 0.413684
0.473511 0.473511 0.473511
0.533954 0.533954 0.533954
0.593608 0.593608 0.593608
0.651141 0.651141 0.651141
0.705406 0.705406 0.705406
0.353747 0.353747 0.353747
0.411513 0.411513 0.411513
0.471291 0.471291 0.471291
0.531736 0.531736 0.531736
0.591444 0.591444 0.591444
0.649076 0.649076 0.649076
0.703478 0.703478 0.703478
0.753761 0.753761 0.753761
0.799339 0.799339 0.799339
0.469071 0.469071 0.469071
0.529517 0.529517 0.529517
0.589276 0.589276 0.589276
0.647007 0.647007 0.647007
0.701545 0.701545 0.701545
0.751992 0.751992 0.751992
0.797749 0.797749 0.797749
0.838524 0.838524 0.838524
0.874287 0.874287 0.874287
0.587106 0.587106 0.587106
0.644933 0.644933 0.644933
0.699607 0.699607 0.699607
0.750216 0.750216 0.750216
0.796153 0.796153 0.796153
0.837113 0.837113 0.837113
0.873059 0.873059 0.873059
0.904166 0.904166 0.904166
0.930763 0.930763 0.930763
0.697663 0.697663 0.697663
0.748434 0.748434 0.748434
0.794550 0.794550 0.794550
0.835695 0.835695 0.835695
0.871824 0.871824 0.871824
0.903104 0.903104 0.903104
0.929860 0.929860 0.929860
0.952508 0.952508 0.952508
0.971511 0.971511 0.971511
0.792941 0.792941 0.792941
0.834271 0.834271 0.834271
0.870582 0.870582 0.870582
0.902036 0.902036 0.902036
0.928951 0.928951 0.928951
0.951742 0.951742 0.951742
0.970871 0.970871 0.970871
0.986807 0.986807 0.986807
1.000000 1.000000 1.000000
