public/luts/noir-bw.cube
# KomfyEdit 3D LUT: noir-bw
TITLE "noir-bw"
LUT_3D_SIZE 5
DOMAIN_MIN 0.0 0.0 0.0
DOMAIN_MAX 1.0 1.0 1.0
0.000000 0.000000 0.000000
0.020390 0.020390 0.020390
0.049734 0.049734 0.049734
0.129418 0.129418 0.129418
0.207059 0.207059 0.207059
0.048466 0.048466 0.048466
0.126941 0.126941 0.126941
0.203847 0.203847 0.203847
0.300393 0.300393 0.300393
0.412894 0.412894 0.412894
0.200661 0.200661 0.200661
0.296522 0.296522 0.296522
0.408556 0.408556 0.408556
0.528709 0.528709 0.528709
0.646253 0.646253 0.646253
0.404230 0.404230 0.404230
0.524268 0.524268 0.524268
0.642098 0.642098 0.642098
0.747785 0.747785 0.747785
0.835178 0.835178 0.835178
0.637926 0.637926 0.637926
0.744197 0.744197 0.744197
0.832318 0.832318 0.832318
0.900569 0.900569 0.900569
0.950690 0.950690 0.950690
0.006880 0.006880 0.006880
0.030381 0.030381 0.030381
0.063824 0.063824 0.063824
0.156655 0.156655 0.156655
0.241924 0.241924 0.241924
0.062387 0.062387 0.062387
0.153901 0.153901 0.153901
0.238437 0.238437 0.238437
0.341760 0.341760 0.341760
0.458392 0.458392 0.458392
0.234975 0.234975 0.234975
0.337675 0.337675 0.337675
0.453967 0.453967 0.453967
0.574426 0.574426 0.574426
0.688219 0.688219 0.688219
0.449549 0.449549 0.449549
0.570049 0.570049 0.570049
0.684263 0.684263 0.684263
0.783442 0.783442 0.783442
0.863227 0.863227 0.863227
0.680286 0.680286 0.680286
0.780125 0.780125 0.780125
0.860646 0.860646 0.860646
0.921651 0.921651 0.921651
0.965717 0.965717 0.965717
0.014834 0.014834 0.014834
0.041817 0.041817 0.041817
0.113891 0.113891 0.113891
0.186803 0.186803 0.186803
0.279552 0.279552 0.279552
0.111582 0.111582 0.111582
0.183766 0.183766 0.183766
0.275807 0.275807 0.275807
0.385107 0.385107 0.385107
0.504452 0.504452 0.504452
0.272085 0.272085 0.272085
0.380851 0.380851 0.380851
0.500000 0.500000 0.500000
0.619149 0.619149 0.619149
0.727915 0.727915 0.727915
0.495548 0.495548 0.495548
0.614893 0.614893 0.614893
0.724193 0.724193 0.724193
0.816234 0.816234 0.816234
0.888418 0.888418 0.888418
0.720448 0.720448 0.720448
0.813197 0.813197 0.813197
0.886109 0.886109 0.886109
0.940262 0.940262 0.940262
0.978809 0.978809 0.978809
0.023998 0.023998 0.023998
0.054844 0.054844 0.054844
0.139354 0.139354 0.139354
0.219875 0.219875 0.219875
0.319714 0.319714 0.319714
0.136773 0.136773 0.136773
0.216558 0.216558 0.216558
0.315737 0.315737 0.315737
0.429951 0.429951 0.429951
0.550451 0.550451 0.550451
0.311781 0.311781 0.311781
0.425574 0.425574 0.425574
0.546033 0.546033 0.546033
0.662325 0.662325 0.662325
0.765025 0.765025 0.765025
0.541608 0.541608 0.541608
0.658240 0.658240 0.658240
0.761563 0.761563 0.761563
0.846099 0.846099 0.846099
0.910876 0.910876 0.910876
0.758076 0.758076 0.758076
0.843345 0.843345 0.843345
0.908824 0.908824 0.908824
0.956599 0.956599 0.956599
0.990172 0.990172 0.990172
0.034517 0.034517 0.034517
0.069602 0.069602 0.069602
0.167682 0.167682 0.167682
0.255803 0.255803 0.255803
0.362074 0.362074 0.362074
0.164822 0.164822 0.164822
0.252215 0.252215 0.252215
0.357902 0.357902 0.357902
0.475732 0.475732 0.475732
0.595770 0.595770 0.595770
0.353747 0.353747 0.353747
0.471291 0.471291 0.471291
0.591444 0.591444 0.591444
0.703478 0.703478 0.703478
0.799339 0.799339 0.799339
0.587106 0.587106 0.587106
0.699607 0.699607 0.699607
0.796153 0.796153 0.796153
0.873059 0.873059 0.873059
0.930763 0.930763 0.930763
0.792941 0.792941 0.792941
0.870582 0.870582 0.870582
0.928951 0.928951 0.928951
0.970871 0.970871 0.970871
1.000000 1.000000 1.000000
