public/luts/noir-bw.cube
# KomfyEdit 3D LUT: noir-bw
TITLE "noir-bw"
LUT_3D_SIZE 33
DOMAIN_MIN 0.0 0.0 0.0
DOMAIN_MAX 1.0 1.0 1.0
0.000000 0.000000 0.000000
0.002145 0.002145 0.002145
0.004396 0.004396 0.004396
0.006758 0.006758 0.006758
0.009235 0.009235 0.009235
0.011832 0.011832 0.011832
0.014553 0.014553 0.014553
0.017404 0.017404 0.017404
0.020390 0.020390 0.020390
0.023515 0.023515 0.023515
0.026785 0.026785 0.026785
0.030205 0.030205 0.030205
0.033780 0.033780 0.033780
0.037516 0.037516 0.037516
0.041416 0.041416 0.041416
0.045487 0.045487 0.045487
0.049734 0.049734 0.049734
0.054162 0.054162 0.054162
0.058775 0.058775 0.058775
0.063577 0.063577 0.063577
0.068575 0.068575 0.068575
0.105388 0.105388 0.105388
0.113101 0.113101 0.113101
0.121110 0.121110 0.121110
0.129418 0.129418 0.129418
0.138031 0.138031 0.138031
0.146952 0.146952 0.146952
0.156184 0.156184 0.156184
0.165729 0.165729 0.165729
0.175589 0.175589 0.175589
0.185764 0.185764 0.185764
0.196255 0.196255 0.196255
0.207059 0.207059 0.207059
0.004312 0.004312 0.004312
0.006669 0.006669 0.006669
0.009142 0.009142 0.009142
0.011734 0.011734 0.011734
0.014451 0.014451 0.014451
0.017297 0.017297 0.017297
0.020278 0.020278 0.020278
0.023398 0.023398 0.023398
0.026662 0.026662 0.026662
0.030077 0.030077 0.030077
0.033646 0.033646 0.033646
0.037375 0.037375 0.037375
0.041270 0.041270 0.041270
0.045335 0.045335 0.045335
0.049575 0.049575 0.049575
0.053996 0.053996 0.053996
0.058602 0.058602 0.058602
0.063397 0.063397 0.063397
0.068388 0.068388 0.068388
0.105110 0.105110 0.105110
0.112812 0.112812 0.112812
0.120810 0.120810 0.120810
0.129107 0.129107 0.129107
0.137709 0.137709 0.137709
0.146618 0.146618 0.146618
0.155839 0.155839 0.155839
0.165372 0.165372 0.165372
0.175221 0.175221 0.175221
0.185384 0.185384 0.185384
0.195863 0.195863 0.195863
0.206656 0.206656 0.206656
0.217761 0.217761 0.217761
0.229174 0.229174 0.229174
0.009049 0.009049 0.009049
0.011637 0.011637 0.011637
0.014349 0.014349 0.014349
0.017190 0.017190 0.017190
0.020166 0.020166 0.020166
0.023280 0.023280 0.023280
0.026540 0.026540 0.026540
0.029948 0.029948 0.029948
0.033512 0.033512 0.033512
0.037235 0.037235 0.037235
0.041123 0.041123 0.041123
0.045182 0.045182 0.045182
0.049416 0.049416 0.049416
0.053830 0.053830 0.053830
0.058429 0.058429 0.058429
0.063218 0.063218 0.063218
0.068201 0.068201 0.068201
0.104832 0.104832 0.104832
0.112524 0.112524 0.112524
0.120510 0.120510 0.120510
0.128796 0.128796 0.128796
0.137387 0.137387 0.137387
0.146285 0.146285 0.146285
0.155494 0.155494 0.155494
0.165016 0.165016 0.165016
0.174853 0.174853 0.174853
0.185005 0.185005 0.185005
0.195472 0.195472 0.195472
0.206254 0.206254 0.206254
0.217347 0.217347 0.217347
0.228749 0.228749 0.228749
0.240455 0.240455 0.240455
0.252459 0.252459 0.252459
0.014247 0.014247 0.014247
0.017083 0.017083 0.017083
0.020054 0.020054 0.020054
0.023163 0.023163 0.023163
0.026417 0.026417 0.026417
0.029820 0.029820 0.029820
0.033378 0.033378 0.033378
0.037095 0.037095 0.037095
0.040977 0.040977 0.040977
0.045030 0.045030 0.045030
0.049257 0.049257 0.049257
0.053664 0.053664 0.053664
0.058256 0.058256 0.058256
0.063038 0.063038 0.063038
0.068014 0.068014 0.068014
0.104554 0.104554 0.104554
0.112235 0.112235 0.112235
0.120211 0.120211 0.120211
0.128486 0.128486 0.128486
0.137065 0.137065 0.137065
0.145952 0.145952 0.145952
0.155149 0.155149 0.155149
0.164660 0.164660 0.164660
0.174485 0.174485 0.174485
0.184626 0.184626 0.184626
0.195081 0.195081 0.195081
0.205851 0.205851 0.205851
0.216933 0.216933 0.216933
0.228324 0.228324 0.228324
0.240019 0.240019 0.240019
0.252012 0.252012 0.252012
0.264298 0.264298 0.264298
0.276868 0.276868 0.276868
0.019942 0.019942 0.019942
0.023046 0.023046 0.023046
0.026295 0.026295 0.026295
0.029692 0.029692 0.029692
0.033244 0.033244 0.033244
0.036956 0.036956 0.036956
0.040832 0.040832 0.040832
0.044877 0.044877 0.044877
0.049098 0.049098 0.049098
0.053499 0.053499 0.053499
0.058084 0.058084 0.058084
0.062859 0.062859 0.062859
0.067827 0.067827 0.067827
0.104277 0.104277 0.104277
0.111948 0.111948 0.111948
0.119912 0.119912 0.119912
0.128176 0.128176 0.128176
0.136744 0.136744 0.136744
0.145620 0.145620 0.145620
0.154806 0.154806 0.154806
0.164305 0.164305 0.164305
0.174118 0.174118 0.174118
0.184247 0.184247 0.184247
0.194691 0.194691 0.194691
0.205450 0.205450 0.205450
0.216520 0.216520 0.216520
0.227899 0.227899 0.227899
0.239583 0.239583 0.239583
0.251566 0.251566 0.251566
0.263841 0.263841 0.263841
0.276401 0.276401 0.276401
0.289237 0.289237 0.289237
0.302337 0.302337 0.302337
0.026173 0.026173 0.026173
0.029565 0.029565 0.029565
0.033111 0.033111 0.033111
0.036816 0.036816 0.036816
0.040686 0.040686 0.040686
0.044726 0.044726 0.044726
0.048940 0.048940 0.048940
0.053334 0.053334 0.053334
0.057912 0.057912 0.057912
0.062680 0.062680 0.062680
0.067641 0.067641 0.067641
0.104001 0.104001 0.104001
0.111660 0.111660 0.111660
0.119614 0.119614 0.119614
0.127867 0.127867 0.127867
0.136424 0.136424 0.136424
0.145288 0.145288 0.145288
0.154462 0.154462 0.154462
0.163950 0.163950 0.163950
0.173751 0.173751 0.173751
0.183869 0.183869 0.183869
0.194301 0.194301 0.194301
0.205048 0.205048 0.205048
0.216107 0.216107 0.216107
0.227475 0.227475 0.227475
0.239148 0.239148 0.239148
0.251120 0.251120 0.251120
0.263384 0.263384 0.263384
0.275934 0.275934 0.275934
0.288760 0.288760 0.288760
0.301851 0.301851 0.301851
0.315196 0.315196 0.315196
0.328783 0.328783 0.328783
0.032978 0.032978 0.032978
0.036677 0.036677 0.036677
0.040541 0.040541 0.040541
0.044574 0.044574 0.044574
0.048782 0.048782 0.048782
0.053169 0.053169 0.053169
0.057740 0.057740 0.057740
0.062501 0.062501 0.062501
0.067455 0.067455 0.067455
0.103724 0.103724 0.103724
0.111373 0.111373 0.111373
0.119316 0.119316 0.119316
0.127558 0.127558 0.127558
0.136103 0.136103 0.136103
0.144956 0.144956 0.144956
0.154119 0.154119 0.154119
0.163595 0.163595 0.163595
0.173385 0.173385 0.173385
0.183491 0.183491 0.183491
0.193912 0.193912 0.193912
0.204647 0.204647 0.204647
0.215695 0.215695 0.215695
0.227051 0.227051 0.227051
0.238713 0.238713 0.238713
0.250674 0.250674 0.250674
0.262928 0.262928 0.262928
0.275467 0.275467 0.275467
0.288283 0.288283 0.288283
0.301365 0.301365 0.301365
0.314701 0.314701 0.314701
0.328279 0.328279 0.328279
0.342086 0.342086 0.342086
0.356106 0.356106 0.356106
0.040396 0.040396 0.040396
0.044422 0.044422 0.044422
0.048624 0.048624 0.048624
0.053004 0.053004 0.053004
0.057569 0.057569 0.057569
0.062322 0.062322 0.062322
0.067269 0.067269 0.067269
0.103449 0.103449 0.103449
0.111087 0.111087 0.111087
0.119019 0.119019 0.119019
0.127250 0.127250 0.127250
0.135784 0.135784 0.135784
0.144625 0.144625 0.144625
0.153776 0.153776 0.153776
0.163241 0.163241 0.163241
0.173020 0.173020 0.173020
0.183114 0.183114 0.183114
0.193523 0.193523 0.193523
0.204247 0.204247 0.204247
0.215283 0.215283 0.215283
0.226628 0.226628 0.226628
0.238279 0.238279 0.238279
0.250229 0.250229 0.250229
0.262472 0.262472 0.262472
0.275001 0.275001 0.275001
0.287807 0.287807 0.287807
0.300879 0.300879 0.300879
0.314206 0.314206 0.314206
0.327776 0.327776 0.327776
0.341574 0.341574 0.341574
0.355586 0.355586 0.355586
0.369796 0.369796 0.369796
0.384187 0.384187 0.384187
0.048466 0.048466 0.048466
0.052840 0.052840 0.052840
0.057397 0.057397 0.057397
0.062144 0.062144 0.062144
0.067084 0.067084 0.067084
0.103173 0.103173 0.103173
0.110801 0.110801 0.110801
0.118722 0.118722 0.118722
0.126941 0.126941 0.126941
0.135464 0.135464 0.135464
0.144294 0.144294 0.144294
0.153434 0.153434 0.153434
0.162887 0.162887 0.162887
0.172654 0.172654 0.172654
0.182737 0.182737 0.182737
0.193135 0.193135 0.193135
0.203847 0.203847 0.203847
0.214871 0.214871 0.214871
0.226205 0.226205 0.226205
0.237845 0.237845 0.237845
0.249784 0.249784 0.249784
0.262017 0.262017 0.262017
0.274535 0.274535 0.274535
0.287331 0.287331 0.287331
0.300393 0.300393 0.300393
0.313711 0.313711 0.313711
0.327272 0.327272 0.327272
0.341062 0.341062 0.341062
0.355067 0.355067 0.355067
0.369270 0.369270 0.369270
0.383654 0.383654 0.383654
0.398202 0.398202 0.398202
0.412894 0.412894 0.412894
0.057226 0.057226 0.057226
0.061966 0.061966 0.061966
0.066898 0.066898 0.066898
0.102898 0.102898 0.102898
0.110515 0.110515 0.110515
0.118425 0.118425 0.118425
0.126634 0.126634 0.126634
0.135145 0.135145 0.135145
0.143964 0.143964 0.143964
0.153092 0.153092 0.153092
0.162534 0.162534 0.162534
0.172289 0.172289 0.172289
0.182360 0.182360 0.182360
0.192746 0.192746 0.192746
0.203447 0.203447 0.203447
0.214460 0.214460 0.214460
0.225783 0.225783 0.225783
0.237411 0.237411 0.237411
0.249339 0.249339 0.249339
0.261561 0.261561 0.261561
0.274070 0.274070 0.274070
0.286855 0.286855 0.286855
0.299908 0.299908 0.299908
0.313217 0.313217 0.313217
0.326769 0.326769 0.326769
0.340551 0.340551 0.340551
0.354548 0.354548 0.354548
0.368744 0.368744 0.368744
0.383122 0.383122 0.383122
0.397664 0.397664 0.397664
0.412352 0.412352 0.412352
0.427164 0.427164 0.427164
0.442082 0.442082 0.442082
0.066714 0.066714 0.066714
0.102623 0.102623 0.102623
0.110229 0.110229 0.110229
0.118129 0.118129 0.118129
0.126326 0.126326 0.126326
0.134827 0.134827 0.134827
0.143634 0.143634 0.143634
0.152751 0.152751 0.152751
0.162181 0.162181 0.162181
0.171925 0.171925 0.171925
0.181984 0.181984 0.181984
0.192359 0.192359 0.192359
0.203048 0.203048 0.203048
0.214050 0.214050 0.214050
0.225361 0.225361 0.225361
0.236978 0.236978 0.236978
0.248895 0.248895 0.248895
0.261107 0.261107 0.261107
0.273605 0.273605 0.273605
0.286380 0.286380 0.286380
0.299423 0.299423 0.299423
0.312723 0.312723 0.312723
0.326266 0.326266 0.326266
0.340040 0.340040 0.340040
0.354030 0.354030 0.354030
0.368219 0.368219 0.368219
0.382590 0.382590 0.382590
0.397127 0.397127 0.397127
0.411809 0.411809 0.411809
0.426617 0.426617 0.426617
0.441532 0.441532 0.441532
0.456531 0.456531 0.456531
0.471593 0.471593 0.471593
0.109944 0.109944 0.109944
0.117833 0.117833 0.117833
0.126019 0.126019 0.126019
0.134509 0.134509 0.134509
0.143304 0.143304 0.143304
0.152410 0.152410 0.152410
0.161828 0.161828 0.161828
0.171561 0.171561 0.171561
0.181608 0.181608 0.181608
0.191972 0.191972 0.191972
0.202649 0.202649 0.202649
0.213639 0.213639 0.213639
0.224939 0.224939 0.224939
0.236545 0.236545 0.236545
0.248452 0.248452 0.248452
0.260652 0.260652 0.260652
0.273140 0.273140 0.273140
0.285905 0.285905 0.285905
0.298939 0.298939 0.298939
0.312229 0.312229 0.312229
0.325764 0.325764 0.325764
0.339530 0.339530 0.339530
0.353511 0.353511 0.353511
0.367693 0.367693 0.367693
0.382059 0.382059 0.382059
0.396589 0.396589 0.396589
0.411266 0.411266 0.411266
0.426071 0.426071 0.426071
0.440981 0.440981 0.440981
0.455978 0.455978 0.455978
0.471038 0.471038 0.471038
0.486141 0.486141 0.486141
0.501265 0.501265 0.501265
0.125713 0.125713 0.125713
0.134191 0.134191 0.134191
0.142975 0.142975 0.142975
0.152070 0.152070 0.152070
0.161476 0.161476 0.161476
0.171197 0.171197 0.171197
0.181233 0.181233 0.181233
0.191585 0.191585 0.191585
0.202251 0.202251 0.202251
0.213230 0.213230 0.213230
0.224518 0.224518 0.224518
0.236113 0.236113 0.236113
0.248008 0.248008 0.248008
0.260198 0.260198 0.260198
0.272675 0.272675 0.272675
0.285431 0.285431 0.285431
0.298455 0.298455 0.298455
0.311736 0.311736 0.311736
0.325262 0.325262 0.325262
0.339019 0.339019 0.339019
0.352993 0.352993 0.352993
0.367168 0.367168 0.367168
0.381527 0.381527 0.381527
0.396052 0.396052 0.396052
0.410724 0.410724 0.410724
0.425524 0.425524 0.425524
0.440431 0.440431 0.440431
0.455425 0.455425 0.455425
0.470483 0.470483 0.470483
0.485585 0.485585 0.485585
0.500708 0.500708 0.500708
0.515830 0.515830 0.515830
0.530929 0.530929 0.530929
0.142647 0.142647 0.142647
0.151730 0.151730 0.151730
0.161125 0.161125 0.161125
0.170834 0.170834 0.170834
0.180858 0.180858 0.180858
0.191198 0.191198 0.191198
0.201853 0.201853 0.201853
0.212820 0.212820 0.212820
0.224098 0.224098 0.224098
0.235681 0.235681 0.235681
0.247565 0.247565 0.247565
0.259745 0.259745 0.259745
0.272211 0.272211 0.272211
0.284957 0.284957 0.284957
0.297971 0.297971 0.297971
0.311243 0.311243 0.311243
0.324760 0.324760 0.324760
0.338509 0.338509 0.338509
0.352476 0.352476 0.352476
0.366643 0.366643 0.366643
0.380996 0.380996 0.380996
0.395515 0.395515 0.395515
0.410182 0.410182 0.410182
0.424977 0.424977 0.424977
0.439881 0.439881 0.439881
0.454872 0.454872 0.454872
0.469928 0.469928 0.469928
0.485029 0.485029 0.485029
0.500152 0.500152 0.500152
0.515274 0.515274 0.515274
0.530374 0.530374 0.530374
0.545430 0.545430 0.545430
0.560419 0.560419 0.560419
0.160773 0.160773 0.160773
0.170471 0.170471 0.170471
0.180484 0.180484 0.180484
0.190812 0.190812 0.190812
0.201455 0.201455 0.201455
0.212411 0.212411 0.212411
0.223677 0.223677 0.223677
0.235249 0.235249 0.235249
0.247123 0.247123 0.247123
0.259292 0.259292 0.259292
0.271748 0.271748 0.271748
0.284483 0.284483 0.284483
0.297487 0.297487 0.297487
0.310750 0.310750 0.310750
0.324259 0.324259 0.324259
0.337999 0.337999 0.337999
0.351958 0.351958 0.351958
0.366119 0.366119 0.366119
0.380465 0.380465 0.380465
0.394978 0.394978 0.394978
0.409640 0.409640 0.409640
0.424431 0.424431 0.424431
0.439331 0.439331 0.439331
0.454319 0.454319 0.454319
0.469374 0.469374 0.469374
0.484473 0.484473 0.484473
0.499595 0.499595 0.499595
0.514718 0.514718 0.514718
0.529819 0.529819 0.529819
0.544877 0.544877 0.544877
0.559869 0.559869 0.559869
0.574774 0.574774 0.574774
0.589572 0.589572 0.589572
0.180110 0.180110 0.180110
0.190427 0.190427 0.190427
0.201058 0.201058 0.201058
0.212003 0.212003 0.212003
0.223257 0.223257 0.223257
0.234818 0.234818 0.234818
0.246681 0.246681 0.246681
0.258839 0.258839 0.258839
0.271285 0.271285 0.271285
0.284010 0.284010 0.284010
0.297004 0.297004 0.297004
0.310258 0.310258 0.310258
0.323757 0.323757 0.323757
0.337490 0.337490 0.337490
0.351441 0.351441 0.351441
0.365594 0.365594 0.365594
0.379934 0.379934 0.379934
0.394441 0.394441 0.394441
0.409098 0.409098 0.409098
0.423885 0.423885 0.423885
0.438781 0.438781 0.438781
0.453766 0.453766 0.453766
0.468819 0.468819 0.468819
0.483917 0.483917 0.483917
0.499039 0.499039 0.499039
0.514162 0.514162 0.514162
0.529264 0.529264 0.529264
0.544324 0.544324 0.544324
0.559319 0.559319 0.559319
0.574228 0.574228 0.574228
0.589029 0.589029 0.589029
0.603704 0.603704 0.603704
0.618231 0.618231 0.618231
0.200661 0.200661 0.200661
0.211594 0.211594 0.211594
0.222838 0.222838 0.222838
0.234388 0.234388 0.234388
0.246239 0.246239 0.246239
0.258386 0.258386 0.258386
0.270822 0.270822 0.270822
0.283537 0.283537 0.283537
0.296522 0.296522 0.296522
0.309766 0.309766 0.309766
0.323257 0.323257 0.323257
0.336981 0.336981 0.336981
0.350924 0.350924 0.350924
0.365070 0.365070 0.365070
0.379403 0.379403 0.379403
0.393905 0.393905 0.393905
0.408556 0.408556 0.408556
0.423339 0.423339 0.423339
0.438231 0.438231 0.438231
0.453214 0.453214 0.453214
0.468264 0.468264 0.468264
0.483361 0.483361 0.483361
0.498482 0.498482 0.498482
0.513606 0.513606 0.513606
0.528709 0.528709 0.528709
0.543771 0.543771 0.543771
0.558769 0.558769 0.558769
0.573681 0.573681 0.573681
0.588487 0.588487 0.588487
0.603167 0.603167 0.603167
0.617700 0.617700 0.617700
0.632068 0.632068 0.632068
0.646253 0.646253 0.646253
0.222419 0.222419 0.222419
0.233957 0.233957 0.233957
0.245798 0.245798 0.245798
0.257934 0.257934 0.257934
0.270359 0.270359 0.270359
0.283064 0.283064 0.283064
0.296039 0.296039 0.296039
0.309274 0.309274 0.309274
0.322756 0.322756 0.322756
0.336472 0.336472 0.336472
0.350407 0.350407 0.350407
0.364546 0.364546 0.364546
0.378873 0.378873 0.378873
0.393368 0.393368 0.393368
0.408015 0.408015 0.408015
0.422793 0.422793 0.422793
0.437682 0.437682 0.437682
0.452661 0.452661 0.452661
0.467710 0.467710 0.467710
0.482805 0.482805 0.482805
0.497926 0.497926 0.497926
0.513050 0.513050 0.513050
0.528154 0.528154 0.528154
0.543218 0.543218 0.543218
0.558218 0.558218 0.558218
0.573134 0.573134 0.573134
0.587944 0.587944 0.587944
0.602629 0.602629 0.602629
0.617168 0.617168 0.617168
0.631542 0.631542 0.631542
0.645735 0.645735 0.645735
0.659728 0.659728 0.659728
0.673505 0.673505 0.673505
0.245357 0.245357 0.245357
0.257483 0.257483 0.257483
0.269897 0.269897 0.269897
0.282592 0.282592 0.282592
0.295557 0.295557 0.295557
0.308783 0.308783 0.308783
0.322256 0.322256 0.322256
0.335963 0.335963 0.335963
0.349891 0.349891 0.349891
0.364023 0.364023 0.364023
0.378343 0.378343 0.378343
0.392832 0.392832 0.392832
0.407474 0.407474 0.407474
0.422247 0.422247 0.422247
0.437132 0.437132 0.437132
0.452109 0.452109 0.452109
0.467155 0.467155 0.467155
0.482249 0.482249 0.482249
0.497369 0.497369 0.497369
0.512493 0.512493 0.512493
0.527599 0.527599 0.527599
0.542665 0.542665 0.542665
0.557668 0.557668 0.557668
0.572587 0.572587 0.572587
0.587402 0.587402 0.587402
0.602091 0.602091 0.602091
0.616636 0.616636 0.616636
0.631017 0.631017 0.631017
0.645216 0.645216 0.645216
0.659216 0.659216 0.659216
0.673002 0.673002 0.673002
0.686558 0.686558 0.686558
0.699871 0.699871 0.699871
0.269435 0.269435 0.269435
0.282120 0.282120 0.282120
0.295076 0.295076 0.295076
0.308292 0.308292 0.308292
0.321756 0.321756 0.321756
0.335455 0.335455 0.335455
0.349375 0.349375 0.349375
0.363500 0.363500 0.363500
0.377813 0.377813 0.377813
0.392297 0.392297 0.392297
0.406933 0.406933 0.406933
0.421701 0.421701 0.421701
0.436583 0.436583 0.436583
0.451556 0.451556 0.451556
0.466600 0.466600 0.466600
0.481693 0.481693 0.481693
0.496813 0.496813 0.496813
0.511937 0.511937 0.511937
0.527044 0.527044 0.527044
0.542111 0.542111 0.542111
0.557117 0.557117 0.557117
0.572040 0.572040 0.572040
0.586859 0.586859 0.586859
0.601553 0.601553 0.601553
0.616104 0.616104 0.616104
0.630491 0.630491 0.630491
0.644697 0.644697 0.644697
0.658705 0.658705 0.658705
0.672499 0.672499 0.672499
0.686064 0.686064 0.686064
0.699386 0.699386 0.699386
0.712453 0.712453 0.712453
0.725253 0.725253 0.725253
0.294594 0.294594 0.294594
0.307801 0.307801 0.307801
0.321256 0.321256 0.321256
0.334947 0.334947 0.334947
0.348859 0.348859 0.348859
0.362976 0.362976 0.362976
0.377283 0.377283 0.377283
0.391761 0.391761 0.391761
0.406392 0.406392 0.406392
0.421156 0.421156 0.421156
0.436034 0.436034 0.436034
0.451004 0.451004 0.451004
0.466046 0.466046 0.466046
0.481137 0.481137 0.481137
0.496256 0.496256 0.496256
0.511381 0.511381 0.511381
0.526489 0.526489 0.526489
0.541558 0.541558 0.541558
0.556566 0.556566 0.556566
0.571493 0.571493 0.571493
0.586316 0.586316 0.586316
0.601015 0.601015 0.601015
0.615571 0.615571 0.615571
0.629965 0.629965 0.629965
0.644178 0.644178 0.644178
0.658193 0.658193 0.658193
0.671996 0.671996 0.671996
0.685569 0.685569 0.685569
0.698900 0.698900 0.698900
0.711977 0.711977 0.711977
0.724787 0.724787 0.724787
0.737321 0.737321 0.737321
0.749569 0.749569 0.749569
0.320757 0.320757 0.320757
0.334439 0.334439 0.334439
0.348343 0.348343 0.348343
0.362454 0.362454 0.362454
0.376753 0.376753 0.376753
0.391225 0.391225 0.391225
0.405851 0.405851 0.405851
0.420611 0.420611 0.420611
0.435485 0.435485 0.435485
0.450452 0.450452 0.450452
0.465492 0.465492 0.465492
0.480582 0.480582 0.480582
0.495700 0.495700 0.495700
0.510825 0.510825 0.510825
0.525934 0.525934 0.525934
0.541005 0.541005 0.541005
0.556016 0.556016 0.556016
0.570945 0.570945 0.570945
0.585772 0.585772 0.585772
0.600477 0.600477 0.600477
0.615038 0.615038 0.615038
0.629438 0.629438 0.629438
0.643658 0.643658 0.643658
0.657682 0.657682 0.657682
0.671492 0.671492 0.671492
0.685074 0.685074 0.685074
0.698414 0.698414 0.698414
0.711500 0.711500 0.711500
0.724321 0.724321 0.724321
0.736865 0.736865 0.736865
0.749123 0.749123 0.749123
0.761089 0.761089 0.761089
0.772756 0.772756 0.772756
0.347828 0.347828 0.347828
0.361931 0.361931 0.361931
0.376224 0.376224 0.376224
0.390690 0.390690 0.390690
0.405310 0.405310 0.405310
0.420066 0.420066 0.420066
0.434936 0.434936 0.434936
0.449900 0.449900 0.449900
0.464937 0.464937 0.464937
0.480026 0.480026 0.480026
0.495144 0.495144 0.495144
0.510268 0.510268 0.510268
0.525378 0.525378 0.525378
0.540451 0.540451 0.540451
0.555465 0.555465 0.555465
0.570398 0.570398 0.570398
0.585229 0.585229 0.585229
0.599938 0.599938 0.599938
0.614505 0.614505 0.614505
0.628912 0.628912 0.628912
0.643139 0.643139 0.643139
0.657169 0.657169 0.657169
0.670988 0.670988 0.670988
0.684579 0.684579 0.684579
0.697928 0.697928 0.697928
0.711024 0.711024 0.711024
0.723854 0.723854 0.723854
0.736408 0.736408 0.736408
0.748678 0.748678 0.748678
0.760654 0.760654 0.760654
0.772332 0.772332 0.772332
0.783705 0.783705 0.783705
0.794769 0.794769 0.794769
0.375695 0.375695 0.375695
0.390155 0.390155 0.390155
0.404770 0.404770 0.404770
0.419521 0.419521 0.419521
0.434387 0.434387 0.434387
0.449348 0.449348 0.449348
0.464383 0.464383 0.464383
0.479470 0.479470 0.479470
0.494587 0.494587 0.494587
0.509712 0.509712 0.509712
0.524823 0.524823 0.524823
0.539897 0.539897 0.539897
0.554914 0.554914 0.554914
0.569850 0.569850 0.569850
0.584685 0.584685 0.584685
0.599399 0.599399 0.599399
0.613972 0.613972 0.613972
0.628385 0.628385 0.628385
0.642619 0.642619 0.642619
0.656657 0.656657 0.656657
0.670483 0.670483 0.670483
0.684083 0.684083 0.684083
0.697441 0.697441 0.697441
0.710547 0.710547 0.710547
0.723387 0.723387 0.723387
0.735951 0.735951 0.735951
0.748231 0.748231 0.748231
0.760219 0.760219 0.760219
0.771908 0.771908 0.771908
0.783292 0.783292 0.783292
0.794368 0.794368 0.794368
0.805131 0.805131 0.805131
0.815581 0.815581 0.815581
0.404230 0.404230 0.404230
0.418976 0.418976 0.418976
0.433838 0.433838 0.433838
0.448796 0.448796 0.448796
0.463829 0.463829 0.463829
0.478914 0.478914 0.478914
0.494031 0.494031 0.494031
0.509156 0.509156 0.509156
0.524268 0.524268 0.524268
0.539344 0.539344 0.539344
0.554362 0.554362 0.554362
0.569302 0.569302 0.569302
0.584142 0.584142 0.584142
0.598860 0.598860 0.598860
0.613439 0.613439 0.613439
0.627857 0.627857 0.627857
0.642098 0.642098 0.642098
0.656144 0.656144 0.656144
0.669978 0.669978 0.669978
0.683587 0.683587 0.683587
0.696954 0.696954 0.696954
0.710069 0.710069 0.710069
0.722919 0.722919 0.722919
0.735494 0.735494 0.735494
0.747785 0.747785 0.747785
0.759783 0.759783 0.759783
0.771483 0.771483 0.771483
0.782879 0.782879 0.782879
0.793966 0.793966 0.793966
0.804741 0.804741 0.804741
0.815202 0.815202 0.815202
0.825348 0.825348 0.825348
0.835178 0.835178 0.835178
0.433289 0.433289 0.433289
0.448244 0.448244 0.448244
0.463275 0.463275 0.463275
0.478359 0.478359 0.478359
0.493474 0.493474 0.493474
0.508600 0.508600 0.508600
0.523712 0.523712 0.523712
0.538790 0.538790 0.538790
0.553811 0.553811 0.553811
0.568754 0.568754 0.568754
0.583598 0.583598 0.583598
0.598321 0.598321 0.598321
0.612905 0.612905 0.612905
0.627330 0.627330 0.627330
0.641578 0.641578 0.641578
0.655631 0.655631 0.655631
0.669473 0.669473 0.669473
0.683090 0.683090 0.683090
0.696467 0.696467 0.696467
0.709591 0.709591 0.709591
0.722451 0.722451 0.722451
0.735036 0.735036 0.735036
0.747338 0.747338 0.747338
0.759347 0.759347 0.759347
0.771058 0.771058 0.771058
0.782465 0.782465 0.782465
0.793564 0.793564 0.793564
0.804350 0.804350 0.804350
0.814823 0.814823 0.814823
0.824980 0.824980 0.824980
0.834822 0.834822 0.834822
0.844350 0.844350 0.844350
0.853564 0.853564 0.853564
0.462721 0.462721 0.462721
0.477803 0.477803 0.477803
0.492918 0.492918 0.492918
0.508043 0.508043 0.508043
0.523157 0.523157 0.523157
0.538236 0.538236 0.538236
0.553260 0.553260 0.553260
0.568206 0.568206 0.568206
0.583054 0.583054 0.583054
0.597782 0.597782 0.597782
0.612371 0.612371 0.612371
0.626802 0.626802 0.626802
0.641057 0.641057 0.641057
0.655118 0.655118 0.655118
0.668968 0.668968 0.668968
0.682593 0.682593 0.682593
0.695979 0.695979 0.695979
0.709113 0.709113 0.709113
0.721983 0.721983 0.721983
0.734578 0.734578 0.734578
0.746890 0.746890 0.746890
0.758911 0.758911 0.758911
0.770633 0.770633 0.770633
0.782051 0.782051 0.782051
0.793161 0.793161 0.793161
0.803959 0.803959 0.803959
0.814443 0.814443 0.814443
