public/luts/pastel-dream.cube
# KomfyEdit 3D LUT: pastel-dream
TITLE "pastel-dream"
LUT_3D_SIZE 33
DOMAIN_MIN 0.0 0.0 0.0
DOMAIN_MAX 1.0 1.0 1.0
0.133420 0.154462 0.175353
0.159698 0.154462 0.175353
0.185749 0.154462 0.175353
0.211608 0.154462 0.175353
0.237302 0.154462 0.175353
0.262850 0.154462 0.175353
0.288267 0.154462 0.175353
0.313567 0.154462 0.175353
0.338760 0.154462 0.175353
0.363855 0.154462 0.175353
0.388859 0.154462 0.175353
0.413778 0.154462 0.175353
0.438618 0.154462 0.175353
0.463385 0.154462 0.175353
0.488082 0.154462 0.175353
0.512714 0.154462 0.175353
0.537283 0.154462 0.175353
0.561793 0.154462 0.175353
0.586248 0.154462 0.175353
0.610648 0.154462 0.175353
0.634998 0.154462 0.175353
0.659298 0.154462 0.175353
0.683551 0.154462 0.175353
0.707759 0.154462 0.175353
0.731924 0.154462 0.175353
0.756046 0.154462 0.175353
0.780129 0.154462 0.175353
0.804172 0.154462 0.175353
0.828177 0.154462 0.175353
0.852146 0.154462 0.175353
0.876079 0.154462 0.175353
0.899978 0.154462 0.175353
0.923844 0.154462 0.175353
0.133420 0.179905 0.175353
0.159698 0.179905 0.175353
0.185749 0.179905 0.175353
0.211608 0.179905 0.175353
0.237302 0.179905 0.175353
0.262850 0.179905 0.175353
0.288267 0.179905 0.175353
0.313567 0.179905 0.175353
0.338760 0.179905 0.175353
0.363855 0.179905 0.175353
0.388859 0.179905 0.175353
0.413778 0.179905 0.175353
0.438618 0.179905 0.175353
0.463385 0.179905 0.175353
0.488082 0.179905 0.175353
0.512714 0.179905 0.175353
0.537283 0.179905 0.175353
0.561793 0.179905 0.175353
0.586248 0.179905 0.175353
0.610648 0.179905 0.175353
0.634998 0.179905 0.175353
0.659298 0.179905 0.175353
0.683551 0.179905 0.175353
0.707759 0.179905 0.175353
0.731924 0.179905 0.175353
0.756046 0.179905 0.175353
0.780129 0.179905 0.175353
0.804172 0.179905 0.175353
0.828177 0.179905 0.175353
0.852146 0.179905 0.175353
0.876079 0.179905 0.175353
0.899978 0.179905 0.175353
0.923844 0.179905 0.175353
0.133420 0.205160 0.175353
0.159698 0.205160 0.175353
0.185749 0.205160 0.175353
0.211608 0.205160 0.175353
0.237302 0.205160 0.175353
0.262850 0.205160 0.175353
0.288267 0.205160 0.175353
0.313567 0.205160 0.175353
0.338760 0.205160 0.175353
0.363855 0.205160 0.175353
0.388859 0.205160 0.175353
0.413778 0.205160 0.175353
0.438618 0.205160 0.175353
0.463385 0.205160 0.175353
0.488082 0.205160 0.175353
0.512714 0.205160 0.175353
0.537283 0.205160 0.175353
0.561793 0.205160 0.175353
0.586248 0.205160 0.175353
0.610648 0.205160 0.175353
0.634998 0.205160 0.175353
0.659298 0.205160 0.175353
0.683551 0.205160 0.175353
0.707759 0.205160 0.175353
0.731924 0.205160 0.175353
0.756046 0.205160 0.175353
0.780129 0.205160 0.175353
0.804172 0.205160 0.175353
0.828177 0.205160 0.175353
0.852146 0.205160 0.175353
0.876079 0.205160 0.175353
0.899978 0.205160 0.175353
0.923844 0.205160 0.175353
0.133420 0.230252 0.175353
0.159698 0.230252 0.175353
0.185749 0.230252 0.175353
0.211608 0.230252 0.175353
0.237302 0.230252 0.175353
0.262850 0.230252 0.175353
0.288267 0.230252 0.175353
0.313567 0.230252 0.175353
0.338760 0.230252 0.175353
0.363855 0.230252 0.175353
0.388859 0.230252 0.175353
0.413778 0.230252 0.175353
0.438618 0.230252 0.175353
0.463385 0.230252 0.175353
0.488082 0.230252 0.175353
0.512714 0.230252 0.175353
0.537283 0.230252 0.175353
0.561793 0.230252 0.175353
0.586248 0.230252 0.175353
0.610648 0.230252 0.175353
0.634998 0.230252 0.175353
0.659298 0.230252 0.175353
0.683551 0.230252 0.175353
0.707759 0.230252 0.175353
0.731924 0.230252 0.175353
0.756046 0.230252 0.175353
0.780129 0.230252 0.175353
0.804172 0.230252 0.175353
0.828177 0.230252 0.175353
0.852146 0.230252 0.175353
0.876079 0.230252 0.175353
0.899978 0.230252 0.175353
0.923844 0.230252 0.175353
0.133420 0.255200 0.175353
0.159698 0.255200 0.175353
0.185749 0.255200 0.175353
0.211608 0.255200 0.175353
0.237302 0.255200 0.175353
0.262850 0.255200 0.175353
0.288267 0.255200 0.175353
0.313567 0.255200 0.175353
0.338760 0.255200 0.175353
0.363855 0.255200 0.175353
0.388859 0.255200 0.175353
0.413778 0.255200 0.175353
0.438618 0.255200 0.175353
0.463385 0.255200 0.175353
0.488082 0.255200 0.175353
0.512714 0.255200 0.175353
0.537283 0.255200 0.175353
0.561793 0.255200 0.175353
0.586248 0.255200 0.175353
0.610648 0.255200 0.175353
0.634998 0.255200 0.175353
0.659298 0.255200 0.175353
0.683551 0.255200 0.175353
0.707759 0.255200 0.175353
0.731924 0.255200 0.175353
0.756046 0.255200 0.175353
0.780129 0.255200 0.175353
0.804172 0.255200 0.175353
0.828177 0.255200 0.175353
0.852146 0.255200 0.175353
0.876079 0.255200 0.175353
0.899978 0.255200 0.175353
0.923844 0.255200 0.175353
0.133420 0.280020 0.175353
0.159698 0.280020 0.175353
0.185749 0.280020 0.175353
0.211608 0.280020 0.175353
0.237302 0.280020 0.175353
0.262850 0.280020 0.175353
0.288267 0.280020 0.175353
0.313567 0.280020 0.175353
0.338760 0.280020 0.175353
0.363855 0.280020 0.175353
0.388859 0.280020 0.175353
0.413778 0.280020 0.175353
0.438618 0.280020 0.175353
0.463385 0.280020 0.175353
0.488082 0.280020 0.175353
0.512714 0.280020 0.175353
0.537283 0.280020 0.175353
0.561793 0.280020 0.175353
0.586248 0.280020 0.175353
0.610648 0.280020 0.175353
0.634998 0.280020 0.175353
0.659298 0.280020 0.175353
0.683551 0.280020 0.175353
0.707759 0.280020 0.175353
0.731924 0.280020 0.175353
0.756046 0.280020 0.175353
0.780129 0.280020 0.175353
0.804172 0.280020 0.175353
0.828177 0.280020 0.175353
0.852146 0.280020 0.175353
0.876079 0.280020 0.175353
0.899978 0.280020 0.175353
0.923844 0.280020 0.175353
0.133420 0.304725 0.175353
0.159698 0.304725 0.175353
0.185749 0.304725 0.175353
0.211608 0.304725 0.175353
0.237302 0.304725 0.175353
0.262850 0.304725 0.175353
0.288267 0.304725 0.175353
0.313567 0.304725 0.175353
0.338760 0.304725 0.175353
0.363855 0.304725 0.175353
0.388859 0.304725 0.175353
0.413778 0.304725 0.175353
0.438618 0.304725 0.175353
0.463385 0.304725 0.175353
0.488082 0.304725 0.175353
0.512714 0.304725 0.175353
0.537283 0.304725 0.175353
0.561793 0.304725 0.175353
0.586248 0.304725 0.175353
0.610648 0.304725 0.175353
0.634998 0.304725 0.175353
0.659298 0.304725 0.175353
0.683551 0.304725 0.175353
0.707759 0.304725 0.175353
0.731924 0.304725 0.175353
0.756046 0.304725 0.175353
0.780129 0.304725 0.175353
0.804172 0.304725 0.175353
0.828177 0.304725 0.175353
0.852146 0.304725 0.175353
0.876079 0.304725 0.175353
0.899978 0.304725 0.175353
0.923844 0.304725 0.175353
0.133420 0.329325 0.175353
0.159698 0.329325 0.175353
0.185749 0.329325 0.175353
0.211608 0.329325 0.175353
0.237302 0.329325 0.175353
0.262850 0.329325 0.175353
0.288267 0.329325 0.175353
0.313567 0.329325 0.175353
0.338760 0.329325 0.175353
0.363855 0.329325 0.175353
0.388859 0.329325 0.175353
0.413778 0.329325 0.175353
0.438618 0.329325 0.175353
0.463385 0.329325 0.175353
0.488082 0.329325 0.175353
0.512714 0.329325 0.175353
0.537283 0.329325 0.175353
0.561793 0.329325 0.175353
0.586248 0.329325 0.175353
0.610648 0.329325 0.175353
0.634998 0.329325 0.175353
0.659298 0.329325 0.175353
0.683551 0.329325 0.175353
0.707759 0.329325 0.175353
0.731924 0.329325 0.175353
0.756046 0.329325 0.175353
0.780129 0.329325 0.175353
0.804172 0.329325 0.175353
0.828177 0.329325 0.175353
0.852146 0.329325 0.175353
0.876079 0.329325 0.175353
0.899978 0.329325 0.175353
0.923844 0.329325 0.175353
0.133420 0.353828 0.175353
0.159698 0.353828 0.175353
0.185749 0.353828 0.175353
0.211608 0.353828 0.175353
0.237302 0.353828 0.175353
0.262850 0.353828 0.175353
0.288267 0.353828 0.175353
0.313567 0.353828 0.175353
0.338760 0.353828 0.175353
0.363855 0.353828 0.175353
0.388859 0.353828 0.175353
0.413778 0.353828 0.175353
0.438618 0.353828 0.175353
0.463385 0.353828 0.175353
0.488082 0.353828 0.175353
0.512714 0.353828 0.175353
0.537283 0.353828 0.175353
0.561793 0.353828 0.175353
0.586248 0.353828 0.175353
0.610648 0.353828 0.175353
0.634998 0.353828 0.175353
0.659298 0.353828 0.175353
0.683551 0.353828 0.175353
0.707759 0.353828 0.175353
0.731924 0.353828 0.175353
0.756046 0.353828 0.175353
0.780129 0.353828 0.175353
0.804172 0.353828 0.175353
0.828177 0.353828 0.175353
0.852146 0.353828 0.175353
0.876079 0.353828 0.175353
0.899978 0.353828 0.175353
0.923844 0.353828 0.175353
0.133420 0.378243 0.175353
0.159698 0.378243 0.175353
0.185749 0.378243 0.175353
0.211608 0.378243 0.175353
0.237302 0.378243 0.175353
0.262850 0.378243 0.175353
0.288267 0.378243 0.175353
0.313567 0.378243 0.175353
0.338760 0.378243 0.175353
0.363855 0.378243 0.175353
0.388859 0.378243 0.175353
0.413778 0.378243 0.175353
0.438618 0.378243 0.175353
0.463385 0.378243 0.175353
0.488082 0.378243 0.175353
0.512714 0.378243 0.175353
0.537283 0.378243 0.175353
0.561793 0.378243 0.175353
0.586248 0.378243 0.175353
0.610648 0.378243 0.175353
0.634998 0.378243 0.175353
0.659298 0.378243 0.175353
0.683551 0.378243 0.175353
0.707759 0.378243 0.175353
0.731924 0.378243 0.175353
0.756046 0.378243 0.175353
0.780129 0.378243 0.175353
0.804172 0.378243 0.175353
0.828177 0.378243 0.175353
0.852146 0.378243 0.175353
0.876079 0.378243 0.175353
0.899978 0.378243 0.175353
0.923844 0.378243 0.175353
0.133420 0.402574 0.175353
0.159698 0.402574 0.175353
0.185749 0.402574 0.175353
0.211608 0.402574 0.175353
0.237302 0.402574 0.175353
0.262850 0.402574 0.175353
0.288267 0.402574 0.175353
0.313567 0.402574 0.175353
0.338760 0.402574 0.175353
0.363855 0.402574 0.175353
0.388859 0.402574 0.175353
0.413778 0.402574 0.175353
0.438618 0.402574 0.175353
0.463385 0.402574 0.175353
0.488082 0.402574 0.175353
0.512714 0.402574 0.175353
0.537283 0.402574 0.175353
0.561793 0.402574 0.175353
0.586248 0.402574 0.175353
0.610648 0.402574 0.175353
0.634998 0.402574 0.175353
0.659298 0.402574 0.175353
0.683551 0.402574 0.175353
0.707759 0.402574 0.175353
0.731924 0.402574 0.175353
0.756046 0.402574 0.175353
0.780129 0.402574 0.175353
0.804172 0.402574 0.175353
0.828177 0.402574 0.175353
0.852146 0.402574 0.175353
0.876079 0.402574 0.175353
0.899978 0.402574 0.175353
0.923844 0.402574 0.175353
0.133420 0.426829 0.175353
0.159698 0.426829 0.175353
0.185749 0.426829 0.175353
0.211608 0.426829 0.175353
0.237302 0.426829 0.175353
0.262850 0.426829 0.175353
0.288267 0.426829 0.175353
0.313567 0.426829 0.175353
0.338760 0.426829 0.175353
0.363855 0.426829 0.175353
0.388859 0.426829 0.175353
0.413778 0.426829 0.175353
0.438618 0.426829 0.175353
0.463385 0.426829 0.175353
0.488082 0.426829 0.175353
0.512714 0.426829 0.175353
0.537283 0.426829 0.175353
0.561793 0.426829 0.175353
0.586248 0.426829 0.175353
0.610648 0.426829 0.175353
0.634998 0.426829 0.175353
0.659298 0.426829 0.175353
0.683551 0.426829 0.175353
0.707759 0.426829 0.175353
0.731924 0.426829 0.175353
0.756046 0.426829 0.175353
0.780129 0.426829 0.175353
0.804172 0.426829 0.175353
0.828177 0.426829 0.175353
0.852146 0.426829 0.175353
0.876079 0.426829 0.175353
0.899978 0.426829 0.175353
0.923844 0.426829 0.175353
0.133420 0.451011 0.175353
0.159698 0.451011 0.175353
0.185749 0.451011 0.175353
0.211608 0.451011 0.175353
0.237302 0.451011 0.175353
0.262850 0.451011 0.175353
0.288267 0.451011 0.175353
0.313567 0.451011 0.175353
0.338760 0.451011 0.175353
0.363855 0.451011 0.175353
0.388859 0.451011 0.175353
0.413778 0.451011 0.175353
0.438618 0.451011 0.175353
0.463385 0.451011 0.175353
0.488082 0.451011 0.175353
0.512714 0.451011 0.175353
0.537283 0.451011 0.175353
0.561793 0.451011 0.175353
0.586248 0.451011 0.175353
0.610648 0.451011 0.175353
0.634998 0.451011 0.175353
0.659298 0.451011 0.175353
0.683551 0.451011 0.175353
0.707759 0.451011 0.175353
0.731924 0.451011 0.175353
0.756046 0.451011 0.175353
0.780129 0.451011 0.175353
0.804172 0.451011 0.175353
0.828177 0.451011 0.175353
0.852146 0.451011 0.175353
0.876079 0.451011 0.175353
0.899978 0.451011 0.175353
0.923844 0.451011 0.175353
0.133420 0.475125 0.175353
0.159698 0.475125 0.175353
0.185749 0.475125 0.175353
0.211608 0.475125 0.175353
0.237302 0.475125 0.175353
0.262850 0.475125 0.175353
0.288267 0.475125 0.175353
0.313567 0.475125 0.175353
0.338760 0.475125 0.175353
0.363855 0.475125 0.175353
0.388859 0.475125 0.175353
0.413778 0.475125 0.175353
0.438618 0.475125 0.175353
0.463385 0.475125 0.175353
0.488082 0.475125 0.175353
0.512714 0.475125 0.175353
0.537283 0.475125 0.175353
0.561793 0.475125 0.175353
0.586248 0.475125 0.175353
0.610648 0.475125 0.175353
0.634998 0.475125 0.175353
0.659298 0.475125 0.175353
0.683551 0.475125 0.175353
0.707759 0.475125 0.175353
0.731924 0.475125 0.175353
0.756046 0.475125 0.175353
0.780129 0.475125 0.175353
0.804172 0.475125 0.175353
0.828177 0.475125 0.175353
0.852146 0.475125 0.175353
0.876079 0.475125 0.175353
0.899978 0.475125 0.175353
0.923844 0.475125 0.175353
0.133420 0.499174 0.175353
0.159698 0.499174 0.175353
0.185749 0.499174 0.175353
0.211608 0.499174 0.175353
0.237302 0.499174 0.175353
0.262850 0.499174 0.175353
0.288267 0.499174 0.175353
0.313567 0.499174 0.175353
0.338760 0.499174 0.175353
0.363855 0.499174 0.175353
0.388859 0.499174 0.175353
0.413778 0.499174 0.175353
0.438618 0.499174 0.175353
0.463385 0.499174 0.175353
0.488082 0.499174 0.175353
0.512714 0.499174 0.175353
0.537283 0.499174 0.175353
0.561793 0.499174 0.175353
0.586248 0.499174 0.175353
0.610648 0.499174 0.175353
0.634998 0.499174 0.175353
0.659298 0.499174 0.175353
0.683551 0.499174 0.175353
0.707759 0.499174 0.175353
0.731924 0.499174 0.175353
0.756046 0.499174 0.175353
0.780129 0.499174 0.175353
0.804172 0.499174 0.175353
0.828177 0.499174 0.175353
0.852146 0.499174 0.175353
0.876079 0.499174 0.175353
0.899978 0.499174 0.175353
0.923844 0.499174 0.175353
0.133420 0.523163 0.175353
0.159698 0.523163 0.175353
0.185749 0.523163 0.175353
0.211608 0.523163 0.175353
0.237302 0.523163 0.175353
0.262850 0.523163 0.175353
0.288267 0.523163 0.175353
0.313567 0.523163 0.175353
0.338760 0.523163 0.175353
0.363855 0.523163 0.175353
0.388859 0.523163 0.175353
0.413778 0.523163 0.175353
0.438618 0.523163 0.175353
0.463385 0.523163 0.175353
0.488082 0.523163 0.175353
0.512714 0.523163 0.175353
0.537283 0.523163 0.175353
0.561793 0.523163 0.175353
0.586248 0.523163 0.175353
0.610648 0.523163 0.175353
0.634998 0.523163 0.175353
0.659298 0.523163 0.175353
0.683551 0.523163 0.175353
0.707759 0.523163 0.175353
0.731924 0.523163 0.175353
0.756046 0.523163 0.175353
0.780129 0.523163 0.175353
0.804172 0.523163 0.175353
0.828177 0.523163 0.175353
0.852146 0.523163 0.175353
0.876079 0.523163 0.175353
0.899978 0.523163 0.175353
0.923844 0.523163 0.175353
0.133420 0.547094 0.175353
0.159698 0.547094 0.175353
0.185749 0.547094 0.175353
0.211608 0.547094 0.175353
0.237302 0.547094 0.175353
0.262850 0.547094 0.175353
0.288267 0.547094 0.175353
0.313567 0.547094 0.175353
0.338760 0.547094 0.175353
0.363855 0.547094 0.175353
0.388859 0.547094 0.175353
0.413778 0.547094 0.175353
0.438618 0.547094 0.175353
0.463385 0.547094 0.175353
0.488082 0.547094 0.175353
0.512714 0.547094 0.175353
0.537283 0.547094 0.175353
0.561793 0.547094 0.175353
0.586248 0.547094 0.175353
0.610648 0.547094 0.175353
0.634998 0.547094 0.175353
0.659298 0.547094 0.175353
0.683551 0.547094 0.175353
0.707759 0.547094 0.175353
0.731924 0.547094 0.175353
0.756046 0.547094 0.175353
0.780129 0.547094 0.175353
0.804172 0.547094 0.175353
0.828177 0.547094 0.175353
0.852146 0.547094 0.175353
0.876079 0.547094 0.175353
0.899978 0.547094 0.175353
0.923844 0.547094 0.175353
0.133420 0.570970 0.175353
0.159698 0.570970 0.175353
0.185749 0.570970 0.175353
0.211608 0.570970 0.175353
0.237302 0.570970 0.175353
0.262850 0.570970 0.175353
0.288267 0.570970 0.175353
0.313567 0.570970 0.175353
0.338760 0.570970 0.175353
0.363855 0.570970 0.175353
0.388859 0.570970 0.175353
0.413778 0.570970 0.175353
0.438618 0.570970 0.175353
0.463385 0.570970 0.175353
0.488082 0.570970 0.175353
0.512714 0.570970 0.175353
0.537283 0.570970 0.175353
0.561793 0.570970 0.175353
0.586248 0.570970 0.175353
0.610648 0.570970 0.175353
0.634998 0.570970 0.175353
0.659298 0.570970 0.175353
0.683551 0.570970 0.175353
0.707759 0.570970 0.175353
0.731924 0.570970 0.175353
0.756046 0.570970 0.175353
0.780129 0.570970 0.175353
0.804172 0.570970 0.175353
0.828177 0.570970 0.175353
0.852146 0.570970 0.175353
0.876079 0.570970 0.175353
0.899978 0.570970 0.175353
0.923844 0.570970 0.175353
0.133420 0.594794 0.175353
0.159698 0.594794 0.175353
0.185749 0.594794 0.175353
0.211608 0.594794 0.175353
0.237302 0.594794 0.175353
0.262850 0.594794 0.175353
0.288267 0.594794 0.175353
0.313567 0.594794 0.175353
0.338760 0.594794 0.175353
0.363855 0.594794 0.175353
0.388859 0.594794 0.175353
0.413778 0.594794 0.175353
0.438618 0.594794 0.175353
0.463385 0.594794 0.175353
0.488082 0.594794 0.175353
0.512714 0.594794 0.175353
0.537283 0.594794 0.175353
0.561793 0.594794 0.175353
0.586248 0.594794 0.175353
0.610648 0.594794 0.175353
0.634998 0.594794 0.175353
0.659298 0.594794 0.175353
0.683551 0.594794 0.175353
0.707759 0.594794 0.175353
0.731924 0.594794 0.175353
0.756046 0.594794 0.175353
0.780129 0.594794 0.175353
0.804172 0.594794 0.175353
0.828177 0.594794 0.175353
0.852146 0.594794 0.175353
0.876079 0.594794 0.175353
0.899978 0.594794 0.175353
0.923844 0.594794 0.175353
0.133420 0.618567 0.175353
0.159698 0.618567 0.175353
0.185749 0.618567 0.175353
0.211608 0.618567 0.175353
0.237302 0.618567 0.175353
0.262850 0.618567 0.175353
0.288267 0.618567 0.175353
0.313567 0.618567 0.175353
0.338760 0.618567 0.175353
0.363855 0.618567 0.175353
0.388859 0.618567 0.175353
0.413778 0.618567 0.175353
0.438618 0.618567 0.175353
0.463385 0.618567 0.175353
0.488082 0.618567 0.175353
0.512714 0.618567 0.175353
0.537283 0.618567 0.175353
0.561793 0.618567 0.175353
0.586248 0.618567 0.175353
0.610648 0.618567 0.175353
0.634998 0.618567 0.175353
0.659298 0.618567 0.175353
0.683551 0.618567 0.175353
0.707759 0.618567 0.175353
0.731924 0.618567 0.175353
0.756046 0.618567 0.175353
0.780129 0.618567 0.175353
0.804172 0.618567 0.175353
0.828177 0.618567 0.175353
0.852146 0.618567 0.175353
0.876079 0.618567 0.175353
0.899978 0.618567 0.175353
0.923844 0.618567 0.175353
0.133420 0.642293 0.175353
0.159698 0.642293 0.175353
0.185749 0.642293 0.175353
0.211608 0.642293 0.175353
0.237302 0.642293 0.175353
0.262850 0.642293 0.175353
0.288267 0.642293 0.175353
0.313567 0.642293 0.175353
0.338760 0.642293 0.175353
0.363855 0.642293 0.175353
0.388859 0.642293 0.175353
0.413778 0.642293 0.175353
0.438618 0.642293 0.175353
0.463385 0.642293 0.175353
0.488082 0.642293 0.175353
0.512714 0.642293 0.175353
0.537283 0.642293 0.175353
0.561793 0.642293 0.175353
0.586248 0.642293 0.175353
0.610648 0.642293 0.175353
0.634998 0.642293 0.175353
0.659298 0.642293 0.175353
0.683551 0.642293 0.175353
0.707759 0.642293 0.175353
0.731924 0.642293 0.175353
0.756046 0.642293 0.175353
0.780129 0.642293 0.175353
0.804172 0.642293 0.175353
0.828177 0.642293 0.175353
0.852146 0.642293 0.175353
0.876079 0.642293 0.175353
0.899978 0.642293 0.175353
0.923844 0.642293 0.175353
0.133420 0.665972 0.175353
0.159698 0.665972 0.175353
0.185749 0.665972 0.175353
0.211608 0.665972 0.175353
0.237302 0.665972 0.175353
0.262850 0.665972 0.175353
0.288267 0.665972 0.175353
0.313567 0.665972 0.175353
0.338760 0.665972 0.175353
0.363855 0.665972 0.175353
0.388859 0.665972 0.175353
0.413778 0.665972 0.175353
0.438618 0.665972 0.175353
0.463385 0.665972 0.175353
0.488082 0.665972 0.175353
0.512714 0.665972 0.175353
0.537283 0.665972 0.175353
0.561793 0.665972 0.175353
0.586248 0.665972 0.175353
0.610648 0.665972 0.175353
0.634998 0.665972 0.175353
0.659298 0.665972 0.175353
0.683551 0.665972 0.175353
0.707759 0.665972 0.175353
0.731924 0.665972 0.175353
0.756046 0.665972 0.175353
0.780129 0.665972 0.175353
0.804172 0.665972 0.175353
0.828177 0.665972 0.175353
0.852146 0.665972 0.175353
0.876079 0.665972 0.175353
0.899978 0.665972 0.175353
0.923844 0.665972 0.175353
0.133420 0.689607 0.175353
0.159698 0.689607 0.175353
0.185749 0.689607 0.175353
0.211608 0.689607 0.175353
0.237302 0.689607 0.175353
0.262850 0.689607 0.175353
0.288267 0.689607 0.175353
0.313567 0.689607 0.175353
0.338760 0.689607 0.175353
0.363855 0.689607 0.175353
0.388859 0.689607 0.175353
0.413778 0.689607 0.175353
0.438618 0.689607 0.175353
0.463385 0.689607 0.175353
0.488082 0.689607 0.175353
0.512714 0.689607 0.175353
0.537283 0.689607 0.175353
0.561793 0.689607 0.175353
0.586248 0.689607 0.175353
0.610648 0.689607 0.175353
0.634998 0.689607 0.175353
0.659298 0.689607 0.175353
0.683551 0.689607 0.175353
0.707759 0.689607 0.175353
0.731924 0.689607 0.175353
0.756046 0.689607 0.175353
0.780129 0.689607 0.175353
0.804172 0.689607 0.175353
0.828177 0.689607 0.175353
0.852146 0.689607 0.175353
0.876079 0.689607 0.175353
0.899978 0.689607 0.175353
0.923844 0.689607 0.175353
0.133420 0.713200 0.175353
0.159698 0.713200 0.175353
0.185749 0.713200 0.175353
0.211608 0.713200 0.175353
0.237302 0.713200 0.175353
0.262850 0.713200 0.175353
0.288267 0.713200 0.175353
0.313567 0.713200 0.175353
0.338760 0.713200 0.175353
0.363855 0.713200 0.175353
0.388859 0.713200 0.175353
0.413778 0.713200 0.175353
0.438618 0.713200 0.175353
0.463385 0.713200 0.175353
0.488082 0.713200 0.175353
0.512714 0.713200 0.175353
0.537283 0.713200 0.175353
0.561793 0.713200 0.175353
0.586248 0.713200 0.175353
0.610648 0.713200 0.175353
0.634998 0.713200 0.175353
0.659298 0.713200 0.175353
0.683551 0.713200 0.175353
0.707759 0.713200 0.175353
0.731924 0.713200 0.175353
0.756046 0.713200 0.175353
0.780129 0.713200 0.175353
0.804172 0.713200 0.175353
0.828177 0.713200 0.175353
0.852146 0.713200 0.175353
0.876079 0.713200 0.175353
0.899978 0.713200 0.175353
0.923844 0.713200 0.175353
0.133420 0.736752 0.175353
0.159698 0.736752 0.175353
0.185749 0.736752 0.175353
0.211608 0.736752 0.175353
0.237302 0.736752 0.175353
0.262850 0.736752 0.175353
0.288267 0.736752 0.175353
0.313567 0.736752 0.175353
0.338760 0.736752 0.175353
0.363855 0.736752 0.175353
0.388859 0.736752 0.175353
0.413778 0.736752 0.175353
0.438618 0.736752 0.175353
0.463385 0.736752 0.175353
0.488082 0.736752 0.175353
0.512714 0.736752 0.175353
0.537283 0.736752 0.175353
0.561793 0.736752 0.175353
0.586248 0.736752 0.175353
0.610648 0.736752 0.175353
0.634998 0.736752 0.175353
0.659298 0.736752 0.175353
0.683551 0.736752 0.175353
0.707759 0.736752 0.175353
0.731924 0.736752 0.175353
0.756046 0.736752 0.175353
0.780129 0.736752 0.175353
0.804172 0.736752 0.175353
0.828177 0.736752 0.175353
0.852146 0.736752 0.175353
0.876079 0.736752 0.175353
0.899978 0.736752 0.175353
0.923844 0.736752 0.175353
0.133420 0.760264 0.175353
0.159698 0.760264 0.175353
0.185749 0.760264 0.175353
0.211608 0.760264 0.175353
0.237302 0.760264 0.175353
0.262850 0.760264 0.175353
0.288267 0.760264 0.175353
0.313567 0.760264 0.175353
0.338760 0.760264 0.175353
0.363855 0.760264 0.175353
0.388859 0.760264 0.175353
0.413778 0.760264 0.175353
0.438618 0.760264 0.175353
0.463385 0.760264 0.175353
0.488082 0.760264 0.175353
0.512714 0.760264 0.175353
0.537283 0.760264 0.175353
0.561793 0.760264 0.175353
0.586248 0.760264 0.175353
0.610648 0.760264 0.175353
0.634998 0.760264 0.175353
0.659298 0.760264 0.175353
0.683551 0.760264 0.175353
0.707759 0.760264 0.175353
0.731924 0.760264 0.175353
0.756046 0.760264 0.175353
0.780129 0.760264 0.175353
0.804172 0.760264 0.175353
0.828177 0.760264 0.175353
0.852146 0.760264 0.175353
0.876079 0.760264 0.175353
0.899978 0.760264 0.175353
0.923844 0.760264 0.175353
0.133420 0.783738 0.175353
0.159698 0.783738 0.175353
0.185749 0.783738 0.175353
0.211608 0.783738 0.175353
0.237302 0.783738 0.175353
0.262850 0.783738 0.175353
0.288267 0.783738 0.175353
0.313567 0.783738 0.175353
0.338760 0.783738 0.175353
0.363855 0.783738 0.175353
0.388859 0.783738 0.175353
0.413778 0.783738 0.175353
0.438618 0.783738 0.175353
0.463385 0.783738 0.175353
0.488082 0.783738 0.175353
0.512714 0.783738 0.175353
0.537283 0.783738 0.175353
0.561793 0.783738 0.175353
0.586248 0.783738 0.175353
0.610648 0.783738 0.175353
0.634998 0.783738 0.175353
0.659298 0.783738 0.175353
0.683551 0.783738 0.175353
0.707759 0.783738 0.175353
0.731924 0.783738 0.175353
0.756046 0.783738 0.175353
