public/luts/pastel-dream.cube
# KomfyEdit 3D LUT: pastel-dream
TITLE "pastel-dream"
LUT_3D_SIZE 9
DOMAIN_MIN 0.0 0.0 0.0
DOMAIN_MAX 1.0 1.0 1.0
0.133420 0.154462 0.175353
0.237302 0.154462 0.175353
0.338760 0.154462 0.175353
0.438618 0.154462 0.175353
0.537283 0.154462 0.175353
0.634998 0.154462 0.175353
0.731924 0.154462 0.175353
0.828177 0.154462 0.175353
0.923844 0.154462 0.175353
0.133420 0.255200 0.175353
0.237302 0.255200 0.175353
0.338760 0.255200 0.175353
0.438618 0.255200 0.175353
0.537283 0.255200 0.175353
0.634998 0.255200 0.175353
0.731924 0.255200 0.175353
0.828177 0.255200 0.175353
0.923844 0.255200 0.175353
0.133420 0.353828 0.175353
0.237302 0.353828 0.175353
0.338760 0.353828 0.175353
0.438618 0.353828 0.175353
0.537283 0.353828 0.175353
0.634998 0.353828 0.175353
0.731924 0.353828 0.175353
0.828177 0.353828 0.175353
0.923844 0.353828 0.175353
0.133420 0.451011 0.175353
0.237302 0.451011 0.175353
0.338760 0.451011 0.175353
0.438618 0.451011 0.175353
0.537283 0.451011 0.175353
0.634998 0.451011 0.175353
0.731924 0.451011 0.175353
0.828177 0.451011 0.175353
0.923844 0.451011 0.175353
0.133420 0.547094 0.175353
0.237302 0.547094 0.175353
0.338760 0.547094 0.175353
0.438618 0.547094 0.175353
0.537283 0.547094 0.175353
0.634998 0.547094 0.175353
0.731924 0.547094 0.175353
0.828177 0.547094 0.175353
0.923844 0.547094 0.175353
0.133420 0.642293 0.175353
0.237302 0.642293 0.175353
0.338760 0.642293 0.175353
0.438618 0.642293 0.175353
0.537283 0.642293 0.175353
0.634998 0.642293 0.175353
0.731924 0.642293 0.175353
0.828177 0.642293 0.175353
0.923844 0.642293 0.175353
0.133420 0.736752 0.175353
0.237302 0.736752 0.175353
0.338760 0.736752 0.175353
0.438618 0.736752 0.175353
0.537283 0.736752 0.175353
0.634998 0.736752 0.175353
0.731924 0.736752 0.175353
0.828177 0.736752 0.175353
0.923844 0.736752 0.175353
0.133420 0.830575 0.175353
0.237302 0.830575 0.175353
0.338760 0.830575 0.175353
0.438618 0.830575 0.175353
0.537283 0.830575 0.175353
0.634998 0.830575 0.175353
0.731924 0.830575 0.175353
0.828177 0.830575 0.175353
0.923844 0.830575 0.175353
0.133420 0.923844 0.175353
0.237302 0.923844 0.175353
0.338760 0.923844 0.175353
0.438618 0.923844 0.175353
0.537283 0.923844 0.175353
0.634998 0.923844 0.175353
0.731924 0.923844 0.175353
0.828177 0.923844 0.175353
0.923844 0.923844 0.175353
0.133420 0.154462 0.280655
0.237302 0.154462 0.280655
0.338760 0.154462 0.280655
0.438618 0.154462 0.280655
0.537283 0.154462 0.280655
0.634998 0.154462 0.280655
0.731924 0.154462 0.280655
0.828177 0.154462 0.280655
0.923844 0.154462 0.280655
0.133420 0.255200 0.280655
0.237302 0.255200 0.280655
0.338760 0.255200 0.280655
0.438618 0.255200 0.280655
0.537283 0.255200 0.280655
0.634998 0.255200 0.280655
0.731924 0.255200 0.280655
0.828177 0.255200 0.280655
0.923844 0.255200 0.280655
0.133420 0.353828 0.280655
0.237302 0.353828 0.280655
0.338760 0.353828 0.280655
0.438618 0.353828 0.280655
0.537283 0.353828 0.280655
0.634998 0.353828 0.280655
0.731924 0.353828 0.280655
0.828177 0.353828 0.280655
0.923844 0.353828 0.280655
0.133420 0.451011 0.280655
0.237302 0.451011 0.280655
0.338760 0.451011 0.280655
0.438618 0.451011 0.280655
0.537283 0.451011 0.280655
0.634998 0.451011 0.280655
0.731924 0.451011 0.280655
0.828177 0.451011 0.280655
0.923844 0.451011 0.280655
0.133420 0.547094 0.280655
0.237302 0.547094 0.280655
0.338760 0.547094 0.280655
0.438618 0.547094 0.280655
0.537283 0.547094 0.280655
0.634998 0.547094 0.280655
0.731924 0.547094 0.280655
0.828177 0.547094 0.280655
0.923844 0.547094 0.280655
0.133420 0.642293 0.280655
0.237302 0.642293 0.280655
0.338760 0.642293 0.280655
0.438618 0.642293 0.280655
0.537283 0.642293 0.280655
0.634998 0.642293 0.280655
0.731924 0.642293 0.280655
0.828177 0.642293 0.280655
0.923844 0.642293 0.280655
0.133420 0.736752 0.280655
0.237302 0.736752 0.280655
0.338760 0.736752 0.280655
0.438618 0.736752 0.280655
0.537283 0.736752 0.280655
0.634998 0.736752 0.280655
0.731924 0.736752 0.280655
0.828177 0.736752 0.280655
0.923844 0.736752 0.280655
0.133420 0.830575 0.280655
0.237302 0.830575 0.280655
0.338760 0.830575 0.280655
0.438618 0.830575 0.280655
0.537283 0.830575 0.280655
0.634998 0.830575 0.280655
0.731924 0.830575 0.280655
0.828177 0.830575 0.280655
0.923844 0.830575 0.280655
0.133420 0.923844 0.280655
0.237302 0.923844 0.280655
0.338760 0.923844 0.280655
0.438618 0.923844 0.280655
0.537283 0.923844 0.280655
0.634998 0.923844 0.280655
0.731924 0.923844 0.280655
0.828177 0.923844 0.280655
0.923844 0.923844 0.280655
0.133420 0.154462 0.383865
0.237302 0.154462 0.383865
0.338760 0.154462 0.383865
0.438618 0.154462 0.383865
0.537283 0.154462 0.383865
0.634998 0.154462 0.383865
0.731924 0.154462 0.383865
0.828177 0.154462 0.383865
0.923844 0.154462 0.383865
0.133420 0.255200 0.383865
0.237302 0.255200 0.383865
0.338760 0.255200 0.383865
0.438618 0.255200 0.383865
0.537283 0.255200 0.383865
0.634998 0.255200 0.383865
0.731924 0.255200 0.383865
0.828177 0.255200 0.383865
0.923844 0.255200 0.383865
0.133420 0.353828 0.383865
0.237302 0.353828 0.383865
0.338760 0.353828 0.383865
0.438618 0.353828 0.383865
0.537283 0.353828 0.383865
0.634998 0.353828 0.383865
0.731924 0.353828 0.383865
0.828177 0.353828 0.383865
0.923844 0.353828 0.383865
0.133420 0.451011 0.383865
0.237302 0.451011 0.383865
0.338760 0.451011 0.383865
0.438618 0.451011 0.383865
0.537283 0.451011 0.383865
0.634998 0.451011 0.383865
0.731924 0.451011 0.383865
0.828177 0.451011 0.383865
0.923844 0.451011 0.383865
0.133420 0.547094 0.383865
0.237302 0.547094 0.383865
0.338760 0.547094 0.383865
0.438618 0.547094 0.383865
0.537283 0.547094 0.383865
0.634998 0.547094 0.383865
0.731924 0.547094 0.383865
0.828177 0.547094 0.383865
0.923844 0.547094 0.383865
0.133420 0.642293 0.383865
0.237302 0.642293 0.383865
0.338760 0.642293 0.383865
0.438618 0.642293 0.383865
0.537283 0.642293 0.383865
0.634998 0.642293 0.383865
0.731924 0.642293 0.383865
0.828177 0.642293 0.383865
0.923844 0.642293 0.383865
0.133420 0.736752 0.383865
0.237302 0.736752 0.383865
0.338760 0.736752 0.383865
0.438618 0.736752 0.383865
0.537283 0.736752 0.383865
0.634998 0.736752 0.383865
0.731924 0.736752 0.383865
0.828177 0.736752 0.383865
0.923844 0.736752 0.383865
0.133420 0.830575 0.383865
0.237302 0.830575 0.383865
0.338760 0.830575 0.383865
0.438618 0.830575 0.383865
0.537283 0.830575 0.383865
0.634998 0.830575 0.383865
0.731924 0.830575 0.383865
0.828177 0.830575 0.383865
0.923844 0.830575 0.383865
0.133420 0.923844 0.383865
0.237302 0.923844 0.383865
0.338760 0.923844 0.383865
0.438618 0.923844 0.383865
0.537283 0.923844 0.383865
0.634998 0.923844 0.383865
0.731924 0.923844 0.383865
0.828177 0.923844 0.383865
0.923844 0.923844 0.383865
0.133420 0.154462 0.485615
0.237302 0.154462 0.485615
0.338760 0.154462 0.485615
0.438618 0.154462 0.485615
0.537283 0.154462 0.485615
0.634998 0.154462 0.485615
0.731924 0.154462 0.485615
0.828177 0.154462 0.485615
0.923844 0.154462 0.485615
0.133420 0.255200 0.485615
0.237302 0.255200 0.485615
0.338760 0.255200 0.485615
0.438618 0.255200 0.485615
0.537283 0.255200 0.485615
0.634998 0.255200 0.485615
0.731924 0.255200 0.485615
0.828177 0.255200 0.485615
0.923844 0.255200 0.485615
0.133420 0.353828 0.485615
0.237302 0.353828 0.485615
0.338760 0.353828 0.485615
0.438618 0.353828 0.485615
0.537283 0.353828 0.485615
0.634998 0.353828 0.485615
0.731924 0.353828 0.485615
0.828177 0.353828 0.485615
0.923844 0.353828 0.485615
0.133420 0.451011 0.485615
0.237302 0.451011 0.485615
0.338760 0.451011 0.485615
0.438618 0.451011 0.485615
0.537283 0.451011 0.485615
0.634998 0.451011 0.485615
0.731924 0.451011 0.485615
0.828177 0.451011 0.485615
0.923844 0.451011 0.485615
0.133420 0.547094 0.485615
0.237302 0.547094 0.485615
0.338760 0.547094 0.485615
0.438618 0.547094 0.485615
0.537283 0.547094 0.485615
0.634998 0.547094 0.485615
0.731924 0.547094 0.485615
0.828177 0.547094 0.485615
0.923844 0.547094 0.485615
0.133420 0.642293 0.485615
0.237302 0.642293 0.485615
0.338760 0.642293 0.485615
0.438618 0.642293 0.485615
0.537283 0.642293 0.485615
0.634998 0.642293 0.485615
0.731924 0.642293 0.485615
0.828177 0.642293 0.485615
0.923844 0.642293 0.485615
0.133420 0.736752 0.485615
0.237302 0.736752 0.485615
0.338760 0.736752 0.485615
0.438618 0.736752 0.485615
0.537283 0.736752 0.485615
0.634998 0.736752 0.485615
0.731924 0.736752 0.485615
0.828177 0.736752 0.485615
0.923844 0.736752 0.485615
0.133420 0.830575 0.485615
0.237302 0.830575 0.485615
0.338760 0.830575 0.485615
0.438618 0.830575 0.485615
0.537283 0.830575 0.485615
0.634998 0.830575 0.485615
0.731924 0.830575 0.485615
0.828177 0.830575 0.485615
0.923844 0.830575 0.485615
0.133420 0.923844 0.485615
0.237302 0.923844 0.485615
0.338760 0.923844 0.485615
0.438618 0.923844 0.485615
0.537283 0.923844 0.485615
0.634998 0.923844 0.485615
0.731924 0.923844 0.485615
0.828177 0.923844 0.485615
0.923844 0.923844 0.485615
0.133420 0.154462 0.586248
0.237302 0.154462 0.586248
0.338760 0.154462 0.586248
0.438618 0.154462 0.586248
0.537283 0.154462 0.586248
0.634998 0.154462 0.586248
0.731924 0.154462 0.586248
0.828177 0.154462 0.586248
0.923844 0.154462 0.586248
0.133420 0.255200 0.586248
0.237302 0.255200 0.586248
0.338760 0.255200 0.586248
0.438618 0.255200 0.586248
0.537283 0.255200 0.586248
0.634998 0.255200 0.586248
0.731924 0.255200 0.586248
0.828177 0.255200 0.586248
0.923844 0.255200 0.586248
0.133420 0.353828 0.586248
0.237302 0.353828 0.586248
0.338760 0.353828 0.586248
0.438618 0.353828 0.586248
0.537283 0.353828 0.586248
0.634998 0.353828 0.586248
0.731924 0.353828 0.586248
0.828177 0.353828 0.586248
0.923844 0.353828 0.586248
0.133420 0.451011 0.586248
0.237302 0.451011 0.586248
0.338760 0.451011 0.586248
0.438618 0.451011 0.586248
0.537283 0.451011 0.586248
0.634998 0.451011 0.586248
0.731924 0.451011 0.586248
0.828177 0.451011 0.586248
0.923844 0.451011 0.586248
0.133420 0.547094 0.586248
0.237302 0.547094 0.586248
0.338760 0.547094 0.586248
0.438618 0.547094 0.586248
0.537283 0.547094 0.586248
0.634998 0.547094 0.586248
0.731924 0.547094 0.586248
0.828177 0.547094 0.586248
0.923844 0.547094 0.586248
0.133420 0.642293 0.586248
0.237302 0.642293 0.586248
0.338760 0.642293 0.586248
0.438618 0.642293 0.586248
0.537283 0.642293 0.586248
0.634998 0.642293 0.586248
0.731924 0.642293 0.586248
0.828177 0.642293 0.586248
0.923844 0.642293 0.586248
0.133420 0.736752 0.586248
0.237302 0.736752 0.586248
0.338760 0.736752 0.586248
0.438618 0.736752 0.586248
0.537283 0.736752 0.586248
0.634998 0.736752 0.586248
0.731924 0.736752 0.586248
0.828177 0.736752 0.586248
0.923844 0.736752 0.586248
0.133420 0.830575 0.586248
0.237302 0.830575 0.586248
0.338760 0.830575 0.586248
0.438618 0.830575 0.586248
0.537283 0.830575 0.586248
0.634998 0.830575 0.586248
0.731924 0.830575 0.586248
0.828177 0.830575 0.586248
0.923844 0.830575 0.586248
0.133420 0.923844 0.586248
0.237302 0.923844 0.586248
0.338760 0.923844 0.586248
0.438618 0.923844 0.586248
0.537283 0.923844 0.586248
0.634998 0.923844 0.586248
0.731924 0.923844 0.586248
0.828177 0.923844 0.586248
0.923844 0.923844 0.586248
0.133420 0.154462 0.685974
0.237302 0.154462 0.685974
0.338760 0.154462 0.685974
0.438618 0.154462 0.685974
0.537283 0.154462 0.685974
0.634998 0.154462 0.685974
0.731924 0.154462 0.685974
0.828177 0.154462 0.685974
0.923844 0.154462 0.685974
0.133420 0.255200 0.685974
0.237302 0.255200 0.685974
0.338760 0.255200 0.685974
0.438618 0.255200 0.685974
0.537283 0.255200 0.685974
0.634998 0.255200 0.685974
0.731924 0.255200 0.685974
0.828177 0.255200 0.685974
0.923844 0.255200 0.685974
0.133420 0.353828 0.685974
0.237302 0.353828 0.685974
0.338760 0.353828 0.685974
0.438618 0.353828 0.685974
0.537283 0.353828 0.685974
0.634998 0.353828 0.685974
0.731924 0.353828 0.685974
0.828177 0.353828 0.685974
0.923844 0.353828 0.685974
0.133420 0.451011 0.685974
0.237302 0.451011 0.685974
0.338760 0.451011 0.685974
0.438618 0.451011 0.685974
0.537283 0.451011 0.685974
0.634998 0.451011 0.685974
0.731924 0.451011 0.685974
0.828177 0.451011 0.685974
0.923844 0.451011 0.685974
0.133420 0.547094 0.685974
0.237302 0.547094 0.685974
0.338760 0.547094 0.685974
0.438618 0.547094 0.685974
0.537283 0.547094 0.685974
0.634998 0.547094 0.685974
0.731924 0.547094 0.685974
0.828177 0.547094 0.685974
0.923844 0.547094 0.685974
0.133420 0.642293 0.685974
0.237302 0.642293 0.685974
0.338760 0.642293 0.685974
0.438618 0.642293 0.685974
0.537283 0.642293 0.685974
0.634998 0.642293 0.685974
0.731924 0.642293 0.685974
0.828177 0.642293 0.685974
0.923844 0.642293 0.685974
0.133420 0.736752 0.685974
0.237302 0.736752 0.685974
0.338760 0.736752 0.685974
0.438618 0.736752 0.685974
0.537283 0.736752 0.685974
0.634998 0.736752 0.685974
0.731924 0.736752 0.685974
0.828177 0.736752 0.685974
0.923844 0.736752 0.685974
0.133420 0.830575 0.685974
0.237302 0.830575 0.685974
0.338760 0.830575 0.685974
0.438618 0.830575 0.685974
0.537283 0.830575 0.685974
0.634998 0.830575 0.685974
0.731924 0.830575 0.685974
0.828177 0.830575 0.685974
0.923844 0.830575 0.685974
0.133420 0.923844 0.685974
0.237302 0.923844 0.685974
0.338760 0.923844 0.685974
0.438618 0.923844 0.685974
0.537283 0.923844 0.685974
0.634998 0.923844 0.685974
0.731924 0.923844 0.685974
0.828177 0.923844 0.685974
0.923844 0.923844 0.685974
0.133420 0.154462 0.784940
0.237302 0.154462 0.784940
0.338760 0.154462 0.784940
0.438618 0.154462 0.784940
0.537283 0.154462 0.784940
0.634998 0.154462 0.784940
0.731924 0.154462 0.784940
0.828177 0.154462 0.784940
0.923844 0.154462 0.784940
0.133420 0.255200 0.784940
0.237302 0.255200 0.784940
0.338760 0.255200 0.784940
0.438618 0.255200 0.784940
0.537283 0.255200 0.784940
0.634998 0.255200 0.784940
0.731924 0.255200 0.784940
0.828177 0.255200 0.784940
0.923844 0.255200 0.784940
0.133420 0.353828 0.784940
0.237302 0.353828 0.784940
0.338760 0.353828 0.784940
0.438618 0.353828 0.784940
0.537283 0.353828 0.784940
0.634998 0.353828 0.784940
0.731924 0.353828 0.784940
0.828177 0.353828 0.784940
0.923844 0.353828 0.784940
0.133420 0.451011 0.784940
0.237302 0.451011 0.784940
0.338760 0.451011 0.784940
0.438618 0.451011 0.784940
0.537283 0.451011 0.784940
0.634998 0.451011 0.784940
0.731924 0.451011 0.784940
0.828177 0.451011 0.784940
0.923844 0.451011 0.784940
0.133420 0.547094 0.784940
0.237302 0.547094 0.784940
0.338760 0.547094 0.784940
0.438618 0.547094 0.784940
0.537283 0.547094 0.784940
0.634998 0.547094 0.784940
0.731924 0.547094 0.784940
0.828177 0.547094 0.784940
0.923844 0.547094 0.784940
0.133420 0.642293 0.784940
0.237302 0.642293 0.784940
0.338760 0.642293 0.784940
0.438618 0.642293 0.784940
0.537283 0.642293 0.784940
0.634998 0.642293 0.784940
0.731924 0.642293 0.784940
0.828177 0.642293 0.784940
0.923844 0.642293 0.784940
0.133420 0.736752 0.784940
0.237302 0.736752 0.784940
0.338760 0.736752 0.784940
0.438618 0.736752 0.784940
0.537283 0.736752 0.784940
0.634998 0.736752 0.784940
0.731924 0.736752 0.784940
0.828177 0.736752 0.784940
0.923844 0.736752 0.784940
0.133420 0.830575 0.784940
0.237302 0.830575 0.784940
0.338760 0.830575 0.784940
0.438618 0.830575 0.784940
0.537283 0.830575 0.784940
0.634998 0.830575 0.784940
0.731924 0.830575 0.784940
0.828177 0.830575 0.784940
0.923844 0.830575 0.784940
0.133420 0.923844 0.784940
0.237302 0.923844 0.784940
0.338760 0.923844 0.784940
0.438618 0.923844 0.784940
0.537283 0.923844 0.784940
0.634998 0.923844 0.784940
0.731924 0.923844 0.784940
0.828177 0.923844 0.784940
0.923844 0.923844 0.784940
0.133420 0.154462 0.883252
0.237302 0.154462 0.883252
0.338760 0.154462 0.883252
0.438618 0.154462 0.883252
0.537283 0.154462 0.883252
0.634998 0.154462 0.883252
0.731924 0.154462 0.883252
0.828177 0.154462 0.883252
0.923844 0.154462 0.883252
0.133420 0.255200 0.883252
0.237302 0.255200 0.883252
0.338760 0.255200 0.883252
0.438618 0.255200 0.883252
0.537283 0.255200 0.883252
0.634998 0.255200 0.883252
0.731924 0.255200 0.883252
0.828177 0.255200 0.883252
0.923844 0.255200 0.883252
0.133420 0.353828 0.883252
0.237302 0.353828 0.883252
0.338760 0.353828 0.883252
0.438618 0.353828 0.883252
0.537283 0.353828 0.883252
0.634998 0.353828 0.883252
0.731924 0.353828 0.883252
0.828177 0.353828 0.883252
0.923844 0.353828 0.883252
0.133420 0.451011 0.883252
0.237302 0.451011 0.883252
0.338760 0.451011 0.883252
0.438618 0.451011 0.883252
0.537283 0.451011 0.883252
0.634998 0.451011 0.883252
0.731924 0.451011 0.883252
0.828177 0.451011 0.883252
0.923844 0.451011 0.883252
0.133420 0.547094 0.883252
0.237302 0.547094 0.883252
0.338760 0.547094 0.883252
0.438618 0.547094 0.883252
0.537283 0.547094 0.883252
0.634998 0.547094 0.883252
0.731924 0.547094 0.883252
0.828177 0.547094 0.883252
0.923844 0.547094 0.883252
0.133420 0.642293 0.883252
0.237302 0.642293 0.883252
0.338760 0.642293 0.883252
0.438618 0.642293 0.883252
0.537283 0.642293 0.883252
0.634998 0.642293 0.883252
0.731924 0.642293 0.883252
0.828177 0.642293 0.883252
0.923844 0.642293 0.883252
0.133420 0.736752 0.883252
0.237302 0.736752 0.883252
0.338760 0.736752 0.883252
0.438618 0.736752 0.883252
0.537283 0.736752 0.883252
0.634998 0.736752 0.883252
0.731924 0.736752 0.883252
0.828177 0.736752 0.883252
0.923844 0.736752 0.883252
0.133420 0.830575 0.883252
0.237302 0.830575 0.883252
0.338760 0.830575 0.883252
0.438618 0.830575 0.883252
0.537283 0.830575 0.883252
0.634998 0.830575 0.883252
0.731924 0.830575 0.883252
0.828177 0.830575 0.883252
0.923844 0.830575 0.883252
0.133420 0.923844 0.883252
0.237302 0.923844 0.883252
0.338760 0.923844 0.883252
0.438618 0.923844 0.883252
0.537283 0.923844 0.883252
0.634998 0.923844 0.883252
0.731924 0.923844 0.883252
0.828177 0.923844 0.883252
0.923844 0.923844 0.883252
0.133420 0.154462 0.980990
0.237302 0.154462 0.980990
0.338760 0.154462 0.980990
0.438618 0.154462 0.980990
0.537283 0.154462 0.980990
0.634998 0.154462 0.980990
0.731924 0.154462 0.980990
0.828177 0.154462 0.980990
0.923844 0.154462 0.980990
0.133420 0.255200 0.980990
0.237302 0.255200 0.980990
0.338760 0.255200 0.980990
0.438618 0.255200 0.980990
0.537283 0.255200 0.980990
0.634998 0.255200 0.980990
0.731924 0.255200 0.980990
0.828177 0.255200 0.980990
0.923844 0.255200 0.980990
0.133420 0.353828 0.980990
0.237302 0.353828 0.980990
0.338760 0.353828 0.980990
0.438618 0.353828 0.980990
0.537283 0.353828 0.980990
0.634998 0.353828 0.980990
0.731924 0.353828 0.980990
0.828177 0.353828 0.980990
0.923844 0.353828 0.980990
0.133420 0.451011 0.980990
0.237302 0.451011 0.980990
0.338760 0.451011 0.980990
0.438618 0.451011 0.980990
0.537283 0.451011 0.980990
0.634998 0.451011 0.980990
0.731924 0.451011 0.980990
0.828177 0.451011 0.980990
0.923844 0.451011 0.980990
0.133420 0.547094 0.980990
0.237302 0.547094 0.980990
0.338760 0.547094 0.980990
0.438618 0.547094 0.980990
0.537283 0.547094 0.980990
0.634998 0.547094 0.980990
0.731924 0.547094 0.980990
0.828177 0.547094 0.980990
0.923844 0.547094 0.980990
0.133420 0.642293 0.980990
0.237302 0.642293 0.980990
0.338760 0.642293 0.980990
0.438618 0.642293 0.980990
0.537283 0.642293 0.980990
0.634998 0.642293 0.980990
0.731924 0.642293 0.980990
0.828177 0.642293 0.980990
0.923844 0.642293 0.980990
0.133420 0.736752 0.980990
0.237302 0.736752 0.980990
0.338760 0.736752 0.980990
0.438618 0.736752 0.980990
0.537283 0.736752 0.980990
0.634998 0.736752 0.980990
0.731924 0.736752 0.980990
0.828177 0.736752 0.980990
0.923844 0.736752 0.980990
0.133420 0.830575 0.980990
0.237302 0.830575 0.980990
0.338760 0.830575 0.980990
0.438618 0.830575 0.980990
0.537283 0.830575 0.980990
0.634998 0.830575 0.980990
0.731924 0.830575 0.980990
0.828177 0.830575 0.980990
0.923844 0.830575 0.980990
0.133420 0.923844 0.980990
0.237302 0.923844 0.980990
0.338760 0.923844 0.980990
0.438618 0.923844 0.980990
0.537283 0.923844 0.980990
0.634998 0.923844 0.980990
0.731924 0.923844 0.980990
0.828177 0.923844 0.980990
0.923844 0.923844 0.980990
