public/luts/pastel-dream.cube
# KomfyEdit 3D LUT: pastel-dream
TITLE "pastel-dream"
LUT_3D_SIZE 5
DOMAIN_MIN 0.0 0.0 0.0
DOMAIN_MAX 1.0 1.0 1.0
0.133420 0.154462 0.175353
0.338760 0.154462 0.175353
0.537283 0.154462 0.175353
0.731924 0.154462 0.175353
0.923844 0.154462 0.175353
0.133420 0.353828 0.175353
0.338760 0.353828 0.175353
0.537283 0.353828 0.175353
0.731924 0.353828 0.175353
0.923844 0.353828 0.175353
0.133420 0.547094 0.175353
0.338760 0.547094 0.175353
0.537283 0.547094 0.175353
0.731924 0.547094 0.175353
0.923844 0.547094 0.175353
0.133420 0.736752 0.175353
0.338760 0.736752 0.175353
0.537283 0.736752 0.175353
0.731924 0.736752 0.175353
0.923844 0.736752 0.175353
0.133420 0.923844 0.175353
0.338760 0.923844 0.175353
0.537283 0.923844 0.175353
0.731924 0.923844 0.175353
0.923844 0.923844 0.175353
0.133420 0.154462 0.383865
0.338760 0.154462 0.383865
0.537283 0.154462 0.383865
0.731924 0.154462 0.383865
0.923844 0.154462 0.383865
0.133420 0.353828 0.383865
0.338760 0.353828 0.383865
0.537283 0.353828 0.383865
0.731924 0.353828 0.383865
0.923844 0.353828 0.383865
0.133420 0.547094 0.383865
0.338760 0.547094 0.383865
0.537283 0.547094 0.383865
0.731924 0.547094 0.383865
0.923844 0.547094 0.383865
0.133420 0.736752 0.383865
0.338760 0.736752 0.383865
0.537283 0.736752 0.383865
0.731924 0.736752 0.383865
0.923844 0.736752 0.383865
0.133420 0.923844 0.383865
0.338760 0.923844 0.383865
0.537283 0.923844 0.383865
0.731924 0.923844 0.383865
0.923844 0.923844 0.383865
0.133420 0.154462 0.586248
0.338760 0.154462 0.586248
0.537283 0.154462 0.586248
0.731924 0.154462 0.586248
0.923844 0.154462 0.586248
0.133420 0.353828 0.586248
0.338760 0.353828 0.586248
0.537283 0.353828 0.586248
0.731924 0.353828 0.586248
0.923844 0.353828 0.586248
0.133420 0.547094 0.586248
0.338760 0.547094 0.586248
0.537283 0.547094 0.586248
0.731924 0.547094 0.586248
0.923844 0.547094 0.586248
0.133420 0.736752 0.586248
0.338760 0.736752 0.586248
0.537283 0.736752 0.586248
0.731924 0.736752 0.586248
0.923844 0.736752 0.586248
0.133420 0.923844 0.586248
0.338760 0.923844 0.586248
0.537283 0.923844 0.586248
0.731924 0.923844 0.586248
0.923844 0.923844 0.586248
0.133420 0.154462 0.784940
0.338760 0.154462 0.784940
0.537283 0.154462 0.784940
0.731924 0.154462 0.784940
0.923844 0.154462 0.784940
0.133420 0.353828 0.784940
0.338760 0.353828 0.784940
0.537283 0.353828 0.784940
0.731924 0.353828 0.784940
0.923844 0.353828 0.784940
0.133420 0.547094 0.784940
0.338760 0.547094 0.784940
0.537283 0.547094 0.784940
0.731924 0.547094 0.784940
0.923844 0.547094 0.784940
0.133420 0.736752 0.784940
0.338760 0.736752 0.784940
0.537283 0.736752 0.784940
0.731924 0.736752 0.784940
0.923844 0.736752 0.784940
0.133420 0.923844 0.784940
0.338760 0.923844 0.784940
0.537283 0.923844 0.784940
0.731924 0.923844 0.784940
0.923844 0.923844 0.784940
0.133420 0.154462 0.980990
0.338760 0.154462 0.980990
0.537283 0.154462 0.980990
0.731924 0.154462 0.980990
0.923844 0.154462 0.980990
0.133420 0.353828 0.980990
0.338760 0.353828 0.980990
0.537283 0.353828 0.980990
0.731924 0.353828 0.980990
0.923844 0.353828 0.980990
0.133420 0.547094 0.980990
0.338760 0.547094 0.980990
0.537283 0.547094 0.980990
0.731924 0.547094 0.980990
0.923844 0.547094 0.980990
0.133420 0.736752 0.980990
0.338760 0.736752 0.980990
0.537283 0.736752 0.980990
0.731924 0.736752 0.980990
0.923844 0.736752 0.980990
0.133420 0.923844 0.980990
0.338760 0.923844 0.980990
0.537283 0.923844 0.980990
0.731924 0.923844 0.980990
0.923844 0.923844 0.980990
