public/luts/vintage-kodachrome.cube
# KomfyEdit 3D LUT: vintage-kodachrome
TITLE "vintage-kodachrome"
LUT_3D_SIZE 33
DOMAIN_MIN 0.0 0.0 0.0
DOMAIN_MAX 1.0 1.0 1.0
0.000000 0.000000 0.000000
0.026462 0.000000 0.000000
0.052533 0.000000 0.000000
0.080986 0.000000 0.000000
0.112264 0.000000 0.000000
0.146524 0.000000 0.000000
0.183764 0.000000 0.000000
0.223855 0.000000 0.000000
0.266547 0.000000 0.000000
0.311477 0.000000 0.000000
0.358181 0.000000 0.000000
0.406119 0.000000 0.000000
0.454692 0.000000 0.000000
0.503278 0.000000 0.000000
0.551266 0.000000 0.000000
0.598079 0.000000 0.000000
0.643208 0.000000 0.000000
0.686224 0.000000 0.000000
0.726794 0.000000 0.000000
0.764683 0.000000 0.000000
0.799749 0.000000 0.000000
0.831936 0.000000 0.000000
0.861264 0.000000 0.000000
0.887808 0.000000 0.000000
0.911693 0.000000 0.000000
0.933073 0.000000 0.000000
0.952126 0.000000 0.000000
0.969038 0.000000 0.000000
0.983999 0.000000 0.000000
0.997196 0.000000 0.000000
1.000000 0.000000 0.000000
1.000000 0.000000 0.000000
1.000000 0.000000 0.000000
0.000000 0.018963 0.000000
0.026462 0.018963 0.000000
0.052533 0.018963 0.000000
0.080986 0.018963 0.000000
0.112264 0.018963 0.000000
0.146524 0.018963 0.000000
0.183764 0.018963 0.000000
0.223855 0.018963 0.000000
0.266547 0.018963 0.000000
0.311477 0.018963 0.000000
0.358181 0.018963 0.000000
0.406119 0.018963 0.000000
0.454692 0.018963 0.000000
0.503278 0.018963 0.000000
0.551266 0.018963 0.000000
0.598079 0.018963 0.000000
0.643208 0.018963 0.000000
0.686224 0.018963 0.000000
0.726794 0.018963 0.000000
0.764683 0.018963 0.000000
0.799749 0.018963 0.000000
0.831936 0.018963 0.000000
0.861264 0.018963 0.000000
0.887808 0.018963 0.000000
0.911693 0.018963 0.000000
0.933073 0.018963 0.000000
0.952126 0.018963 0.000000
0.969038 0.018963 0.000000
0.983999 0.018963 0.000000
0.997196 0.018963 0.000000
1.000000 0.018963 0.000000
1.000000 0.018963 0.000000
1.000000 0.018963 0.000000
0.000000 0.039137 0.000000
0.026462 0.039137 0.000000
0.052533 0.039137 0.000000
0.080986 0.039137 0.000000
0.112264 0.039137 0.000000
0.146524 0.039137 0.000000
0.183764 0.039137 0.000000
0.223855 0.039137 0.000000
0.266547 0.039137 0.000000
0.311477 0.039137 0.000000
0.358181 0.039137 0.000000
0.406119 0.039137 0.000000
0.454692 0.039137 0.000000
0.503278 0.039137 0.000000
0.551266 0.039137 0.000000
0.598079 0.039137 0.000000
0.643208 0.039137 0.000000
0.686224 0.039137 0.000000
0.726794 0.039137 0.000000
0.764683 0.039137 0.000000
0.799749 0.039137 0.000000
0.831936 0.039137 0.000000
0.861264 0.039137 0.000000
0.887808 0.039137 0.000000
0.911693 0.039137 0.000000
0.933073 0.039137 0.000000
0.952126 0.039137 0.000000
0.969038 0.039137 0.000000
0.983999 0.039137 0.000000
0.997196 0.039137 0.000000
1.000000 0.039137 0.000000
1.000000 0.039137 0.000000
1.000000 0.039137 0.000000
0.000000 0.061312 0.000000
0.026462 0.061312 0.000000
0.052533 0.061312 0.000000
0.080986 0.061312 0.000000
0.112264 0.061312 0.000000
0.146524 0.061312 0.000000
0.183764 0.061312 0.000000
0.223855 0.061312 0.000000
0.266547 0.061312 0.000000
0.311477 0.061312 0.000000
0.358181 0.061312 0.000000
0.406119 0.061312 0.000000
0.454692 0.061312 0.000000
0.503278 0.061312 0.000000
0.551266 0.061312 0.000000
0.598079 0.061312 0.000000
0.643208 0.061312 0.000000
0.686224 0.061312 0.000000
0.726794 0.061312 0.000000
0.764683 0.061312 0.000000
0.799749 0.061312 0.000000
0.831936 0.061312 0.000000
0.861264 0.061312 0.000000
0.887808 0.061312 0.000000
0.911693 0.061312 0.000000
0.933073 0.061312 0.000000
0.952126 0.061312 0.000000
0.969038 0.061312 0.000000
0.983999 0.061312 0.000000
0.997196 0.061312 0.000000
1.000000 0.061312 0.000000
1.000000 0.061312 0.000000
1.000000 0.061312 0.000000
0.000000 0.085709 0.000000
0.026462 0.085709 0.000000
0.052533 0.085709 0.000000
0.080986 0.085709 0.000000
0.112264 0.085709 0.000000
0.146524 0.085709 0.000000
0.183764 0.085709 0.000000
0.223855 0.085709 0.000000
0.266547 0.085709 0.000000
0.311477 0.085709 0.000000
0.358181 0.085709 0.000000
0.406119 0.085709 0.000000
0.454692 0.085709 0.000000
0.503278 0.085709 0.000000
0.551266 0.085709 0.000000
0.598079 0.085709 0.000000
0.643208 0.085709 0.000000
0.686224 0.085709 0.000000
0.726794 0.085709 0.000000
0.764683 0.085709 0.000000
0.799749 0.085709 0.000000
0.831936 0.085709 0.000000
0.861264 0.085709 0.000000
0.887808 0.085709 0.000000
0.911693 0.085709 0.000000
0.933073 0.085709 0.000000
0.952126 0.085709 0.000000
0.969038 0.085709 0.000000
0.983999 0.085709 0.000000
0.997196 0.085709 0.000000
1.000000 0.085709 0.000000
1.000000 0.085709 0.000000
1.000000 0.085709 0.000000
0.000000 0.112459 0.000000
0.026462 0.112459 0.000000
0.052533 0.112459 0.000000
0.080986 0.112459 0.000000
0.112264 0.112459 0.000000
0.146524 0.112459 0.000000
0.183764 0.112459 0.000000
0.223855 0.112459 0.000000
0.266547 0.112459 0.000000
0.311477 0.112459 0.000000
0.358181 0.112459 0.000000
0.406119 0.112459 0.000000
0.454692 0.112459 0.000000
0.503278 0.112459 0.000000
0.551266 0.112459 0.000000
0.598079 0.112459 0.000000
0.643208 0.112459 0.000000
0.686224 0.112459 0.000000
0.726794 0.112459 0.000000
0.764683 0.112459 0.000000
0.799749 0.112459 0.000000
0.831936 0.112459 0.000000
0.861264 0.112459 0.000000
0.887808 0.112459 0.000000
0.911693 0.112459 0.000000
0.933073 0.112459 0.000000
0.952126 0.112459 0.000000
0.969038 0.112459 0.000000
0.983999 0.112459 0.000000
0.997196 0.112459 0.000000
1.000000 0.112459 0.000000
1.000000 0.112459 0.000000
1.000000 0.112459 0.000000
0.000000 0.141633 0.000000
0.026462 0.141633 0.000000
0.052533 0.141633 0.000000
0.080986 0.141633 0.000000
0.112264 0.141633 0.000000
0.146524 0.141633 0.000000
0.183764 0.141633 0.000000
0.223855 0.141633 0.000000
0.266547 0.141633 0.000000
0.311477 0.141633 0.000000
0.358181 0.141633 0.000000
0.406119 0.141633 0.000000
0.454692 0.141633 0.000000
0.503278 0.141633 0.000000
0.551266 0.141633 0.000000
0.598079 0.141633 0.000000
0.643208 0.141633 0.000000
0.686224 0.141633 0.000000
0.726794 0.141633 0.000000
0.764683 0.141633 0.000000
0.799749 0.141633 0.000000
0.831936 0.141633 0.000000
0.861264 0.141633 0.000000
0.887808 0.141633 0.000000
0.911693 0.141633 0.000000
0.933073 0.141633 0.000000
0.952126 0.141633 0.000000
0.969038 0.141633 0.000000
0.983999 0.141633 0.000000
0.997196 0.141633 0.000000
1.000000 0.141633 0.000000
1.000000 0.141633 0.000000
1.000000 0.141633 0.000000
0.000000 0.173247 0.000000
0.026462 0.173247 0.000000
0.052533 0.173247 0.000000
0.080986 0.173247 0.000000
0.112264 0.173247 0.000000
0.146524 0.173247 0.000000
0.183764 0.173247 0.000000
0.223855 0.173247 0.000000
0.266547 0.173247 0.000000
0.311477 0.173247 0.000000
0.358181 0.173247 0.000000
0.406119 0.173247 0.000000
0.454692 0.173247 0.000000
0.503278 0.173247 0.000000
0.551266 0.173247 0.000000
0.598079 0.173247 0.000000
0.643208 0.173247 0.000000
0.686224 0.173247 0.000000
0.726794 0.173247 0.000000
0.764683 0.173247 0.000000
0.799749 0.173247 0.000000
0.831936 0.173247 0.000000
0.861264 0.173247 0.000000
0.887808 0.173247 0.000000
0.911693 0.173247 0.000000
0.933073 0.173247 0.000000
0.952126 0.173247 0.000000
0.969038 0.173247 0.000000
0.983999 0.173247 0.000000
0.997196 0.173247 0.000000
1.000000 0.173247 0.000000
1.000000 0.173247 0.000000
1.000000 0.173247 0.000000
0.000000 0.207257 0.000000
0.026462 0.207257 0.000000
0.052533 0.207257 0.000000
0.080986 0.207257 0.000000
0.112264 0.207257 0.000000
0.146524 0.207257 0.000000
0.183764 0.207257 0.000000
0.223855 0.207257 0.000000
0.266547 0.207257 0.000000
0.311477 0.207257 0.000000
0.358181 0.207257 0.000000
0.406119 0.207257 0.000000
0.454692 0.207257 0.000000
0.503278 0.207257 0.000000
0.551266 0.207257 0.000000
0.598079 0.207257 0.000000
0.643208 0.207257 0.000000
0.686224 0.207257 0.000000
0.726794 0.207257 0.000000
0.764683 0.207257 0.000000
0.799749 0.207257 0.000000
0.831936 0.207257 0.000000
0.861264 0.207257 0.000000
0.887808 0.207257 0.000000
0.911693 0.207257 0.000000
0.933073 0.207257 0.000000
0.952126 0.207257 0.000000
0.969038 0.207257 0.000000
0.983999 0.207257 0.000000
0.997196 0.207257 0.000000
1.000000 0.207257 0.000000
1.000000 0.207257 0.000000
1.000000 0.207257 0.000000
0.000000 0.243556 0.000000
0.026462 0.243556 0.000000
0.052533 0.243556 0.000000
0.080986 0.243556 0.000000
0.112264 0.243556 0.000000
0.146524 0.243556 0.000000
0.183764 0.243556 0.000000
0.223855 0.243556 0.000000
0.266547 0.243556 0.000000
0.311477 0.243556 0.000000
0.358181 0.243556 0.000000
0.406119 0.243556 0.000000
0.454692 0.243556 0.000000
0.503278 0.243556 0.000000
0.551266 0.243556 0.000000
0.598079 0.243556 0.000000
0.643208 0.243556 0.000000
0.686224 0.243556 0.000000
0.726794 0.243556 0.000000
0.764683 0.243556 0.000000
0.799749 0.243556 0.000000
0.831936 0.243556 0.000000
0.861264 0.243556 0.000000
0.887808 0.243556 0.000000
0.911693 0.243556 0.000000
0.933073 0.243556 0.000000
0.952126 0.243556 0.000000
0.969038 0.243556 0.000000
0.983999 0.243556 0.000000
0.997196 0.243556 0.000000
1.000000 0.243556 0.000000
1.000000 0.243556 0.000000
1.000000 0.243556 0.000000
0.000000 0.281970 0.000000
0.026462 0.281970 0.000000
0.052533 0.281970 0.000000
0.080986 0.281970 0.000000
0.112264 0.281970 0.000000
0.146524 0.281970 0.000000
0.183764 0.281970 0.000000
0.223855 0.281970 0.000000
0.266547 0.281970 0.000000
0.311477 0.281970 0.000000
0.358181 0.281970 0.000000
0.406119 0.281970 0.000000
0.454692 0.281970 0.000000
0.503278 0.281970 0.000000
0.551266 0.281970 0.000000
0.598079 0.281970 0.000000
0.643208 0.281970 0.000000
0.686224 0.281970 0.000000
0.726794 0.281970 0.000000
0.764683 0.281970 0.000000
0.799749 0.281970 0.000000
0.831936 0.281970 0.000000
0.861264 0.281970 0.000000
0.887808 0.281970 0.000000
0.911693 0.281970 0.000000
0.933073 0.281970 0.000000
0.952126 0.281970 0.000000
0.969038 0.281970 0.000000
0.983999 0.281970 0.000000
0.997196 0.281970 0.000000
1.000000 0.281970 0.000000
1.000000 0.281970 0.000000
1.000000 0.281970 0.000000
0.000000 0.322255 0.000000
0.026462 0.322255 0.000000
0.052533 0.322255 0.000000
0.080986 0.322255 0.000000
0.112264 0.322255 0.000000
0.146524 0.322255 0.000000
0.183764 0.322255 0.000000
0.223855 0.322255 0.000000
0.266547 0.322255 0.000000
0.311477 0.322255 0.000000
0.358181 0.322255 0.000000
0.406119 0.322255 0.000000
0.454692 0.322255 0.000000
0.503278 0.322255 0.000000
0.551266 0.322255 0.000000
0.598079 0.322255 0.000000
0.643208 0.322255 0.000000
0.686224 0.322255 0.000000
0.726794 0.322255 0.000000
0.764683 0.322255 0.000000
0.799749 0.322255 0.000000
0.831936 0.322255 0.000000
0.861264 0.322255 0.000000
0.887808 0.322255 0.000000
0.911693 0.322255 0.000000
0.933073 0.322255 0.000000
0.952126 0.322255 0.000000
0.969038 0.322255 0.000000
0.983999 0.322255 0.000000
0.997196 0.322255 0.000000
1.000000 0.322255 0.000000
1.000000 0.322255 0.000000
1.000000 0.322255 0.000000
0.000000 0.364105 0.000000
0.026462 0.364105 0.000000
0.052533 0.364105 0.000000
0.080986 0.364105 0.000000
0.112264 0.364105 0.000000
0.146524 0.364105 0.000000
0.183764 0.364105 0.000000
0.223855 0.364105 0.000000
0.266547 0.364105 0.000000
0.311477 0.364105 0.000000
0.358181 0.364105 0.000000
0.406119 0.364105 0.000000
0.454692 0.364105 0.000000
0.503278 0.364105 0.000000
0.551266 0.364105 0.000000
0.598079 0.364105 0.000000
0.643208 0.364105 0.000000
0.686224 0.364105 0.000000
0.726794 0.364105 0.000000
0.764683 0.364105 0.000000
0.799749 0.364105 0.000000
0.831936 0.364105 0.000000
0.861264 0.364105 0.000000
0.887808 0.364105 0.000000
0.911693 0.364105 0.000000
0.933073 0.364105 0.000000
0.952126 0.364105 0.000000
0.969038 0.364105 0.000000
0.983999 0.364105 0.000000
0.997196 0.364105 0.000000
1.000000 0.364105 0.000000
1.000000 0.364105 0.000000
1.000000 0.364105 0.000000
0.000000 0.407156 0.000000
0.026462 0.407156 0.000000
0.052533 0.407156 0.000000
0.080986 0.407156 0.000000
0.112264 0.407156 0.000000
0.146524 0.407156 0.000000
0.183764 0.407156 0.000000
0.223855 0.407156 0.000000
0.266547 0.407156 0.000000
0.311477 0.407156 0.000000
0.358181 0.407156 0.000000
0.406119 0.407156 0.000000
0.454692 0.407156 0.000000
0.503278 0.407156 0.000000
0.551266 0.407156 0.000000
0.598079 0.407156 0.000000
0.643208 0.407156 0.000000
0.686224 0.407156 0.000000
0.726794 0.407156 0.000000
0.764683 0.407156 0.000000
0.799749 0.407156 0.000000
0.831936 0.407156 0.000000
0.861264 0.407156 0.000000
0.887808 0.407156 0.000000
0.911693 0.407156 0.000000
0.933073 0.407156 0.000000
0.952126 0.407156 0.000000
0.969038 0.407156 0.000000
0.983999 0.407156 0.000000
0.997196 0.407156 0.000000
1.000000 0.407156 0.000000
1.000000 0.407156 0.000000
1.000000 0.407156 0.000000
0.000000 0.451000 0.000000
0.026462 0.451000 0.000000
0.052533 0.451000 0.000000
0.080986 0.451000 0.000000
0.112264 0.451000 0.000000
0.146524 0.451000 0.000000
0.183764 0.451000 0.000000
0.223855 0.451000 0.000000
0.266547 0.451000 0.000000
0.311477 0.451000 0.000000
0.358181 0.451000 0.000000
0.406119 0.451000 0.000000
0.454692 0.451000 0.000000
0.503278 0.451000 0.000000
0.551266 0.451000 0.000000
0.598079 0.451000 0.000000
0.643208 0.451000 0.000000
0.686224 0.451000 0.000000
0.726794 0.451000 0.000000
0.764683 0.451000 0.000000
0.799749 0.451000 0.000000
0.831936 0.451000 0.000000
0.861264 0.451000 0.000000
0.887808 0.451000 0.000000
0.911693 0.451000 0.000000
0.933073 0.451000 0.000000
0.952126 0.451000 0.000000
0.969038 0.451000 0.000000
0.983999 0.451000 0.000000
0.997196 0.451000 0.000000
1.000000 0.451000 0.000000
1.000000 0.451000 0.000000
1.000000 0.451000 0.000000
0.000000 0.495199 0.000000
0.026462 0.495199 0.000000
0.052533 0.495199 0.000000
0.080986 0.495199 0.000000
0.112264 0.495199 0.000000
0.146524 0.495199 0.000000
0.183764 0.495199 0.000000
0.223855 0.495199 0.000000
0.266547 0.495199 0.000000
0.311477 0.495199 0.000000
0.358181 0.495199 0.000000
0.406119 0.495199 0.000000
0.454692 0.495199 0.000000
0.503278 0.495199 0.000000
0.551266 0.495199 0.000000
0.598079 0.495199 0.000000
0.643208 0.495199 0.000000
0.686224 0.495199 0.000000
0.726794 0.495199 0.000000
0.764683 0.495199 0.000000
0.799749 0.495199 0.000000
0.831936 0.495199 0.000000
0.861264 0.495199 0.000000
0.887808 0.495199 0.000000
0.911693 0.495199 0.000000
0.933073 0.495199 0.000000
0.952126 0.495199 0.000000
0.969038 0.495199 0.000000
0.983999 0.495199 0.000000
0.997196 0.495199 0.000000
1.000000 0.495199 0.000000
1.000000 0.495199 0.000000
1.000000 0.495199 0.000000
0.000000 0.539301 0.000000
0.026462 0.539301 0.000000
0.052533 0.539301 0.000000
0.080986 0.539301 0.000000
0.112264 0.539301 0.000000
0.146524 0.539301 0.000000
0.183764 0.539301 0.000000
0.223855 0.539301 0.000000
0.266547 0.539301 0.000000
0.311477 0.539301 0.000000
0.358181 0.539301 0.000000
0.406119 0.539301 0.000000
0.454692 0.539301 0.000000
0.503278 0.539301 0.000000
0.551266 0.539301 0.000000
0.598079 0.539301 0.000000
0.643208 0.539301 0.000000
0.686224 0.539301 0.000000
0.726794 0.539301 0.000000
0.764683 0.539301 0.000000
0.799749 0.539301 0.000000
0.831936 0.539301 0.000000
0.861264 0.539301 0.000000
0.887808 0.539301 0.000000
0.911693 0.539301 0.000000
0.933073 0.539301 0.000000
0.952126 0.539301 0.000000
0.969038 0.539301 0.000000
0.983999 0.539301 0.000000
0.997196 0.539301 0.000000
1.000000 0.539301 0.000000
1.000000 0.539301 0.000000
1.000000 0.539301 0.000000
0.000000 0.582861 0.000000
0.026462 0.582861 0.000000
0.052533 0.582861 0.000000
0.080986 0.582861 0.000000
0.112264 0.582861 0.000000
0.146524 0.582861 0.000000
0.183764 0.582861 0.000000
0.223855 0.582861 0.000000
0.266547 0.582861 0.000000
0.311477 0.582861 0.000000
0.358181 0.582861 0.000000
0.406119 0.582861 0.000000
0.454692 0.582861 0.000000
0.503278 0.582861 0.000000
0.551266 0.582861 0.000000
0.598079 0.582861 0.000000
0.643208 0.582861 0.000000
0.686224 0.582861 0.000000
0.726794 0.582861 0.000000
0.764683 0.582861 0.000000
0.799749 0.582861 0.000000
0.831936 0.582861 0.000000
0.861264 0.582861 0.000000
0.887808 0.582861 0.000000
0.911693 0.582861 0.000000
0.933073 0.582861 0.000000
0.952126 0.582861 0.000000
0.969038 0.582861 0.000000
0.983999 0.582861 0.000000
0.997196 0.582861 0.000000
1.000000 0.582861 0.000000
1.000000 0.582861 0.000000
1.000000 0.582861 0.000000
0.000000 0.625456 0.000000
0.026462 0.625456 0.000000
0.052533 0.625456 0.000000
0.080986 0.625456 0.000000
0.112264 0.625456 0.000000
0.146524 0.625456 0.000000
0.183764 0.625456 0.000000
0.223855 0.625456 0.000000
0.266547 0.625456 0.000000
0.311477 0.625456 0.000000
0.358181 0.625456 0.000000
0.406119 0.625456 0.000000
0.454692 0.625456 0.000000
0.503278 0.625456 0.000000
0.551266 0.625456 0.000000
0.598079 0.625456 0.000000
0.643208 0.625456 0.000000
0.686224 0.625456 0.000000
0.726794 0.625456 0.000000
0.764683 0.625456 0.000000
0.799749 0.625456 0.000000
0.831936 0.625456 0.000000
0.861264 0.625456 0.000000
0.887808 0.625456 0.000000
0.911693 0.625456 0.000000
0.933073 0.625456 0.000000
0.952126 0.625456 0.000000
0.969038 0.625456 0.000000
0.983999 0.625456 0.000000
0.997196 0.625456 0.000000
1.000000 0.625456 0.000000
1.000000 0.625456 0.000000
1.000000 0.625456 0.000000
0.000000 0.666705 0.000000
0.026462 0.666705 0.000000
0.052533 0.666705 0.000000
0.080986 0.666705 0.000000
0.112264 0.666705 0.000000
0.146524 0.666705 0.000000
0.183764 0.666705 0.000000
0.223855 0.666705 0.000000
0.266547 0.666705 0.000000
0.311477 0.666705 0.000000
0.358181 0.666705 0.000000
0.406119 0.666705 0.000000
0.454692 0.666705 0.000000
0.503278 0.666705 0.000000
0.551266 0.666705 0.000000
0.598079 0.666705 0.000000
0.643208 0.666705 0.000000
0.686224 0.666705 0.000000
0.726794 0.666705 0.000000
0.764683 0.666705 0.000000
0.799749 0.666705 0.000000
0.831936 0.666705 0.000000
0.861264 0.666705 0.000000
0.887808 0.666705 0.000000
0.911693 0.666705 0.000000
0.933073 0.666705 0.000000
0.952126 0.666705 0.000000
0.969038 0.666705 0.000000
0.983999 0.666705 0.000000
0.997196 0.666705 0.000000
1.000000 0.666705 0.000000
1.000000 0.666705 0.000000
1.000000 0.666705 0.000000
0.000000 0.706275 0.000000
0.026462 0.706275 0.000000
0.052533 0.706275 0.000000
0.080986 0.706275 0.000000
0.112264 0.706275 0.000000
0.146524 0.706275 0.000000
0.183764 0.706275 0.000000
0.223855 0.706275 0.000000
0.266547 0.706275 0.000000
0.311477 0.706275 0.000000
0.358181 0.706275 0.000000
0.406119 0.706275 0.000000
0.454692 0.706275 0.000000
0.503278 0.706275 0.000000
0.551266 0.706275 0.000000
0.598079 0.706275 0.000000
0.643208 0.706275 0.000000
0.686224 0.706275 0.000000
0.726794 0.706275 0.000000
0.764683 0.706275 0.000000
0.799749 0.706275 0.000000
0.831936 0.706275 0.000000
0.861264 0.706275 0.000000
0.887808 0.706275 0.000000
0.911693 0.706275 0.000000
0.933073 0.706275 0.000000
0.952126 0.706275 0.000000
0.969038 0.706275 0.000000
0.983999 0.706275 0.000000
0.997196 0.706275 0.000000
1.000000 0.706275 0.000000
1.000000 0.706275 0.000000
1.000000 0.706275 0.000000
0.000000 0.743895 0.000000
0.026462 0.743895 0.000000
0.052533 0.743895 0.000000
0.080986 0.743895 0.000000
0.112264 0.743895 0.000000
0.146524 0.743895 0.000000
0.183764 0.743895 0.000000
0.223855 0.743895 0.000000
0.266547 0.743895 0.000000
0.311477 0.743895 0.000000
0.358181 0.743895 0.000000
0.406119 0.743895 0.000000
0.454692 0.743895 0.000000
0.503278 0.743895 0.000000
0.551266 0.743895 0.000000
0.598079 0.743895 0.000000
0.643208 0.743895 0.000000
0.686224 0.743895 0.000000
0.726794 0.743895 0.000000
0.764683 0.743895 0.000000
0.799749 0.743895 0.000000
0.831936 0.743895 0.000000
0.861264 0.743895 0.000000
0.887808 0.743895 0.000000
0.911693 0.743895 0.000000
0.933073 0.743895 0.000000
0.952126 0.743895 0.000000
0.969038 0.743895 0.000000
0.983999 0.743895 0.000000
0.997196 0.743895 0.000000
1.000000 0.743895 0.000000
1.000000 0.743895 0.000000
1.000000 0.743895 0.000000
0.000000 0.779358 0.000000
0.026462 0.779358 0.000000
0.052533 0.779358 0.000000
0.080986 0.779358 0.000000
0.112264 0.779358 0.000000
0.146524 0.779358 0.000000
0.183764 0.779358 0.000000
0.223855 0.779358 0.000000
0.266547 0.779358 0.000000
0.311477 0.779358 0.000000
0.358181 0.779358 0.000000
0.406119 0.779358 0.000000
0.454692 0.779358 0.000000
0.503278 0.779358 0.000000
0.551266 0.779358 0.000000
0.598079 0.779358 0.000000
0.643208 0.779358 0.000000
0.686224 0.779358 0.000000
0.726794 0.779358 0.000000
0.764683 0.779358 0.000000
0.799749 0.779358 0.000000
0.831936 0.779358 0.000000
0.861264 0.779358 0.000000
0.887808 0.779358 0.000000
0.911693 0.779358 0.000000
0.933073 0.779358 0.000000
0.952126 0.779358 0.000000
0.969038 0.779358 0.000000
0.983999 0.779358 0.000000
0.997196 0.779358 0.000000
1.000000 0.779358 0.000000
1.000000 0.779358 0.000000
1.000000 0.779358 0.000000
0.000000 0.812522 0.000000
0.026462 0.812522 0.000000
0.052533 0.812522 0.000000
0.080986 0.812522 0.000000
0.112264 0.812522 0.000000
0.146524 0.812522 0.000000
0.183764 0.812522 0.000000
0.223855 0.812522 0.000000
0.266547 0.812522 0.000000
0.311477 0.812522 0.000000
0.358181 0.812522 0.000000
0.406119 0.812522 0.000000
0.454692 0.812522 0.000000
0.503278 0.812522 0.000000
0.551266 0.812522 0.000000
0.598079 0.812522 0.000000
0.643208 0.812522 0.000000
0.686224 0.812522 0.000000
0.726794 0.812522 0.000000
0.764683 0.812522 0.000000
0.799749 0.812522 0.000000
0.831936 0.812522 0.000000
0.861264 0.812522 0.000000
0.887808 0.812522 0.000000
0.911693 0.812522 0.000000
0.933073 0.812522 0.000000
0.952126 0.812522 0.000000
0.969038 0.812522 0.000000
0.983999 0.812522 0.000000
0.997196 0.812522 0.000000
1.000000 0.812522 0.000000
1.000000 0.812522 0.000000
1.000000 0.812522 0.000000
0.000000 0.843306 0.000000
0.026462 0.843306 0.000000
0.052533 0.843306 0.000000
0.080986 0.843306 0.000000
0.112264 0.843306 0.000000
0.146524 0.843306 0.000000
0.183764 0.843306 0.000000
0.223855 0.843306 0.000000
0.266547 0.843306 0.000000
0.311477 0.843306 0.000000
0.358181 0.843306 0.000000
0.406119 0.843306 0.000000
0.454692 0.843306 0.000000
0.503278 0.843306 0.000000
0.551266 0.843306 0.000000
0.598079 0.843306 0.000000
0.643208 0.843306 0.000000
0.686224 0.843306 0.000000
0.726794 0.843306 0.000000
0.764683 0.843306 0.000000
0.799749 0.843306 0.000000
0.831936 0.843306 0.000000
0.861264 0.843306 0.000000
0.887808 0.843306 0.000000
0.911693 0.843306 0.000000
0.933073 0.843306 0.000000
0.952126 0.843306 0.000000
0.969038 0.843306 0.000000
0.983999 0.843306 0.000000
0.997196 0.843306 0.000000
1.000000 0.843306 0.000000
1.000000 0.843306 0.000000
1.000000 0.843306 0.000000
0.000000 0.871685 0.000000
0.026462 0.871685 0.000000
0.052533 0.871685 0.000000
0.080986 0.871685 0.000000
0.112264 0.871685 0.000000
0.146524 0.871685 0.000000
0.183764 0.871685 0.000000
0.223855 0.871685 0.000000
0.266547 0.871685 0.000000
0.311477 0.871685 0.000000
0.358181 0.871685 0.000000
0.406119 0.871685 0.000000
0.454692 0.871685 0.000000
0.503278 0.871685 0.000000
0.551266 0.871685 0.000000
0.598079 0.871685 0.000000
0.643208 0.871685 0.000000
0.686224 0.871685 0.000000
0.726794 0.871685 0.000000
0.764683 0.871685 0.000000
0.799749 0.871685 0.000000
0.831936 0.871685 0.000000
0.861264 0.871685 0.000000
0.887808 0.871685 0.000000
0.911693 0.871685 0.000000
0.933073 0.871685 0.000000
0.952126 0.871685 0.000000
0.969038 0.871685 0.000000
0.983999 0.871685 0.000000
0.997196 0.871685 0.000000
1.000000 0.871685 0.000000
1.000000 0.871685 0.000000
1.000000 0.871685 0.000000
0.000000 0.897684 0.000000
0.026462 0.897684 0.000000
0.052533 0.897684 0.000000
0.080986 0.897684 0.000000
0.112264 0.897684 0.000000
0.146524 0.897684 0.000000
0.183764 0.897684 0.000000
0.223855 0.897684 0.000000
0.266547 0.897684 0.000000
0.311477 0.897684 0.000000
0.358181 0.897684 0.000000
0.406119 0.897684 0.000000
0.454692 0.897684 0.000000
0.503278 0.897684 0.000000
0.551266 0.897684 0.000000
0.598079 0.897684 0.000000
0.643208 0.897684 0.000000
0.686224 0.897684 0.000000
0.726794 0.897684 0.000000
0.764683 0.897684 0.000000
0.799749 0.897684 0.000000
0.831936 0.897684 0.000000
0.861264 0.897684 0.000000
0.887808 0.897684 0.000000
0.911693 0.897684 0.000000
0.933073 0.897684 0.000000
