public/luts/vintage-kodachrome.cube
# KomfyEdit 3D LUT: vintage-kodachrome
TITLE "vintage-kodachrome"
LUT_3D_SIZE 5
DOMAIN_MIN 0.0 0.0 0.0
DOMAIN_MAX 1.0 1.0 1.0
0.000000 0.000000 0.000000
0.266547 0.000000 0.000000
0.643208 0.000000 0.000000
0.911693 0.000000 0.000000
1.000000 0.000000 0.000000
0.000000 0.207257 0.000000
0.266547 0.207257 0.000000
0.643208 0.207257 0.000000
0.911693 0.207257 0.000000
1.000000 0.207257 0.000000
0.000000 0.539301 0.000000
0.266547 0.539301 0.000000
0.643208 0.539301 0.000000
0.911693 0.539301 0.000000
1.000000 0.539301 0.000000
0.000000 0.843306 0.000000
0.266547 0.843306 0.000000
0.643208 0.843306 0.000000
0.911693 0.843306 0.000000
1.000000 0.843306 0.000000
0.000000 1.000000 0.000000
0.266547 1.000000 0.000000
0.643208 1.000000 0.000000
0.911693 1.000000 0.000000
1.000000 1.000000 0.000000
0.000000 0.000000 0.118472
0.266547 0.000000 0.118472
0.643208 0.000000 0.118472
0.911693 0.000000 0.118472
1.000000 0.000000 0.118472
0.000000 0.207257 0.118472
0.266547 0.207257 0.118472
0.643208 0.207257 0.118472
0.911693 0.207257 0.118472
1.000000 0.207257 0.118472
0.000000 0.539301 0.118472
0.266547 0.539301 0.118472
0.643208 0.539301 0.118472
0.911693 0.539301 0.118472
1.000000 0.539301 0.118472
0.000000 0.843306 0.118472
0.266547 0.843306 0.118472
0.643208 0.843306 0.118472
0.911693 0.843306 0.118472
1.000000 0.843306 0.118472
0.000000 1.000000 0.118472
0.266547 1.000000 0.118472
0.643208 1.000000 0.118472
0.911693 1.000000 0.118472
1.000000 1.000000 0.118472
0.000000 0.000000 0.378730
0.266547 0.000000 0.378730
0.643208 0.000000 0.378730
0.911693 0.000000 0.378730
1.000000 0.000000 0.378730
0.000000 0.207257 0.378730
0.266547 0.207257 0.378730
0.643208 0.207257 0.378730
0.911693 0.207257 0.378730
1.000000 0.207257 0.378730
0.000000 0.539301 0.378730
0.266547 0.539301 0.378730
0.643208 0.539301 0.378730
0.911693 0.539301 0.378730
1.000000 0.539301 0.378730
0.000000 0.843306 0.378730
0.266547 0.843306 0.378730
0.643208 0.843306 0.378730
0.911693 0.843306 0.378730
1.000000 0.843306 0.378730
0.000000 1.000000 0.378730
0.266547 1.000000 0.378730
0.643208 1.000000 0.378730
0.911693 1.000000 0.378730
1.000000 1.000000 0.378730
0.000000 0.000000 0.720690
0.266547 0.000000 0.720690
0.643208 0.000000 0.720690
0.911693 0.000000 0.720690
1.000000 0.000000 0.720690
0.000000 0.207257 0.720690
0.266547 0.207257 0.720690
0.643208 0.207257 0.720690
0.911693 0.207257 0.720690
1.000000 0.207257 0.720690
0.000000 0.539301 0.720690
0.266547 0.539301 0.720690
0.643208 0.539301 0.720690
0.911693 0.539301 0.720690
1.000000 0.539301 0.720690
0.000000 0.843306 0.720690
0.266547 0.843306 0.720690
0.643208 0.843306 0.720690
0.911693 0.843306 0.720690
1.000000 0.843306 0.720690
0.000000 1.000000 0.720690
0.266547 1.000000 0.720690
0.643208 1.000000 0.720690
0.911693 1.000000 0.720690
1.000000 1.000000 0.720690
0.000000 0.000000 0.958783
0.266547 0.000000 0.958783
0.643208 0.000000 0.958783
0.911693 0.000000 0.958783
1.000000 0.000000 0.958783
0.000000 0.207257 0.958783
0.266547 0.207257 0.958783
0.643208 0.207257 0.958783
0.911693 0.207257 0.958783
1.000000 0.207257 0.958783
0.000000 0.539301 0.958783
0.266547 0.539301 0.958783
0.643208 0.539301 0.958783
0.911693 0.539301 0.958783
1.000000 0.539301 0.958783
0.000000 0.843306 0.958783
0.266547 0.843306 0.958783
0.643208 0.843306 0.958783
0.911693 0.843306 0.958783
1.000000 0.843306 0.958783
0.000000 1.000000 0.958783
0.266547 1.000000 0.958783
0.643208 1.000000 0.958783
0.911693 1.000000 0.958783
1.000000 1.000000 0.958783
