public/luts/vintage-kodachrome.cube
# KomfyEdit 3D LUT: vintage-kodachrome
TITLE "vintage-kodachrome"
LUT_3D_SIZE 9
DOMAIN_MIN 0.0 0.0 0.0
DOMAIN_MAX 1.0 1.0 1.0
0.000000 0.000000 0.000000
0.112264 0.000000 0.000000
0.266547 0.000000 0.000000
0.454692 0.000000 0.000000
0.643208 0.000000 0.000000
0.799749 0.000000 0.000000
0.911693 0.000000 0.000000
0.983999 0.000000 0.000000
1.000000 0.000000 0.000000
0.000000 0.085709 0.000000
0.112264 0.085709 0.000000
0.266547 0.085709 0.000000
0.454692 0.085709 0.000000
0.643208 0.085709 0.000000
0.799749 0.085709 0.000000
0.911693 0.085709 0.000000
0.983999 0.085709 0.000000
1.000000 0.085709 0.000000
0.000000 0.207257 0.000000
0.112264 0.207257 0.000000
0.266547 0.207257 0.000000
0.454692 0.207257 0.000000
0.643208 0.207257 0.000000
0.799749 0.207257 0.000000
0.911693 0.207257 0.000000
0.983999 0.207257 0.000000
1.000000 0.207257 0.000000
0.000000 0.364105 0.000000
0.112264 0.364105 0.000000
0.266547 0.364105 0.000000
0.454692 0.364105 0.000000
0.643208 0.364105 0.000000
0.799749 0.364105 0.000000
0.911693 0.364105 0.000000
0.983999 0.364105 0.000000
1.000000 0.364105 0.000000
0.000000 0.539301 0.000000
0.112264 0.539301 0.000000
0.266547 0.539301 0.000000
0.454692 0.539301 0.000000
0.643208 0.539301 0.000000
0.799749 0.539301 0.000000
0.911693 0.539301 0.000000
0.983999 0.539301 0.000000
1.000000 0.539301 0.000000
0.000000 0.706275 0.000000
0.112264 0.706275 0.000000
0.266547 0.706275 0.000000
0.454692 0.706275 0.000000
0.643208 0.706275 0.000000
0.799749 0.706275 0.000000
0.911693 0.706275 0.000000
0.983999 0.706275 0.000000
1.000000 0.706275 0.000000
0.000000 0.843306 0.000000
0.112264 0.843306 0.000000
0.266547 0.843306 0.000000
0.454692 0.843306 0.000000
0.643208 0.843306 0.000000
0.799749 0.843306 0.000000
0.911693 0.843306 0.000000
0.983999 0.843306 0.000000
1.000000 0.843306 0.000000
0.000000 0.942821 0.000000
0.112264 0.942821 0.000000
0.266547 0.942821 0.000000
0.454692 0.942821 0.000000
0.643208 0.942821 0.000000
0.799749 0.942821 0.000000
0.911693 0.942821 0.000000
0.983999 0.942821 0.000000
1.000000 0.942821 0.000000
0.000000 1.000000 0.000000
0.112264 1.000000 0.000000
0.266547 1.000000 0.000000
0.454692 1.000000 0.000000
0.643208 1.000000 0.000000
0.799749 1.000000 0.000000
0.911693 1.000000 0.000000
0.983999 1.000000 0.000000
1.000000 1.000000 0.000000
0.000000 0.000000 0.043735
0.112264 0.000000 0.043735
0.266547 0.000000 0.043735
0.454692 0.000000 0.043735
0.643208 0.000000 0.043735
0.799749 0.000000 0.043735
0.911693 0.000000 0.043735
0.983999 0.000000 0.043735
1.000000 0.000000 0.043735
0.000000 0.085709 0.043735
0.112264 0.085709 0.043735
0.266547 0.085709 0.043735
0.454692 0.085709 0.043735
0.643208 0.085709 0.043735
0.799749 0.085709 0.043735
0.911693 0.085709 0.043735
0.983999 0.085709 0.043735
1.000000 0.085709 0.043735
0.000000 0.207257 0.043735
0.112264 0.207257 0.043735
0.266547 0.207257 0.043735
0.454692 0.207257 0.043735
0.643208 0.207257 0.043735
0.799749 0.207257 0.043735
0.911693 0.207257 0.043735
0.983999 0.207257 0.043735
1.000000 0.207257 0.043735
0.000000 0.364105 0.043735
0.112264 0.364105 0.043735
0.266547 0.364105 0.043735
0.454692 0.364105 0.043735
0.643208 0.364105 0.043735
0.799749 0.364105 0.043735
0.911693 0.364105 0.043735
0.983999 0.364105 0.043735
1.000000 0.364105 0.043735
0.000000 0.539301 0.043735
0.112264 0.539301 0.043735
0.266547 0.539301 0.043735
0.454692 0.539301 0.043735
0.643208 0.539301 0.043735
0.799749 0.539301 0.043735
0.911693 0.539301 0.043735
0.983999 0.539301 0.043735
1.000000 0.539301 0.043735
0.000000 0.706275 0.043735
0.112264 0.706275 0.043735
0.266547 0.706275 0.043735
0.454692 0.706275 0.043735
0.643208 0.706275 0.043735
0.799749 0.706275 0.043735
0.911693 0.706275 0.043735
0.983999 0.706275 0.043735
1.000000 0.706275 0.043735
0.000000 0.843306 0.043735
0.112264 0.843306 0.043735
0.266547 0.843306 0.043735
0.454692 0.843306 0.043735
0.643208 0.843306 0.043735
0.799749 0.843306 0.043735
0.911693 0.843306 0.043735
0.983999 0.843306 0.043735
1.000000 0.843306 0.043735
0.000000 0.942821 0.043735
0.112264 0.942821 0.043735
0.266547 0.942821 0.043735
0.454692 0.942821 0.043735
0.643208 0.942821 0.043735
0.799749 0.942821 0.043735
0.911693 0.942821 0.043735
0.983999 0.942821 0.043735
1.000000 0.942821 0.043735
0.000000 1.000000 0.043735
0.112264 1.000000 0.043735
0.266547 1.000000 0.043735
0.454692 1.000000 0.043735
0.643208 1.000000 0.043735
0.799749 1.000000 0.043735
0.911693 1.000000 0.043735
0.983999 1.000000 0.043735
1.000000 1.000000 0.043735
0.000000 0.000000 0.118472
0.112264 0.000000 0.118472
0.266547 0.000000 0.118472
0.454692 0.000000 0.118472
0.643208 0.000000 0.118472
0.799749 0.000000 0.118472
0.911693 0.000000 0.118472
0.983999 0.000000 0.118472
1.000000 0.000000 0.118472
0.000000 0.085709 0.118472
0.112264 0.085709 0.118472
0.266547 0.085709 0.118472
0.454692 0.085709 0.118472
0.643208 0.085709 0.118472
0.799749 0.085709 0.118472
0.911693 0.085709 0.118472
0.983999 0.085709 0.118472
1.000000 0.085709 0.118472
0.000000 0.207257 0.118472
0.112264 0.207257 0.118472
0.266547 0.207257 0.118472
0.454692 0.207257 0.118472
0.643208 0.207257 0.118472
0.799749 0.207257 0.118472
0.911693 0.207257 0.118472
0.983999 0.207257 0.118472
1.000000 0.207257 0.118472
0.000000 0.364105 0.118472
0.112264 0.364105 0.118472
0.266547 0.364105 0.118472
0.454692 0.364105 0.118472
0.643208 0.364105 0.118472
0.799749 0.364105 0.118472
0.911693 0.364105 0.118472
0.983999 0.364105 0.118472
1.000000 0.364105 0.118472
0.000000 0.539301 0.118472
0.112264 0.539301 0.118472
0.266547 0.539301 0.118472
0.454692 0.539301 0.118472
0.643208 0.539301 0.118472
0.799749 0.539301 0.118472
0.911693 0.539301 0.118472
0.983999 0.539301 0.118472
1.000000 0.539301 0.118472
0.000000 0.706275 0.118472
0.112264 0.706275 0.118472
0.266547 0.706275 0.118472
0.454692 0.706275 0.118472
0.643208 0.706275 0.118472
0.799749 0.706275 0.118472
0.911693 0.706275 0.118472
0.983999 0.706275 0.118472
1.000000 0.706275 0.118472
0.000000 0.843306 0.118472
0.112264 0.843306 0.118472
0.266547 0.843306 0.118472
0.454692 0.843306 0.118472
0.643208 0.843306 0.118472
0.799749 0.843306 0.118472
0.911693 0.843306 0.118472
0.983999 0.843306 0.118472
1.000000 0.843306 0.118472
0.000000 0.942821 0.118472
0.112264 0.942821 0.118472
0.266547 0.942821 0.118472
0.454692 0.942821 0.118472
0.643208 0.942821 0.118472
0.799749 0.942821 0.118472
0.911693 0.942821 0.118472
0.983999 0.942821 0.118472
1.000000 0.942821 0.118472
0.000000 1.000000 0.118472
0.112264 1.000000 0.118472
0.266547 1.000000 0.118472
0.454692 1.000000 0.118472
0.643208 1.000000 0.118472
0.799749 1.000000 0.118472
0.911693 1.000000 0.118472
0.983999 1.000000 0.118472
1.000000 1.000000 0.118472
0.000000 0.000000 0.229826
0.112264 0.000000 0.229826
0.266547 0.000000 0.229826
0.454692 0.000000 0.229826
0.643208 0.000000 0.229826
0.799749 0.000000 0.229826
0.911693 0.000000 0.229826
0.983999 0.000000 0.229826
1.000000 0.000000 0.229826
0.000000 0.085709 0.229826
0.112264 0.085709 0.229826
0.266547 0.085709 0.229826
0.454692 0.085709 0.229826
0.643208 0.085709 0.229826
0.799749 0.085709 0.229826
0.911693 0.085709 0.229826
0.983999 0.085709 0.229826
1.000000 0.085709 0.229826
0.000000 0.207257 0.229826
0.112264 0.207257 0.229826
0.266547 0.207257 0.229826
0.454692 0.207257 0.229826
0.643208 0.207257 0.229826
0.799749 0.207257 0.229826
0.911693 0.207257 0.229826
0.983999 0.207257 0.229826
1.000000 0.207257 0.229826
0.000000 0.364105 0.229826
0.112264 0.364105 0.229826
0.266547 0.364105 0.229826
0.454692 0.364105 0.229826
0.643208 0.364105 0.229826
0.799749 0.364105 0.229826
0.911693 0.364105 0.229826
0.983999 0.364105 0.229826
1.000000 0.364105 0.229826
0.000000 0.539301 0.229826
0.112264 0.539301 0.229826
0.266547 0.539301 0.229826
0.454692 0.539301 0.229826
0.643208 0.539301 0.229826
0.799749 0.539301 0.229826
0.911693 0.539301 0.229826
0.983999 0.539301 0.229826
1.000000 0.539301 0.229826
0.000000 0.706275 0.229826
0.112264 0.706275 0.229826
0.266547 0.706275 0.229826
0.454692 0.706275 0.229826
0.643208 0.706275 0.229826
0.799749 0.706275 0.229826
0.911693 0.706275 0.229826
0.983999 0.706275 0.229826
1.000000 0.706275 0.229826
0.000000 0.843306 0.229826
0.112264 0.843306 0.229826
0.266547 0.843306 0.229826
0.454692 0.843306 0.229826
0.643208 0.843306 0.229826
0.799749 0.843306 0.229826
0.911693 0.843306 0.229826
0.983999 0.843306 0.229826
1.000000 0.843306 0.229826
0.000000 0.942821 0.229826
0.112264 0.942821 0.229826
0.266547 0.942821 0.229826
0.454692 0.942821 0.229826
0.643208 0.942821 0.229826
0.799749 0.942821 0.229826
0.911693 0.942821 0.229826
0.983999 0.942821 0.229826
1.000000 0.942821 0.229826
0.000000 1.000000 0.229826
0.112264 1.000000 0.229826
0.266547 1.000000 0.229826
0.454692 1.000000 0.229826
0.643208 1.000000 0.229826
0.799749 1.000000 0.229826
0.911693 1.000000 0.229826
0.983999 1.000000 0.229826
1.000000 1.000000 0.229826
0.000000 0.000000 0.378730
0.112264 0.000000 0.378730
0.266547 0.000000 0.378730
0.454692 0.000000 0.378730
0.643208 0.000000 0.378730
0.799749 0.000000 0.378730
0.911693 0.000000 0.378730
0.983999 0.000000 0.378730
1.000000 0.000000 0.378730
0.000000 0.085709 0.378730
0.112264 0.085709 0.378730
0.266547 0.085709 0.378730
0.454692 0.085709 0.378730
0.643208 0.085709 0.378730
0.799749 0.085709 0.378730
0.911693 0.085709 0.378730
0.983999 0.085709 0.378730
1.000000 0.085709 0.378730
0.000000 0.207257 0.378730
0.112264 0.207257 0.378730
0.266547 0.207257 0.378730
0.454692 0.207257 0.378730
0.643208 0.207257 0.378730
0.799749 0.207257 0.378730
0.911693 0.207257 0.378730
0.983999 0.207257 0.378730
1.000000 0.207257 0.378730
0.000000 0.364105 0.378730
0.112264 0.364105 0.378730
0.266547 0.364105 0.378730
0.454692 0.364105 0.378730
0.643208 0.364105 0.378730
0.799749 0.364105 0.378730
0.911693 0.364105 0.378730
0.983999 0.364105 0.378730
1.000000 0.364105 0.378730
0.000000 0.539301 0.378730
0.112264 0.539301 0.378730
0.266547 0.539301 0.378730
0.454692 0.539301 0.378730
0.643208 0.539301 0.378730
0.799749 0.539301 0.378730
0.911693 0.539301 0.378730
0.983999 0.539301 0.378730
1.000000 0.539301 0.378730
0.000000 0.706275 0.378730
0.112264 0.706275 0.378730
0.266547 0.706275 0.378730
0.454692 0.706275 0.378730
0.643208 0.706275 0.378730
0.799749 0.706275 0.378730
0.911693 0.706275 0.378730
0.983999 0.706275 0.378730
1.000000 0.706275 0.378730
0.000000 0.843306 0.378730
0.112264 0.843306 0.378730
0.266547 0.843306 0.378730
0.454692 0.843306 0.378730
0.643208 0.843306 0.378730
0.799749 0.843306 0.378730
0.911693 0.843306 0.378730
0.983999 0.843306 0.378730
1.000000 0.843306 0.378730
0.000000 0.942821 0.378730
0.112264 0.942821 0.378730
0.266547 0.942821 0.378730
0.454692 0.942821 0.378730
0.643208 0.942821 0.378730
0.799749 0.942821 0.378730
0.911693 0.942821 0.378730
0.983999 0.942821 0.378730
1.000000 0.942821 0.378730
0.000000 1.000000 0.378730
0.112264 1.000000 0.378730
0.266547 1.000000 0.378730
0.454692 1.000000 0.378730
0.643208 1.000000 0.378730
0.799749 1.000000 0.378730
0.911693 1.000000 0.378730
0.983999 1.000000 0.378730
1.000000 1.000000 0.378730
0.000000 0.000000 0.551489
0.112264 0.000000 0.551489
0.266547 0.000000 0.551489
0.454692 0.000000 0.551489
0.643208 0.000000 0.551489
0.799749 0.000000 0.551489
0.911693 0.000000 0.551489
0.983999 0.000000 0.551489
1.000000 0.000000 0.551489
0.000000 0.085709 0.551489
0.112264 0.085709 0.551489
0.266547 0.085709 0.551489
0.454692 0.085709 0.551489
0.643208 0.085709 0.551489
0.799749 0.085709 0.551489
0.911693 0.085709 0.551489
0.983999 0.085709 0.551489
1.000000 0.085709 0.551489
0.000000 0.207257 0.551489
0.112264 0.207257 0.551489
0.266547 0.207257 0.551489
0.454692 0.207257 0.551489
0.643208 0.207257 0.551489
0.799749 0.207257 0.551489
0.911693 0.207257 0.551489
0.983999 0.207257 0.551489
1.000000 0.207257 0.551489
0.000000 0.364105 0.551489
0.112264 0.364105 0.551489
0.266547 0.364105 0.551489
0.454692 0.364105 0.551489
0.643208 0.364105 0.551489
0.799749 0.364105 0.551489
0.911693 0.364105 0.551489
0.983999 0.364105 0.551489
1.000000 0.364105 0.551489
0.000000 0.539301 0.551489
0.112264 0.539301 0.551489
0.266547 0.539301 0.551489
0.454692 0.539301 0.551489
0.643208 0.539301 0.551489
0.799749 0.539301 0.551489
0.911693 0.539301 0.551489
0.983999 0.539301 0.551489
1.000000 0.539301 0.551489
0.000000 0.706275 0.551489
0.112264 0.706275 0.551489
0.266547 0.706275 0.551489
0.454692 0.706275 0.551489
0.643208 0.706275 0.551489
0.799749 0.706275 0.551489
0.911693 0.706275 0.551489
0.983999 0.706275 0.551489
1.000000 0.706275 0.551489
0.000000 0.843306 0.551489
0.112264 0.843306 0.551489
0.266547 0.843306 0.551489
0.454692 0.843306 0.551489
0.643208 0.843306 0.551489
0.799749 0.843306 0.551489
0.911693 0.843306 0.551489
0.983999 0.843306 0.551489
1.000000 0.843306 0.551489
0.000000 0.942821 0.551489
0.112264 0.942821 0.551489
0.266547 0.942821 0.551489
0.454692 0.942821 0.551489
0.643208 0.942821 0.551489
0.799749 0.942821 0.551489
0.911693 0.942821 0.551489
0.983999 0.942821 0.551489
1.000000 0.942821 0.551489
0.000000 1.000000 0.551489
0.112264 1.000000 0.551489
0.266547 1.000000 0.551489
0.454692 1.000000 0.551489
0.643208 1.000000 0.551489
0.799749 1.000000 0.551489
0.911693 1.000000 0.551489
0.983999 1.000000 0.551489
1.000000 1.000000 0.551489
0.000000 0.000000 0.720690
0.112264 0.000000 0.720690
0.266547 0.000000 0.720690
0.454692 0.000000 0.720690
0.643208 0.000000 0.720690
0.799749 0.000000 0.720690
0.911693 0.000000 0.720690
0.983999 0.000000 0.720690
1.000000 0.000000 0.720690
0.000000 0.085709 0.720690
0.112264 0.085709 0.720690
0.266547 0.085709 0.720690
0.454692 0.085709 0.720690
0.643208 0.085709 0.720690
0.799749 0.085709 0.720690
0.911693 0.085709 0.720690
0.983999 0.085709 0.720690
1.000000 0.085709 0.720690
0.000000 0.207257 0.720690
0.112264 0.207257 0.720690
0.266547 0.207257 0.720690
0.454692 0.207257 0.720690
0.643208 0.207257 0.720690
0.799749 0.207257 0.720690
0.911693 0.207257 0.720690
0.983999 0.207257 0.720690
1.000000 0.207257 0.720690
0.000000 0.364105 0.720690
0.112264 0.364105 0.720690
0.266547 0.364105 0.720690
0.454692 0.364105 0.720690
0.643208 0.364105 0.720690
0.799749 0.364105 0.720690
0.911693 0.364105 0.720690
0.983999 0.364105 0.720690
1.000000 0.364105 0.720690
0.000000 0.539301 0.720690
0.112264 0.539301 0.720690
0.266547 0.539301 0.720690
0.454692 0.539301 0.720690
0.643208 0.539301 0.720690
0.799749 0.539301 0.720690
0.911693 0.539301 0.720690
0.983999 0.539301 0.720690
1.000000 0.539301 0.720690
0.000000 0.706275 0.720690
0.112264 0.706275 0.720690
0.266547 0.706275 0.720690
0.454692 0.706275 0.720690
0.643208 0.706275 0.720690
0.799749 0.706275 0.720690
0.911693 0.706275 0.720690
0.983999 0.706275 0.720690
1.000000 0.706275 0.720690
0.000000 0.843306 0.720690
0.112264 0.843306 0.720690
0.266547 0.843306 0.720690
0.454692 0.843306 0.720690
0.643208 0.843306 0.720690
0.799749 0.843306 0.720690
0.911693 0.843306 0.720690
0.983999 0.843306 0.720690
1.000000 0.843306 0.720690
0.000000 0.942821 0.720690
0.112264 0.942821 0.720690
0.266547 0.942821 0.720690
0.454692 0.942821 0.720690
0.643208 0.942821 0.720690
0.799749 0.942821 0.720690
0.911693 0.942821 0.720690
0.983999 0.942821 0.720690
1.000000 0.942821 0.720690
0.000000 1.000000 0.720690
0.112264 1.000000 0.720690
0.266547 1.000000 0.720690
0.454692 1.000000 0.720690
0.643208 1.000000 0.720690
0.799749 1.000000 0.720690
0.911693 1.000000 0.720690
0.983999 1.000000 0.720690
1.000000 1.000000 0.720690
0.000000 0.000000 0.860069
0.112264 0.000000 0.860069
0.266547 0.000000 0.860069
0.454692 0.000000 0.860069
0.643208 0.000000 0.860069
0.799749 0.000000 0.860069
0.911693 0.000000 0.860069
0.983999 0.000000 0.860069
1.000000 0.000000 0.860069
0.000000 0.085709 0.860069
0.112264 0.085709 0.860069
0.266547 0.085709 0.860069
0.454692 0.085709 0.860069
0.643208 0.085709 0.860069
0.799749 0.085709 0.860069
0.911693 0.085709 0.860069
0.983999 0.085709 0.860069
1.000000 0.085709 0.860069
0.000000 0.207257 0.860069
0.112264 0.207257 0.860069
0.266547 0.207257 0.860069
0.454692 0.207257 0.860069
0.643208 0.207257 0.860069
0.799749 0.207257 0.860069
0.911693 0.207257 0.860069
0.983999 0.207257 0.860069
1.000000 0.207257 0.860069
0.000000 0.364105 0.860069
0.112264 0.364105 0.860069
0.266547 0.364105 0.860069
0.454692 0.364105 0.860069
0.643208 0.364105 0.860069
0.799749 0.364105 0.860069
0.911693 0.364105 0.860069
0.983999 0.364105 0.860069
1.000000 0.364105 0.860069
0.000000 0.539301 0.860069
0.112264 0.539301 0.860069
0.266547 0.539301 0.860069
0.454692 0.539301 0.860069
0.643208 0.539301 0.860069
0.799749 0.539301 0.860069
0.911693 0.539301 0.860069
0.983999 0.539301 0.860069
1.000000 0.539301 0.860069
0.000000 0.706275 0.860069
0.112264 0.706275 0.860069
0.266547 0.706275 0.860069
0.454692 0.706275 0.860069
0.643208 0.706275 0.860069
0.799749 0.706275 0.860069
0.911693 0.706275 0.860069
0.983999 0.706275 0.860069
1.000000 0.706275 0.860069
0.000000 0.843306 0.860069
0.112264 0.843306 0.860069
0.266547 0.843306 0.860069
0.454692 0.843306 0.860069
0.643208 0.843306 0.860069
0.799749 0.843306 0.860069
0.911693 0.843306 0.860069
0.983999 0.843306 0.860069
1.000000 0.843306 0.860069
0.000000 0.942821 0.860069
0.112264 0.942821 0.860069
0.266547 0.942821 0.860069
0.454692 0.942821 0.860069
0.643208 0.942821 0.860069
0.799749 0.942821 0.860069
0.911693 0.942821 0.860069
0.983999 0.942821 0.860069
1.000000 0.942821 0.860069
0.000000 1.000000 0.860069
0.112264 1.000000 0.860069
0.266547 1.000000 0.860069
0.454692 1.000000 0.860069
0.643208 1.000000 0.860069
0.799749 1.000000 0.860069
0.911693 1.000000 0.860069
0.983999 1.000000 0.860069
1.000000 1.000000 0.860069
0.000000 0.000000 0.958783
0.112264 0.000000 0.958783
0.266547 0.000000 0.958783
0.454692 0.000000 0.958783
0.643208 0.000000 0.958783
0.799749 0.000000 0.958783
0.911693 0.000000 0.958783
0.983999 0.000000 0.958783
1.000000 0.000000 0.958783
0.000000 0.085709 0.958783
0.112264 0.085709 0.958783
0.266547 0.085709 0.958783
0.454692 0.085709 0.958783
0.643208 0.085709 0.958783
0.799749 0.085709 0.958783
0.911693 0.085709 0.958783
0.983999 0.085709 0.958783
1.000000 0.085709 0.958783
0.000000 0.207257 0.958783
0.112264 0.207257 0.958783
0.266547 0.207257 0.958783
0.454692 0.207257 0.958783
0.643208 0.207257 0.958783
0.799749 0.207257 0.958783
0.911693 0.207257 0.958783
0.983999 0.207257 0.958783
1.000000 0.207257 0.958783
0.000000 0.364105 0.958783
0.112264 0.364105 0.958783
0.266547 0.364105 0.958783
0.454692 0.364105 0.958783
0.643208 0.364105 0.958783
0.799749 0.364105 0.958783
0.911693 0.364105 0.958783
0.983999 0.364105 0.958783
1.000000 0.364105 0.958783
0.000000 0.539301 0.958783
0.112264 0.539301 0.958783
0.266547 0.539301 0.958783
0.454692 0.539301 0.958783
0.643208 0.539301 0.958783
0.799749 0.539301 0.958783
0.911693 0.539301 0.958783
0.983999 0.539301 0.958783
1.000000 0.539301 0.958783
0.000000 0.706275 0.958783
0.112264 0.706275 0.958783
0.266547 0.706275 0.958783
0.454692 0.706275 0.958783
0.643208 0.706275 0.958783
0.799749 0.706275 0.958783
0.911693 0.706275 0.958783
0.983999 0.706275 0.958783
1.000000 0.706275 0.958783
0.000000 0.843306 0.958783
0.112264 0.843306 0.958783
0.266547 0.843306 0.958783
0.454692 0.843306 0.958783
0.643208 0.843306 0.958783
0.799749 0.843306 0.958783
0.911693 0.843306 0.958783
0.983999 0.843306 0.958783
1.000000 0.843306 0.958783
0.000000 0.942821 0.958783
0.112264 0.942821 0.958783
0.266547 0.942821 0.958783
0.454692 0.942821 0.958783
0.643208 0.942821 0.958783
0.799749 0.942821 0.958783
0.911693 0.942821 0.958783
0.983999 0.942821 0.958783
1.000000 0.942821 0.958783
0.000000 1.000000 0.958783
0.112264 1.000000 0.958783
0.266547 1.000000 0.958783
0.454692 1.000000 0.958783
0.643208 1.000000 0.958783
0.799749 1.000000 0.958783
0.911693 1.000000 0.958783
0.983999 1.000000 0.958783
1.000000 1.000000 0.958783
