resources/luts/moody-forest.cube
# KomfyEdit 3D LUT: moody-forest
TITLE "moody-forest"
LUT_3D_SIZE 5
DOMAIN_MIN 0.0 0.0 0.0
DOMAIN_MAX 1.0 1.0 1.0
0.000000 0.025000 0.010000
0.219975 0.021263 0.008505
0.439950 0.017525 0.007010
0.659925 0.013788 0.005515
0.879900 0.010050 0.004020
0.014675 0.287663 0.007065
0.234650 0.283925 0.005570
0.454625 0.280188 0.004075
0.674600 0.276450 0.002580
0.894575 0.272713 0.001085
0.029350 0.550325 0.004130
0.249325 0.546588 0.002635
0.469300 0.542850 0.001140
0.689275 0.540000 0.000000
0.909250 0.540000 0.000000
0.044025 0.812988 0.001195
0.264000 0.810000 0.000000
0.483975 0.810000 0.000000
0.703950 0.810000 0.000000
0.923925 0.810000 0.000000
0.058700 1.000000 0.000000
0.278675 1.000000 0.000000
0.498650 1.000000 0.000000
0.718625 1.000000 0.000000
0.938600 1.000000 0.000000
0.002850 0.023575 0.239430
0.222825 0.019838 0.237935
0.442800 0.016100 0.236440
0.662775 0.012362 0.234945
0.882750 0.008625 0.233450
0.017525 0.286238 0.236495
0.237500 0.282500 0.235000
0.457475 0.278763 0.233505
0.677450 0.275025 0.232010
0.897425 0.271288 0.230515
0.032200 0.548900 0.233560
0.252175 0.545162 0.232065
0.472150 0.541425 0.230570
0.692125 0.540000 0.230000
0.912100 0.540000 0.230000
0.046875 0.811563 0.230625
0.266850 0.810000 0.230000
0.486825 0.810000 0.230000
0.706800 0.810000 0.230000
0.926775 0.810000 0.230000
0.061550 1.000000 0.230000
0.281525 1.000000 0.230000
0.501500 1.000000 0.230000
0.721475 1.000000 0.230000
0.941450 1.000000 0.230000
0.005700 0.022150 0.468860
0.225675 0.018412 0.467365
0.445650 0.014675 0.465870
0.665625 0.010938 0.464375
0.885600 0.007200 0.462880
0.020375 0.284813 0.465925
0.240350 0.281075 0.464430
0.460325 0.277338 0.462935
0.680300 0.273600 0.461440
0.900275 0.270000 0.460000
0.035050 0.547475 0.462990
0.255025 0.543737 0.461495
0.475000 0.540000 0.460000
0.694975 0.540000 0.460000
0.914950 0.540000 0.460000
0.049725 0.810138 0.460055
0.269700 0.810000 0.460000
0.489675 0.810000 0.460000
0.709650 0.810000 0.460000
0.929625 0.810000 0.460000
0.064400 1.000000 0.460000
0.284375 1.000000 0.460000
0.504350 1.000000 0.460000
0.724325 1.000000 0.460000
0.944300 1.000000 0.460000
0.008550 0.020725 0.698290
0.228525 0.016987 0.696795
0.448500 0.013250 0.695300
0.668475 0.009513 0.693805
0.888450 0.005775 0.692310
0.023225 0.283388 0.695355
0.243200 0.279650 0.693860
0.463175 0.275913 0.692365
0.683150 0.272175 0.690870
0.903125 0.270000 0.690000
0.037900 0.546050 0.692420
0.257875 0.542313 0.690925
0.477850 0.540000 0.690000
0.697825 0.540000 0.690000
0.917800 0.540000 0.690000
0.052575 0.810000 0.690000
0.272550 0.810000 0.690000
0.492525 0.810000 0.690000
0.712500 0.810000 0.690000
0.932475 0.810000 0.690000
0.067250 1.000000 0.690000
0.287225 1.000000 0.690000
0.507200 1.000000 0.690000
0.727175 1.000000 0.690000
0.947150 1.000000 0.690000
0.011400 0.019300 0.927720
0.231375 0.015563 0.926225
0.451350 0.011825 0.924730
0.671325 0.008088 0.923235
0.891300 0.004350 0.921740
0.026075 0.281963 0.924785
0.246050 0.278225 0.923290
0.466025 0.274487 0.921795
0.686000 0.270750 0.920300
0.905975 0.270000 0.920000
0.040750 0.544625 0.921850
0.260725 0.540888 0.920355
0.480700 0.540000 0.920000
0.700675 0.540000 0.920000
0.920650 0.540000 0.920000
0.055425 0.810000 0.920000
0.275400 0.810000 0.920000
0.495375 0.810000 0.920000
0.715350 0.810000 0.920000
0.935325 0.810000 0.920000
0.070100 1.000000 0.920000
0.290075 1.000000 0.920000
0.510050 1.000000 0.920000
0.730025 1.000000 0.920000
0.950000 1.000000 0.920000
