resources/luts/moody-forest.cube
# KomfyEdit 3D LUT: moody-forest
TITLE "moody-forest"
LUT_3D_SIZE 9
DOMAIN_MIN 0.0 0.0 0.0
DOMAIN_MAX 1.0 1.0 1.0
0.000000 0.025000 0.010000
0.109988 0.023131 0.009253
0.219975 0.021263 0.008505
0.329962 0.019394 0.007757
0.439950 0.017525 0.007010
0.549937 0.015656 0.006262
0.659925 0.013788 0.005515
0.769912 0.011919 0.004768
0.879900 0.010050 0.004020
0.007338 0.156331 0.008533
0.117325 0.154463 0.007785
0.227313 0.152594 0.007038
0.337300 0.150725 0.006290
0.447288 0.148856 0.005543
0.557275 0.146988 0.004795
0.667262 0.145119 0.004047
0.777250 0.143250 0.003300
0.887238 0.141381 0.002552
0.014675 0.287663 0.007065
0.124662 0.285794 0.006318
0.234650 0.283925 0.005570
0.344637 0.282056 0.004823
0.454625 0.280188 0.004075
0.564612 0.278319 0.003328
0.674600 0.276450 0.002580
0.784587 0.274581 0.001833
0.894575 0.272713 0.001085
0.022013 0.418994 0.005598
0.132000 0.417125 0.004850
0.241987 0.415256 0.004103
0.351975 0.413388 0.003355
0.461962 0.411519 0.002608
0.571950 0.409650 0.001860
0.681937 0.407781 0.001113
0.791925 0.405913 0.000365
0.901913 0.405000 0.000000
0.029350 0.550325 0.004130
0.139338 0.548456 0.003383
0.249325 0.546588 0.002635
0.359312 0.544719 0.001887
0.469300 0.542850 0.001140
0.579287 0.540981 0.000393
0.689275 0.540000 0.000000
0.799262 0.540000 0.000000
0.909250 0.540000 0.000000
0.036687 0.681656 0.002663
0.146675 0.679788 0.001915
0.256663 0.677919 0.001168
0.366650 0.676050 0.000420
0.476637 0.675000 0.000000
0.586625 0.675000 0.000000
0.696612 0.675000 0.000000
0.806600 0.675000 0.000000
0.916587 0.675000 0.000000
0.044025 0.812988 0.001195
0.154012 0.811119 0.000448
0.264000 0.810000 0.000000
0.373987 0.810000 0.000000
0.483975 0.810000 0.000000
0.593962 0.810000 0.000000
0.703950 0.810000 0.000000
0.813937 0.810000 0.000000
0.923925 0.810000 0.000000
0.051363 0.945000 0.000000
0.161350 0.945000 0.000000
0.271338 0.945000 0.000000
0.381325 0.945000 0.000000
0.491312 0.945000 0.000000
0.601300 0.945000 0.000000
0.711287 0.945000 0.000000
0.821275 0.945000 0.000000
0.931262 0.945000 0.000000
0.058700 1.000000 0.000000
0.168687 1.000000 0.000000
0.278675 1.000000 0.000000
0.388662 1.000000 0.000000
0.498650 1.000000 0.000000
0.608637 1.000000 0.000000
0.718625 1.000000 0.000000
0.828612 1.000000 0.000000
0.938600 1.000000 0.000000
0.001425 0.024288 0.124715
0.111412 0.022419 0.123968
0.221400 0.020550 0.123220
0.331388 0.018681 0.122473
0.441375 0.016813 0.121725
0.551362 0.014944 0.120978
0.661350 0.013075 0.120230
0.771338 0.011206 0.119483
0.881325 0.009338 0.118735
0.008762 0.155619 0.123248
0.118750 0.153750 0.122500
0.228737 0.151881 0.121752
0.338725 0.150013 0.121005
0.448713 0.148144 0.120258
0.558700 0.146275 0.119510
0.668687 0.144406 0.118763
0.778675 0.142538 0.118015
0.888663 0.140669 0.117268
0.016100 0.286950 0.121780
0.126087 0.285081 0.121033
0.236075 0.283213 0.120285
0.346062 0.281344 0.119538
0.456050 0.279475 0.118790
0.566037 0.277606 0.118043
0.676025 0.275738 0.117295
0.786013 0.273869 0.116548
0.896000 0.272000 0.115800
0.023438 0.418281 0.120313
0.133425 0.416413 0.119565
0.243413 0.414544 0.118818
0.353400 0.412675 0.118070
0.463388 0.410806 0.117323
0.573375 0.408938 0.116575
0.683362 0.407069 0.115827
0.793350 0.405200 0.115080
0.903338 0.405000 0.115000
0.030775 0.549613 0.118845
0.140762 0.547744 0.118098
0.250750 0.545875 0.117350
0.360737 0.544006 0.116603
0.470725 0.542138 0.115855
0.580712 0.540269 0.115108
0.690700 0.540000 0.115000
0.800687 0.540000 0.115000
0.910675 0.540000 0.115000
0.038112 0.680944 0.117378
0.148100 0.679075 0.116630
0.258087 0.677206 0.115883
0.368075 0.675338 0.115135
0.478063 0.675000 0.115000
0.588050 0.675000 0.115000
0.698037 0.675000 0.115000
0.808025 0.675000 0.115000
0.918013 0.675000 0.115000
0.045450 0.812275 0.115910
0.155438 0.810406 0.115163
0.265425 0.810000 0.115000
0.375412 0.810000 0.115000
0.485400 0.810000 0.115000
0.595387 0.810000 0.115000
0.705375 0.810000 0.115000
0.815362 0.810000 0.115000
0.925350 0.810000 0.115000
0.052788 0.945000 0.115000
0.162775 0.945000 0.115000
0.272763 0.945000 0.115000
0.382750 0.945000 0.115000
0.492737 0.945000 0.115000
0.602725 0.945000 0.115000
0.712712 0.945000 0.115000
0.822700 0.945000 0.115000
0.932688 0.945000 0.115000
0.060125 1.000000 0.115000
0.170112 1.000000 0.115000
0.280100 1.000000 0.115000
0.390087 1.000000 0.115000
0.500075 1.000000 0.115000
0.610062 1.000000 0.115000
0.720050 1.000000 0.115000
0.830037 1.000000 0.115000
0.940025 1.000000 0.115000
0.002850 0.023575 0.239430
0.112837 0.021706 0.238683
0.222825 0.019838 0.237935
0.332812 0.017969 0.237188
0.442800 0.016100 0.236440
0.552787 0.014231 0.235692
0.662775 0.012362 0.234945
0.772763 0.010494 0.234198
0.882750 0.008625 0.233450
0.010188 0.154906 0.237963
0.120175 0.153038 0.237215
0.230162 0.151169 0.236467
0.340150 0.149300 0.235720
0.450137 0.147431 0.234973
0.560125 0.145563 0.234225
0.670112 0.143694 0.233478
0.780100 0.141825 0.232730
0.890088 0.139956 0.231983
0.017525 0.286238 0.236495
0.127513 0.284369 0.235747
0.237500 0.282500 0.235000
0.347487 0.280631 0.234253
0.457475 0.278763 0.233505
0.567462 0.276894 0.232758
0.677450 0.275025 0.232010
0.787438 0.273156 0.231263
0.897425 0.271288 0.230515
0.024862 0.417569 0.235028
0.134850 0.415700 0.234280
0.244837 0.413831 0.233533
0.354825 0.411963 0.232785
0.464812 0.410094 0.232038
0.574800 0.408225 0.231290
0.684787 0.406356 0.230543
0.794775 0.405000 0.230000
0.904762 0.405000 0.230000
0.032200 0.548900 0.233560
0.142187 0.547031 0.232813
0.252175 0.545162 0.232065
0.362162 0.543294 0.231318
0.472150 0.541425 0.230570
0.582137 0.540000 0.230000
0.692125 0.540000 0.230000
0.802113 0.540000 0.230000
0.912100 0.540000 0.230000
0.039538 0.680231 0.232093
0.149525 0.678363 0.231345
0.259512 0.676494 0.230598
0.369500 0.675000 0.230000
0.479487 0.675000 0.230000
0.589475 0.675000 0.230000
0.699462 0.675000 0.230000
0.809450 0.675000 0.230000
0.919438 0.675000 0.230000
0.046875 0.811563 0.230625
0.156862 0.810000 0.230000
0.266850 0.810000 0.230000
0.376837 0.810000 0.230000
0.486825 0.810000 0.230000
0.596812 0.810000 0.230000
0.706800 0.810000 0.230000
0.816787 0.810000 0.230000
0.926775 0.810000 0.230000
0.054212 0.945000 0.230000
0.164200 0.945000 0.230000
0.274187 0.945000 0.230000
0.384175 0.945000 0.230000
0.494163 0.945000 0.230000
0.604150 0.945000 0.230000
0.714137 0.945000 0.230000
0.824125 0.945000 0.230000
0.934113 0.945000 0.230000
0.061550 1.000000 0.230000
0.171538 1.000000 0.230000
0.281525 1.000000 0.230000
0.391512 1.000000 0.230000
0.501500 1.000000 0.230000
0.611487 1.000000 0.230000
0.721475 1.000000 0.230000
0.831462 1.000000 0.230000
0.941450 1.000000 0.230000
0.004275 0.022863 0.354145
0.114263 0.020994 0.353398
0.224250 0.019125 0.352650
0.334237 0.017256 0.351903
0.444225 0.015387 0.351155
0.554212 0.013519 0.350408
0.664200 0.011650 0.349660
0.774188 0.009781 0.348913
0.884175 0.007913 0.348165
0.011613 0.154194 0.352678
0.121600 0.152325 0.351930
0.231588 0.150456 0.351183
0.341575 0.148588 0.350435
0.451562 0.146719 0.349688
0.561550 0.144850 0.348940
0.671538 0.142981 0.348193
0.781525 0.141113 0.347445
0.891512 0.139244 0.346698
0.018950 0.285525 0.351210
0.128937 0.283656 0.350463
0.238925 0.281788 0.349715
0.348912 0.279919 0.348968
0.458900 0.278050 0.348220
0.568887 0.276181 0.347473
0.678875 0.274313 0.346725
0.788863 0.272444 0.345978
0.898850 0.270575 0.345230
0.026287 0.416856 0.349743
0.136275 0.414988 0.348995
0.246262 0.413119 0.348248
0.356250 0.411250 0.347500
0.466237 0.409381 0.346753
0.576225 0.407513 0.346005
0.686213 0.405644 0.345258
0.796200 0.405000 0.345000
0.906187 0.405000 0.345000
0.033625 0.548188 0.348275
0.143613 0.546319 0.347528
0.253600 0.544450 0.346780
0.363587 0.542581 0.346033
0.473575 0.540713 0.345285
0.583562 0.540000 0.345000
0.693550 0.540000 0.345000
0.803538 0.540000 0.345000
0.913525 0.540000 0.345000
0.040962 0.679519 0.346808
0.150950 0.677650 0.346060
0.260937 0.675781 0.345313
0.370925 0.675000 0.345000
0.480912 0.675000 0.345000
0.590900 0.675000 0.345000
0.700887 0.675000 0.345000
0.810875 0.675000 0.345000
0.920862 0.675000 0.345000
0.048300 0.810850 0.345340
0.158287 0.810000 0.345000
0.268275 0.810000 0.345000
0.378262 0.810000 0.345000
0.488250 0.810000 0.345000
0.598237 0.810000 0.345000
0.708225 0.810000 0.345000
0.818213 0.810000 0.345000
0.928200 0.810000 0.345000
0.055637 0.945000 0.345000
0.165625 0.945000 0.345000
0.275612 0.945000 0.345000
0.385600 0.945000 0.345000
0.495587 0.945000 0.345000
0.605575 0.945000 0.345000
0.715562 0.945000 0.345000
0.825550 0.945000 0.345000
0.935537 0.945000 0.345000
0.062975 1.000000 0.345000
0.172962 1.000000 0.345000
0.282950 1.000000 0.345000
0.392937 1.000000 0.345000
0.502925 1.000000 0.345000
0.612912 1.000000 0.345000
0.722900 1.000000 0.345000
0.832888 1.000000 0.345000
0.942875 1.000000 0.345000
0.005700 0.022150 0.468860
0.115687 0.020281 0.468113
0.225675 0.018412 0.467365
0.335662 0.016544 0.466618
0.445650 0.014675 0.465870
0.555638 0.012806 0.465122
0.665625 0.010938 0.464375
0.775613 0.009069 0.463628
0.885600 0.007200 0.462880
0.013038 0.153481 0.467393
0.123025 0.151613 0.466645
0.233013 0.149744 0.465898
0.343000 0.147875 0.465150
0.452987 0.146006 0.464402
0.562975 0.144138 0.463655
0.672962 0.142269 0.462908
0.782950 0.140400 0.462160
0.892937 0.138531 0.461413
0.020375 0.284813 0.465925
0.130362 0.282944 0.465178
0.240350 0.281075 0.464430
0.350337 0.279206 0.463682
0.460325 0.277338 0.462935
0.570313 0.275469 0.462188
0.680300 0.273600 0.461440
0.790288 0.271731 0.460693
0.900275 0.270000 0.460000
0.027713 0.416144 0.464458
0.137700 0.414275 0.463710
0.247688 0.412406 0.462962
0.357675 0.410537 0.462215
0.467662 0.408669 0.461468
0.577650 0.406800 0.460720
0.687637 0.405000 0.460000
0.797625 0.405000 0.460000
0.907612 0.405000 0.460000
0.035050 0.547475 0.462990
0.145037 0.545606 0.462243
0.255025 0.543737 0.461495
0.365012 0.541869 0.460748
0.475000 0.540000 0.460000
0.584987 0.540000 0.460000
0.694975 0.540000 0.460000
0.804963 0.540000 0.460000
0.914950 0.540000 0.460000
0.042387 0.678806 0.461523
0.152375 0.676938 0.460775
0.262362 0.675069 0.460028
0.372350 0.675000 0.460000
0.482337 0.675000 0.460000
0.592325 0.675000 0.460000
0.702312 0.675000 0.460000
0.812300 0.675000 0.460000
0.922287 0.675000 0.460000
0.049725 0.810138 0.460055
0.159713 0.810000 0.460000
0.269700 0.810000 0.460000
0.379687 0.810000 0.460000
0.489675 0.810000 0.460000
0.599662 0.810000 0.460000
0.709650 0.810000 0.460000
0.819638 0.810000 0.460000
0.929625 0.810000 0.460000
0.057063 0.945000 0.460000
0.167050 0.945000 0.460000
0.277037 0.945000 0.460000
0.387025 0.945000 0.460000
0.497012 0.945000 0.460000
0.607000 0.945000 0.460000
0.716987 0.945000 0.460000
0.826975 0.945000 0.460000
0.936962 0.945000 0.460000
0.064400 1.000000 0.460000
0.174388 1.000000 0.460000
0.284375 1.000000 0.460000
0.394363 1.000000 0.460000
0.504350 1.000000 0.460000
0.614337 1.000000 0.460000
0.724325 1.000000 0.460000
0.834313 1.000000 0.460000
0.944300 1.000000 0.460000
0.007125 0.021437 0.583575
0.117112 0.019569 0.582828
0.227100 0.017700 0.582080
0.337087 0.015831 0.581333
0.447075 0.013963 0.580585
0.557063 0.012094 0.579838
0.667050 0.010225 0.579090
0.777038 0.008356 0.578343
0.887025 0.006488 0.577595
0.014463 0.152769 0.582108
0.124450 0.150900 0.581360
0.234437 0.149031 0.580613
0.344425 0.147163 0.579865
0.454412 0.145294 0.579118
0.564400 0.143425 0.578370
0.674387 0.141556 0.577623
0.784375 0.139688 0.576875
0.894362 0.137819 0.576128
0.021800 0.284100 0.580640
0.131788 0.282231 0.579893
0.241775 0.280363 0.579145
0.351762 0.278494 0.578398
0.461750 0.276625 0.577650
0.571738 0.274756 0.576903
0.681725 0.272888 0.576155
0.791713 0.271019 0.575408
0.901700 0.270000 0.575000
0.029138 0.415431 0.579173
0.139125 0.413563 0.578425
0.249113 0.411694 0.577678
0.359100 0.409825 0.576930
0.469087 0.407956 0.576183
0.579075 0.406088 0.575435
0.689062 0.405000 0.575000
0.799050 0.405000 0.575000
0.909037 0.405000 0.575000
0.036475 0.546763 0.577705
0.146462 0.544894 0.576958
0.256450 0.543025 0.576210
0.366437 0.541156 0.575463
0.476425 0.540000 0.575000
0.586413 0.540000 0.575000
0.696400 0.540000 0.575000
0.806388 0.540000 0.575000
0.916375 0.540000 0.575000
0.043813 0.678094 0.576238
0.153800 0.676225 0.575490
0.263788 0.675000 0.575000
0.373775 0.675000 0.575000
0.483762 0.675000 0.575000
0.593750 0.675000 0.575000
0.703737 0.675000 0.575000
0.813725 0.675000 0.575000
0.923712 0.675000 0.575000
0.051150 0.810000 0.575000
0.161137 0.810000 0.575000
0.271125 0.810000 0.575000
0.381112 0.810000 0.575000
0.491100 0.810000 0.575000
0.601087 0.810000 0.575000
0.711075 0.810000 0.575000
0.821063 0.810000 0.575000
0.931050 0.810000 0.575000
0.058488 0.945000 0.575000
0.168475 0.945000 0.575000
0.278463 0.945000 0.575000
0.388450 0.945000 0.575000
0.498437 0.945000 0.575000
0.608425 0.945000 0.575000
0.718413 0.945000 0.575000
0.828400 0.945000 0.575000
0.938387 0.945000 0.575000
0.065825 1.000000 0.575000
0.175813 1.000000 0.575000
0.285800 1.000000 0.575000
0.395787 1.000000 0.575000
0.505775 1.000000 0.575000
0.615762 1.000000 0.575000
0.725750 1.000000 0.575000
0.835738 1.000000 0.575000
0.945725 1.000000 0.575000
0.008550 0.020725 0.698290
0.118538 0.018856 0.697543
0.228525 0.016987 0.696795
0.338512 0.015119 0.696048
0.448500 0.013250 0.695300
0.558488 0.011381 0.694553
0.668475 0.009513 0.693805
0.778463 0.007644 0.693058
0.888450 0.005775 0.692310
0.015887 0.152056 0.696823
0.125875 0.150188 0.696075
0.235863 0.148319 0.695328
0.345850 0.146450 0.694580
0.455838 0.144581 0.693833
0.565825 0.142713 0.693085
0.675812 0.140844 0.692338
0.785800 0.138975 0.691590
0.895787 0.137106 0.690843
0.023225 0.283388 0.695355
0.133213 0.281519 0.694608
0.243200 0.279650 0.693860
0.353187 0.277781 0.693113
0.463175 0.275913 0.692365
0.573163 0.274044 0.691618
0.683150 0.272175 0.690870
0.793138 0.270306 0.690123
0.903125 0.270000 0.690000
0.030562 0.414719 0.693888
0.140550 0.412850 0.693140
0.250537 0.410981 0.692393
0.360525 0.409113 0.691645
0.470513 0.407244 0.690898
0.580500 0.405375 0.690150
0.690487 0.405000 0.690000
0.800475 0.405000 0.690000
0.910462 0.405000 0.690000
0.037900 0.546050 0.692420
0.147888 0.544181 0.691673
0.257875 0.542313 0.690925
0.367862 0.540444 0.690178
0.477850 0.540000 0.690000
0.587838 0.540000 0.690000
0.697825 0.540000 0.690000
0.807813 0.540000 0.690000
0.917800 0.540000 0.690000
0.045237 0.677381 0.690953
0.155225 0.675513 0.690205
0.265212 0.675000 0.690000
0.375200 0.675000 0.690000
0.485187 0.675000 0.690000
0.595175 0.675000 0.690000
0.705162 0.675000 0.690000
0.815150 0.675000 0.690000
0.925137 0.675000 0.690000
0.052575 0.810000 0.690000
0.162562 0.810000 0.690000
0.272550 0.810000 0.690000
0.382537 0.810000 0.690000
0.492525 0.810000 0.690000
0.602513 0.810000 0.690000
0.712500 0.810000 0.690000
0.822488 0.810000 0.690000
0.932475 0.810000 0.690000
0.059913 0.945000 0.690000
0.169900 0.945000 0.690000
0.279888 0.945000 0.690000
0.389875 0.945000 0.690000
0.499862 0.945000 0.690000
0.609850 0.945000 0.690000
0.719837 0.945000 0.690000
0.829825 0.945000 0.690000
0.939812 0.945000 0.690000
0.067250 1.000000 0.690000
0.177237 1.000000 0.690000
0.287225 1.000000 0.690000
0.397212 1.000000 0.690000
0.507200 1.000000 0.690000
0.617188 1.000000 0.690000
0.727175 1.000000 0.690000
0.837163 1.000000 0.690000
0.947150 1.000000 0.690000
0.009975 0.020013 0.813005
0.119962 0.018144 0.812258
0.229950 0.016275 0.811510
0.339938 0.014406 0.810763
0.449925 0.012538 0.810015
0.559913 0.010669 0.809268
0.669900 0.008800 0.808520
0.779888 0.006931 0.807773
0.889875 0.005063 0.807025
0.017313 0.151344 0.811538
0.127300 0.149475 0.810790
0.237287 0.147606 0.810042
0.347275 0.145738 0.809295
0.457263 0.143869 0.808548
0.567250 0.142000 0.807800
0.677237 0.140131 0.807053
0.787225 0.138263 0.806305
0.897212 0.136394 0.805558
0.024650 0.282675 0.810070
0.134637 0.280806 0.809323
0.244625 0.278938 0.808575
0.354612 0.277069 0.807828
0.464600 0.275200 0.807080
0.574588 0.273331 0.806333
0.684575 0.271462 0.805585
0.794563 0.270000 0.805000
0.904550 0.270000 0.805000
0.031988 0.414006 0.808603
0.141975 0.412138 0.807855
0.251962 0.410269 0.807108
0.361950 0.408400 0.806360
0.471938 0.406531 0.805613
0.581925 0.405000 0.805000
0.691912 0.405000 0.805000
0.801900 0.405000 0.805000
0.911887 0.405000 0.805000
0.039325 0.545338 0.807135
0.149313 0.543469 0.806388
0.259300 0.541600 0.805640
0.369287 0.540000 0.805000
0.479275 0.540000 0.805000
0.589263 0.540000 0.805000
0.699250 0.540000 0.805000
0.809238 0.540000 0.805000
0.919225 0.540000 0.805000
0.046662 0.676669 0.805668
0.156650 0.675000 0.805000
0.266637 0.675000 0.805000
0.376625 0.675000 0.805000
0.486613 0.675000 0.805000
0.596600 0.675000 0.805000
0.706587 0.675000 0.805000
0.816575 0.675000 0.805000
0.926562 0.675000 0.805000
0.054000 0.810000 0.805000
0.163988 0.810000 0.805000
0.273975 0.810000 0.805000
0.383962 0.810000 0.805000
0.493950 0.810000 0.805000
0.603938 0.810000 0.805000
0.713925 0.810000 0.805000
0.823913 0.810000 0.805000
0.933900 0.810000 0.805000
0.061338 0.945000 0.805000
0.171325 0.945000 0.805000
0.281312 0.945000 0.805000
0.391300 0.945000 0.805000
0.501287 0.945000 0.805000
0.611275 0.945000 0.805000
0.721262 0.945000 0.805000
0.831250 0.945000 0.805000
0.941237 0.945000 0.805000
0.068675 1.000000 0.805000
0.178663 1.000000 0.805000
0.288650 1.000000 0.805000
0.398637 1.000000 0.805000
0.508625 1.000000 0.805000
0.618613 1.000000 0.805000
0.728600 1.000000 0.805000
0.838588 1.000000 0.805000
0.948575 1.000000 0.805000
0.011400 0.019300 0.927720
0.121387 0.017431 0.926973
0.231375 0.015563 0.926225
0.341362 0.013694 0.925478
0.451350 0.011825 0.924730
0.561338 0.009956 0.923983
0.671325 0.008088 0.923235
0.781313 0.006219 0.922488
0.891300 0.004350 0.921740
0.018738 0.150631 0.926253
0.128725 0.148763 0.925505
0.238712 0.146894 0.924758
0.348700 0.145025 0.924010
0.458687 0.143156 0.923262
0.568675 0.141288 0.922515
0.678662 0.139419 0.921768
0.788650 0.137550 0.921020
0.898637 0.135681 0.920273
0.026075 0.281963 0.924785
0.136063 0.280094 0.924038
0.246050 0.278225 0.923290
0.356037 0.276356 0.922543
0.466025 0.274487 0.921795
0.576013 0.272619 0.921048
0.686000 0.270750 0.920300
0.795988 0.270000 0.920000
0.905975 0.270000 0.920000
0.033413 0.413294 0.923318
0.143400 0.411425 0.922570
0.253387 0.409556 0.921822
0.363375 0.407688 0.921075
0.473363 0.405819 0.920328
0.583350 0.405000 0.920000
0.693337 0.405000 0.920000
0.803325 0.405000 0.920000
0.913312 0.405000 0.920000
0.040750 0.544625 0.921850
0.150737 0.542756 0.921103
0.260725 0.540888 0.920355
0.370713 0.540000 0.920000
0.480700 0.540000 0.920000
0.590688 0.540000 0.920000
0.700675 0.540000 0.920000
0.810663 0.540000 0.920000
0.920650 0.540000 0.920000
0.048087 0.675956 0.920382
0.158075 0.675000 0.920000
0.268062 0.675000 0.920000
0.378050 0.675000 0.920000
0.488038 0.675000 0.920000
0.598025 0.675000 0.920000
0.708012 0.675000 0.920000
0.818000 0.675000 0.920000
0.927987 0.675000 0.920000
0.055425 0.810000 0.920000
0.165412 0.810000 0.920000
0.275400 0.810000 0.920000
0.385387 0.810000 0.920000
0.495375 0.810000 0.920000
0.605363 0.810000 0.920000
0.715350 0.810000 0.920000
0.825338 0.810000 0.920000
0.935325 0.810000 0.920000
0.062762 0.945000 0.920000
0.172750 0.945000 0.920000
0.282737 0.945000 0.920000
0.392725 0.945000 0.920000
0.502713 0.945000 0.920000
0.612700 0.945000 0.920000
0.722687 0.945000 0.920000
0.832675 0.945000 0.920000
0.942662 0.945000 0.920000
0.070100 1.000000 0.920000
0.180088 1.000000 0.920000
0.290075 1.000000 0.920000
0.400062 1.000000 0.920000
0.510050 1.000000 0.920000
0.620038 1.000000 0.920000
0.730025 1.000000 0.920000
0.840013 1.000000 0.920000
0.950000 1.000000 0.920000
