resources/luts/moody-forest.cube
# KomfyEdit 3D LUT: moody-forest
TITLE "moody-forest"
LUT_3D_SIZE 33
DOMAIN_MIN 0.0 0.0 0.0
DOMAIN_MAX 1.0 1.0 1.0
0.000000 0.025000 0.010000
0.027497 0.024533 0.009813
0.054994 0.024066 0.009626
0.082491 0.023598 0.009439
0.109988 0.023131 0.009253
0.137484 0.022664 0.009066
0.164981 0.022197 0.008879
0.192478 0.021730 0.008692
0.219975 0.021263 0.008505
0.247472 0.020795 0.008318
0.274969 0.020328 0.008131
0.302466 0.019861 0.007944
0.329962 0.019394 0.007757
0.357459 0.018927 0.007571
0.384956 0.018459 0.007384
0.412453 0.017992 0.007197
0.439950 0.017525 0.007010
0.467447 0.017058 0.006823
0.494944 0.016591 0.006636
0.522441 0.016123 0.006449
0.549937 0.015656 0.006262
0.577434 0.015189 0.006076
0.604931 0.014722 0.005889
0.632428 0.014255 0.005702
0.659925 0.013788 0.005515
0.687422 0.013320 0.005328
0.714919 0.012853 0.005141
0.742416 0.012386 0.004954
0.769912 0.011919 0.004768
0.797409 0.011452 0.004581
0.824906 0.010984 0.004394
0.852403 0.010517 0.004207
0.879900 0.010050 0.004020
0.001834 0.057833 0.009633
0.029331 0.057366 0.009446
0.056828 0.056898 0.009259
0.084325 0.056431 0.009073
0.111822 0.055964 0.008886
0.139319 0.055497 0.008699
0.166816 0.055030 0.008512
0.194312 0.054562 0.008325
0.221809 0.054095 0.008138
0.249306 0.053628 0.007951
0.276803 0.053161 0.007764
0.304300 0.052694 0.007578
0.331797 0.052227 0.007391
0.359294 0.051759 0.007204
0.386791 0.051292 0.007017
0.414287 0.050825 0.006830
0.441784 0.050358 0.006643
0.469281 0.049891 0.006456
0.496778 0.049423 0.006269
0.524275 0.048956 0.006082
0.551772 0.048489 0.005896
0.579269 0.048022 0.005709
0.606766 0.047555 0.005522
0.634263 0.047088 0.005335
0.661759 0.046620 0.005148
0.689256 0.046153 0.004961
0.716753 0.045686 0.004774
0.744250 0.045219 0.004588
0.771747 0.044752 0.004401
0.799244 0.044284 0.004214
0.826741 0.043817 0.004027
0.854237 0.043350 0.003840
0.881734 0.042883 0.003653
0.003669 0.090666 0.009266
0.031166 0.090198 0.009079
0.058662 0.089731 0.008892
0.086159 0.089264 0.008706
0.113656 0.088797 0.008519
0.141153 0.088330 0.008332
0.168650 0.087863 0.008145
0.196147 0.087395 0.007958
0.223644 0.086928 0.007771
0.251141 0.086461 0.007584
0.278637 0.085994 0.007398
0.306134 0.085527 0.007211
0.333631 0.085059 0.007024
0.361128 0.084592 0.006837
0.388625 0.084125 0.006650
0.416122 0.083658 0.006463
0.443619 0.083191 0.006276
0.471116 0.082723 0.006089
0.498612 0.082256 0.005903
0.526109 0.081789 0.005716
0.553606 0.081322 0.005529
0.581103 0.080855 0.005342
0.608600 0.080388 0.005155
0.636097 0.079920 0.004968
0.663594 0.079453 0.004781
0.691091 0.078986 0.004594
0.718587 0.078519 0.004407
0.746084 0.078052 0.004221
0.773581 0.077584 0.004034
0.801078 0.077117 0.003847
0.828575 0.076650 0.003660
0.856072 0.076183 0.003473
0.883569 0.075716 0.003286
0.005503 0.123498 0.008899
0.033000 0.123031 0.008712
0.060497 0.122564 0.008526
0.087994 0.122097 0.008339
0.115491 0.121630 0.008152
0.142987 0.121163 0.007965
0.170484 0.120695 0.007778
0.197981 0.120228 0.007591
0.225478 0.119761 0.007404
0.252975 0.119294 0.007217
0.280472 0.118827 0.007031
0.307969 0.118359 0.006844
0.335466 0.117892 0.006657
0.362962 0.117425 0.006470
0.390459 0.116958 0.006283
0.417956 0.116491 0.006096
0.445453 0.116023 0.005909
0.472950 0.115556 0.005722
0.500447 0.115089 0.005536
0.527944 0.114622 0.005349
0.555441 0.114155 0.005162
0.582937 0.113688 0.004975
0.610434 0.113220 0.004788
0.637931 0.112753 0.004601
0.665428 0.112286 0.004414
0.692925 0.111819 0.004228
0.720422 0.111352 0.004041
0.747919 0.110884 0.003854
0.775416 0.110417 0.003667
0.802912 0.109950 0.003480
0.830409 0.109483 0.003293
0.857906 0.109016 0.003106
0.885403 0.108548 0.002919
0.007338 0.156331 0.008533
0.034834 0.155864 0.008346
0.062331 0.155397 0.008159
0.089828 0.154930 0.007972
0.117325 0.154463 0.007785
0.144822 0.153995 0.007598
0.172319 0.153528 0.007411
0.199816 0.153061 0.007224
0.227313 0.152594 0.007038
0.254809 0.152127 0.006851
0.282306 0.151659 0.006664
0.309803 0.151192 0.006477
0.337300 0.150725 0.006290
0.364797 0.150258 0.006103
0.392294 0.149791 0.005916
0.419791 0.149323 0.005729
0.447288 0.148856 0.005543
0.474784 0.148389 0.005356
0.502281 0.147922 0.005169
0.529778 0.147455 0.004982
0.557275 0.146988 0.004795
0.584772 0.146520 0.004608
0.612269 0.146053 0.004421
0.639766 0.145586 0.004234
0.667262 0.145119 0.004047
0.694759 0.144652 0.003861
0.722256 0.144184 0.003674
0.749753 0.143717 0.003487
0.777250 0.143250 0.003300
0.804747 0.142783 0.003113
0.832244 0.142316 0.002926
0.859741 0.141848 0.002739
0.887238 0.141381 0.002552
0.009172 0.189164 0.008166
0.036669 0.188697 0.007979
0.064166 0.188230 0.007792
0.091662 0.187762 0.007605
0.119159 0.187295 0.007418
0.146656 0.186828 0.007231
0.174153 0.186361 0.007044
0.201650 0.185894 0.006858
0.229147 0.185427 0.006671
0.256644 0.184959 0.006484
0.284141 0.184492 0.006297
0.311638 0.184025 0.006110
0.339134 0.183558 0.005923
0.366631 0.183091 0.005736
0.394128 0.182623 0.005549
0.421625 0.182156 0.005363
0.449122 0.181689 0.005176
0.476619 0.181222 0.004989
0.504116 0.180755 0.004802
0.531612 0.180288 0.004615
0.559109 0.179820 0.004428
0.586606 0.179353 0.004241
0.614103 0.178886 0.004054
0.641600 0.178419 0.003868
0.669097 0.177952 0.003681
0.696594 0.177484 0.003494
0.724091 0.177017 0.003307
0.751587 0.176550 0.003120
0.779084 0.176083 0.002933
0.806581 0.175616 0.002746
0.834078 0.175148 0.002559
0.861575 0.174681 0.002372
0.889072 0.174214 0.002186
0.011006 0.221997 0.007799
0.038503 0.221530 0.007612
0.066000 0.221063 0.007425
0.093497 0.220595 0.007238
0.120994 0.220128 0.007051
0.148491 0.219661 0.006864
0.175987 0.219194 0.006678
0.203484 0.218727 0.006491
0.230981 0.218259 0.006304
0.258478 0.217792 0.006117
0.285975 0.217325 0.005930
0.313472 0.216858 0.005743
0.340969 0.216391 0.005556
0.368466 0.215923 0.005369
0.395962 0.215456 0.005182
0.423459 0.214989 0.004996
0.450956 0.214522 0.004809
0.478453 0.214055 0.004622
0.505950 0.213588 0.004435
0.533447 0.213120 0.004248
0.560944 0.212653 0.004061
0.588441 0.212186 0.003874
0.615938 0.211719 0.003688
0.643434 0.211252 0.003501
0.670931 0.210784 0.003314
0.698428 0.210317 0.003127
0.725925 0.209850 0.002940
0.753422 0.209383 0.002753
0.780919 0.208916 0.002566
0.808416 0.208448 0.002379
0.835913 0.207981 0.002193
0.863409 0.207514 0.002006
0.890906 0.207047 0.001819
0.012841 0.254830 0.007432
0.040337 0.254362 0.007245
0.067834 0.253895 0.007058
0.095331 0.253428 0.006871
0.122828 0.252961 0.006684
0.150325 0.252494 0.006498
0.177822 0.252027 0.006311
0.205319 0.251559 0.006124
0.232816 0.251092 0.005937
0.260313 0.250625 0.005750
0.287809 0.250158 0.005563
0.315306 0.249691 0.005376
0.342803 0.249223 0.005189
0.370300 0.248756 0.005003
0.397797 0.248289 0.004816
0.425294 0.247822 0.004629
0.452791 0.247355 0.004442
0.480287 0.246888 0.004255
0.507784 0.246420 0.004068
0.535281 0.245953 0.003881
0.562778 0.245486 0.003694
0.590275 0.245019 0.003508
0.617772 0.244552 0.003321
0.645269 0.244084 0.003134
0.672766 0.243617 0.002947
0.700263 0.243150 0.002760
0.727759 0.242683 0.002573
0.755256 0.242216 0.002386
0.782753 0.241748 0.002199
0.810250 0.241281 0.002013
0.837747 0.240814 0.001826
0.865244 0.240347 0.001639
0.892741 0.239880 0.001452
0.014675 0.287663 0.007065
0.042172 0.287195 0.006878
0.069669 0.286728 0.006691
0.097166 0.286261 0.006504
0.124662 0.285794 0.006318
0.152159 0.285327 0.006131
0.179656 0.284859 0.005944
0.207153 0.284392 0.005757
0.234650 0.283925 0.005570
0.262147 0.283458 0.005383
0.289644 0.282991 0.005196
0.317141 0.282523 0.005009
0.344637 0.282056 0.004823
0.372134 0.281589 0.004636
0.399631 0.281122 0.004449
0.427128 0.280655 0.004262
0.454625 0.280188 0.004075
0.482122 0.279720 0.003888
0.509619 0.279253 0.003701
0.537116 0.278786 0.003514
0.564612 0.278319 0.003328
0.592109 0.277852 0.003141
0.619606 0.277384 0.002954
0.647103 0.276917 0.002767
0.674600 0.276450 0.002580
0.702097 0.275983 0.002393
0.729594 0.275516 0.002206
0.757091 0.275048 0.002019
0.784587 0.274581 0.001833
0.812084 0.274114 0.001646
0.839581 0.273647 0.001459
0.867078 0.273180 0.001272
0.894575 0.272713 0.001085
0.016509 0.320495 0.006698
0.044006 0.320028 0.006511
0.071503 0.319561 0.006324
0.099000 0.319094 0.006138
0.126497 0.318627 0.005951
0.153994 0.318159 0.005764
0.181491 0.317692 0.005577
0.208987 0.317225 0.005390
0.236484 0.316758 0.005203
0.263981 0.316291 0.005016
0.291478 0.315823 0.004829
0.318975 0.315356 0.004643
0.346472 0.314889 0.004456
0.373969 0.314422 0.004269
0.401466 0.313955 0.004082
0.428963 0.313488 0.003895
0.456459 0.313020 0.003708
0.483956 0.312553 0.003521
0.511453 0.312086 0.003334
0.538950 0.311619 0.003148
0.566447 0.311152 0.002961
0.593944 0.310684 0.002774
0.621441 0.310217 0.002587
0.648938 0.309750 0.002400
0.676434 0.309283 0.002213
0.703931 0.308816 0.002026
0.731428 0.308348 0.001839
0.758925 0.307881 0.001653
0.786422 0.307414 0.001466
0.813919 0.306947 0.001279
0.841416 0.306480 0.001092
0.868912 0.306013 0.000905
0.896409 0.305545 0.000718
0.018344 0.353328 0.006331
0.045841 0.352861 0.006144
0.073337 0.352394 0.005958
0.100834 0.351927 0.005771
0.128331 0.351459 0.005584
0.155828 0.350992 0.005397
0.183325 0.350525 0.005210
0.210822 0.350058 0.005023
0.238319 0.349591 0.004836
0.265816 0.349123 0.004649
0.293312 0.348656 0.004463
0.320809 0.348189 0.004276
0.348306 0.347722 0.004089
0.375803 0.347255 0.003902
0.403300 0.346788 0.003715
0.430797 0.346320 0.003528
0.458294 0.345853 0.003341
0.485791 0.345386 0.003154
0.513288 0.344919 0.002968
0.540784 0.344452 0.002781
0.568281 0.343984 0.002594
0.595778 0.343517 0.002407
0.623275 0.343050 0.002220
0.650772 0.342583 0.002033
0.678269 0.342116 0.001846
0.705766 0.341648 0.001659
0.733262 0.341181 0.001473
0.760759 0.340714 0.001286
0.788256 0.340247 0.001099
0.815753 0.339780 0.000912
0.843250 0.339313 0.000725
0.870747 0.338845 0.000538
0.898244 0.338378 0.000351
0.020178 0.386161 0.005964
0.047675 0.385694 0.005777
0.075172 0.385227 0.005591
0.102669 0.384759 0.005404
0.130166 0.384292 0.005217
0.157663 0.383825 0.005030
0.185159 0.383358 0.004843
0.212656 0.382891 0.004656
0.240153 0.382423 0.004469
0.267650 0.381956 0.004283
0.295147 0.381489 0.004096
0.322644 0.381022 0.003909
0.350141 0.380555 0.003722
0.377637 0.380088 0.003535
0.405134 0.379620 0.003348
0.432631 0.379153 0.003161
0.460128 0.378686 0.002974
0.487625 0.378219 0.002788
0.515122 0.377752 0.002601
0.542619 0.377284 0.002414
0.570116 0.376817 0.002227
0.597612 0.376350 0.002040
0.625109 0.375883 0.001853
0.652606 0.375416 0.001666
0.680103 0.374948 0.001479
0.707600 0.374481 0.001293
0.735097 0.374014 0.001106
0.762594 0.373547 0.000919
0.790091 0.373080 0.000732
0.817587 0.372613 0.000545
0.845084 0.372145 0.000358
0.872581 0.371678 0.000171
0.900078 0.371250 0.000000
0.022013 0.418994 0.005598
0.049509 0.418527 0.005411
0.077006 0.418059 0.005224
0.104503 0.417592 0.005037
0.132000 0.417125 0.004850
0.159497 0.416658 0.004663
0.186994 0.416191 0.004476
0.214491 0.415723 0.004289
0.241987 0.415256 0.004103
0.269484 0.414789 0.003916
0.296981 0.414322 0.003729
0.324478 0.413855 0.003542
0.351975 0.413388 0.003355
0.379472 0.412920 0.003168
0.406969 0.412453 0.002981
0.434466 0.411986 0.002794
0.461962 0.411519 0.002608
0.489459 0.411052 0.002421
0.516956 0.410584 0.002234
0.544453 0.410117 0.002047
0.571950 0.409650 0.001860
0.599447 0.409183 0.001673
0.626944 0.408716 0.001486
0.654441 0.408248 0.001299
0.681937 0.407781 0.001113
0.709434 0.407314 0.000926
0.736931 0.406847 0.000739
0.764428 0.406380 0.000552
0.791925 0.405913 0.000365
0.819422 0.405445 0.000178
0.846919 0.405000 0.000000
0.874416 0.405000 0.000000
0.901913 0.405000 0.000000
0.023847 0.451827 0.005231
0.051344 0.451359 0.005044
0.078841 0.450892 0.004857
0.106337 0.450425 0.004670
0.133834 0.449958 0.004483
0.161331 0.449491 0.004296
0.188828 0.449023 0.004109
0.216325 0.448556 0.003922
0.243822 0.448089 0.003736
0.271319 0.447622 0.003549
0.298816 0.447155 0.003362
0.326313 0.446688 0.003175
0.353809 0.446220 0.002988
0.381306 0.445753 0.002801
0.408803 0.445286 0.002614
0.436300 0.444819 0.002428
0.463797 0.444352 0.002241
0.491294 0.443884 0.002054
0.518791 0.443417 0.001867
0.546287 0.442950 0.001680
0.573784 0.442483 0.001493
0.601281 0.442016 0.001306
0.628778 0.441548 0.001119
0.656275 0.441081 0.000933
0.683772 0.440614 0.000746
0.711269 0.440147 0.000559
0.738766 0.439680 0.000372
0.766262 0.439213 0.000185
0.793759 0.438750 0.000000
0.821256 0.438750 0.000000
0.848753 0.438750 0.000000
0.876250 0.438750 0.000000
0.903747 0.438750 0.000000
0.025681 0.484659 0.004864
0.053178 0.484192 0.004677
0.080675 0.483725 0.004490
0.108172 0.483258 0.004303
0.135669 0.482791 0.004116
0.163166 0.482323 0.003929
0.190662 0.481856 0.003742
0.218159 0.481389 0.003556
0.245656 0.480922 0.003369
0.273153 0.480455 0.003182
0.300650 0.479988 0.002995
0.328147 0.479520 0.002808
0.355644 0.479053 0.002621
0.383141 0.478586 0.002434
0.410637 0.478119 0.002247
0.438134 0.477652 0.002061
0.465631 0.477184 0.001874
0.493128 0.476717 0.001687
0.520625 0.476250 0.001500
0.548122 0.475783 0.001313
0.575619 0.475316 0.001126
0.603116 0.474848 0.000939
0.630613 0.474381 0.000753
0.658109 0.473914 0.000566
0.685606 0.473447 0.000379
0.713103 0.472980 0.000192
0.740600 0.472513 0.000005
0.768097 0.472500 0.000000
0.795594 0.472500 0.000000
0.823091 0.472500 0.000000
0.850588 0.472500 0.000000
0.878084 0.472500 0.000000
0.905581 0.472500 0.000000
0.027516 0.517492 0.004497
0.055012 0.517025 0.004310
0.082509 0.516558 0.004123
0.110006 0.516091 0.003936
0.137503 0.515623 0.003749
0.165000 0.515156 0.003563
0.192497 0.514689 0.003376
0.219994 0.514222 0.003189
0.247491 0.513755 0.003002
0.274987 0.513288 0.002815
0.302484 0.512820 0.002628
0.329981 0.512353 0.002441
0.357478 0.511886 0.002254
0.384975 0.511419 0.002067
0.412472 0.510952 0.001881
0.439969 0.510484 0.001694
0.467466 0.510017 0.001507
0.494962 0.509550 0.001320
0.522459 0.509083 0.001133
0.549956 0.508616 0.000946
0.577453 0.508148 0.000759
0.604950 0.507681 0.000573
0.632447 0.507214 0.000386
0.659944 0.506747 0.000199
0.687441 0.506280 0.000012
0.714938 0.506250 0.000000
0.742434 0.506250 0.000000
0.769931 0.506250 0.000000
0.797428 0.506250 0.000000
0.824925 0.506250 0.000000
0.852422 0.506250 0.000000
0.879919 0.506250 0.000000
0.907416 0.506250 0.000000
0.029350 0.550325 0.004130
0.056847 0.549858 0.003943
0.084344 0.549391 0.003756
0.111841 0.548923 0.003569
0.139338 0.548456 0.003383
0.166834 0.547989 0.003196
0.194331 0.547522 0.003009
0.221828 0.547055 0.002822
0.249325 0.546588 0.002635
0.276822 0.546120 0.002448
0.304319 0.545653 0.002261
0.331816 0.545186 0.002074
0.359312 0.544719 0.001887
0.386809 0.544252 0.001701
0.414306 0.543784 0.001514
0.441803 0.543317 0.001327
0.469300 0.542850 0.001140
0.496797 0.542383 0.000953
0.524294 0.541916 0.000766
0.551791 0.541448 0.000579
0.579287 0.540981 0.000393
0.606784 0.540514 0.000206
0.634281 0.540047 0.000019
0.661778 0.540000 0.000000
0.689275 0.540000 0.000000
0.716772 0.540000 0.000000
0.744269 0.540000 0.000000
0.771766 0.540000 0.000000
0.799262 0.540000 0.000000
0.826759 0.540000 0.000000
0.854256 0.540000 0.000000
0.881753 0.540000 0.000000
0.909250 0.540000 0.000000
0.031184 0.583158 0.003763
0.058681 0.582691 0.003576
0.086178 0.582223 0.003389
0.113675 0.581756 0.003203
0.141172 0.581289 0.003016
0.168669 0.580822 0.002829
0.196166 0.580355 0.002642
0.223663 0.579888 0.002455
0.251159 0.579420 0.002268
0.278656 0.578953 0.002081
0.306153 0.578486 0.001894
0.333650 0.578019 0.001708
0.361147 0.577552 0.001521
0.388644 0.577084 0.001334
0.416141 0.576617 0.001147
0.443638 0.576150 0.000960
0.471134 0.575683 0.000773
0.498631 0.575216 0.000586
0.526128 0.574748 0.000399
0.553625 0.574281 0.000212
0.581122 0.573814 0.000026
0.608619 0.573750 0.000000
0.636116 0.573750 0.000000
0.663613 0.573750 0.000000
0.691109 0.573750 0.000000
0.718606 0.573750 0.000000
0.746103 0.573750 0.000000
0.773600 0.573750 0.000000
0.801097 0.573750 0.000000
0.828594 0.573750 0.000000
0.856091 0.573750 0.000000
0.883587 0.573750 0.000000
0.911084 0.573750 0.000000
0.033019 0.615991 0.003396
0.060516 0.615523 0.003209
0.088012 0.615056 0.003023
0.115509 0.614589 0.002836
0.143006 0.614122 0.002649
0.170503 0.613655 0.002462
0.198000 0.613187 0.002275
0.225497 0.612720 0.002088
0.252994 0.612253 0.001901
0.280491 0.611786 0.001714
0.307987 0.611319 0.001528
0.335484 0.610852 0.001341
0.362981 0.610384 0.001154
0.390478 0.609917 0.000967
0.417975 0.609450 0.000780
0.445472 0.608983 0.000593
0.472969 0.608516 0.000406
0.500466 0.608048 0.000219
0.527963 0.607581 0.000033
0.555459 0.607500 0.000000
0.582956 0.607500 0.000000
0.610453 0.607500 0.000000
0.637950 0.607500 0.000000
0.665447 0.607500 0.000000
0.692944 0.607500 0.000000
0.720441 0.607500 0.000000
0.747937 0.607500 0.000000
0.775434 0.607500 0.000000
0.802931 0.607500 0.000000
0.830428 0.607500 0.000000
0.857925 0.607500 0.000000
0.885422 0.607500 0.000000
0.912919 0.607500 0.000000
0.034853 0.648823 0.003029
0.062350 0.648356 0.002843
0.089847 0.647889 0.002656
0.117344 0.647422 0.002469
0.144841 0.646955 0.002282
0.172338 0.646488 0.002095
0.199834 0.646020 0.001908
0.227331 0.645553 0.001721
0.254828 0.645086 0.001534
0.282325 0.644619 0.001348
0.309822 0.644152 0.001161
0.337319 0.643684 0.000974
0.364816 0.643217 0.000787
0.392312 0.642750 0.000600
0.419809 0.642283 0.000413
0.447306 0.641816 0.000226
0.474803 0.641348 0.000039
0.502300 0.641250 0.000000
0.529797 0.641250 0.000000
0.557294 0.641250 0.000000
0.584791 0.641250 0.000000
0.612287 0.641250 0.000000
0.639784 0.641250 0.000000
0.667281 0.641250 0.000000
0.694778 0.641250 0.000000
0.722275 0.641250 0.000000
0.749772 0.641250 0.000000
0.777269 0.641250 0.000000
0.804766 0.641250 0.000000
0.832262 0.641250 0.000000
0.859759 0.641250 0.000000
0.887256 0.641250 0.000000
0.914753 0.641250 0.000000
0.036687 0.681656 0.002663
0.064184 0.681189 0.002476
0.091681 0.680722 0.002289
0.119178 0.680255 0.002102
0.146675 0.679788 0.001915
0.174172 0.679320 0.001728
0.201669 0.678853 0.001541
0.229166 0.678386 0.001354
0.256663 0.677919 0.001168
0.284159 0.677452 0.000981
0.311656 0.676984 0.000794
0.339153 0.676517 0.000607
0.366650 0.676050 0.000420
0.394147 0.675583 0.000233
0.421644 0.675116 0.000046
0.449141 0.675000 0.000000
0.476637 0.675000 0.000000
0.504134 0.675000 0.000000
0.531631 0.675000 0.000000
0.559128 0.675000 0.000000
0.586625 0.675000 0.000000
0.614122 0.675000 0.000000
0.641619 0.675000 0.000000
0.669116 0.675000 0.000000
0.696612 0.675000 0.000000
0.724109 0.675000 0.000000
0.751606 0.675000 0.000000
0.779103 0.675000 0.000000
0.806600 0.675000 0.000000
0.834097 0.675000 0.000000
0.861594 0.675000 0.000000
0.889091 0.675000 0.000000
0.916587 0.675000 0.000000
0.038522 0.714489 0.002296
0.066019 0.714022 0.002109
0.093516 0.713555 0.001922
0.121012 0.713087 0.001735
0.148509 0.712620 0.001548
0.176006 0.712153 0.001361
0.203503 0.711686 0.001174
0.231000 0.711219 0.000988
0.258497 0.710752 0.000801
0.285994 0.710284 0.000614
0.313491 0.709817 0.000427
0.340987 0.709350 0.000240
0.368484 0.708883 0.000053
0.395981 0.708750 0.000000
0.423478 0.708750 0.000000
0.450975 0.708750 0.000000
0.478472 0.708750 0.000000
0.505969 0.708750 0.000000
0.533466 0.708750 0.000000
0.560962 0.708750 0.000000
0.588459 0.708750 0.000000
0.615956 0.708750 0.000000
0.643453 0.708750 0.000000
0.670950 0.708750 0.000000
0.698447 0.708750 0.000000
0.725944 0.708750 0.000000
0.753441 0.708750 0.000000
0.780937 0.708750 0.000000
0.808434 0.708750 0.000000
0.835931 0.708750 0.000000
0.863428 0.708750 0.000000
0.890925 0.708750 0.000000
0.918422 0.708750 0.000000
0.040356 0.747322 0.001929
0.067853 0.746855 0.001742
0.095350 0.746388 0.001555
0.122847 0.745920 0.001368
0.150344 0.745453 0.001181
0.177841 0.744986 0.000994
0.205338 0.744519 0.000807
0.232834 0.744052 0.000621
0.260331 0.743584 0.000434
0.287828 0.743117 0.000247
0.315325 0.742650 0.000060
0.342822 0.742500 0.000000
0.370319 0.742500 0.000000
0.397816 0.742500 0.000000
0.425313 0.742500 0.000000
0.452809 0.742500 0.000000
0.480306 0.742500 0.000000
0.507803 0.742500 0.000000
0.535300 0.742500 0.000000
0.562797 0.742500 0.000000
0.590294 0.742500 0.000000
0.617791 0.742500 0.000000
0.645288 0.742500 0.000000
0.672784 0.742500 0.000000
0.700281 0.742500 0.000000
0.727778 0.742500 0.000000
0.755275 0.742500 0.000000
0.782772 0.742500 0.000000
0.810269 0.742500 0.000000
0.837766 0.742500 0.000000
0.865263 0.742500 0.000000
0.892759 0.742500 0.000000
0.920256 0.742500 0.000000
0.042191 0.780155 0.001562
0.069687 0.779688 0.001375
0.097184 0.779220 0.001188
0.124681 0.778753 0.001001
0.152178 0.778286 0.000814
0.179675 0.777819 0.000628
0.207172 0.777352 0.000441
0.234669 0.776884 0.000254
0.262166 0.776417 0.000067
0.289662 0.776250 0.000000
0.317159 0.776250 0.000000
0.344656 0.776250 0.000000
0.372153 0.776250 0.000000
0.399650 0.776250 0.000000
0.427147 0.776250 0.000000
0.454644 0.776250 0.000000
0.482141 0.776250 0.000000
0.509637 0.776250 0.000000
0.537134 0.776250 0.000000
0.564631 0.776250 0.000000
0.592128 0.776250 0.000000
0.619625 0.776250 0.000000
0.647122 0.776250 0.000000
0.674619 0.776250 0.000000
0.702116 0.776250 0.000000
0.729612 0.776250 0.000000
0.757109 0.776250 0.000000
0.784606 0.776250 0.000000
0.812103 0.776250 0.000000
0.839600 0.776250 0.000000
0.867097 0.776250 0.000000
0.894594 0.776250 0.000000
0.922091 0.776250 0.000000
0.044025 0.812988 0.001195
0.071522 0.812520 0.001008
0.099019 0.812053 0.000821
0.126516 0.811586 0.000634
0.154012 0.811119 0.000448
0.181509 0.810652 0.000261
0.209006 0.810184 0.000074
0.236503 0.810000 0.000000
0.264000 0.810000 0.000000
0.291497 0.810000 0.000000
0.318994 0.810000 0.000000
0.346491 0.810000 0.000000
0.373987 0.810000 0.000000
0.401484 0.810000 0.000000
0.428981 0.810000 0.000000
0.456478 0.810000 0.000000
0.483975 0.810000 0.000000
0.511472 0.810000 0.000000
0.538969 0.810000 0.000000
0.566466 0.810000 0.000000
0.593962 0.810000 0.000000
0.621459 0.810000 0.000000
0.648956 0.810000 0.000000
0.676453 0.810000 0.000000
0.703950 0.810000 0.000000
0.731447 0.810000 0.000000
0.758944 0.810000 0.000000
0.786441 0.810000 0.000000
0.813937 0.810000 0.000000
0.841434 0.810000 0.000000
0.868931 0.810000 0.000000
0.896428 0.810000 0.000000
0.923925 0.810000 0.000000
0.045859 0.845820 0.000828
0.073356 0.845353 0.000641
0.100853 0.844886 0.000454
0.128350 0.844419 0.000268
0.155847 0.843952 0.000081
0.183344 0.843750 0.000000
0.210841 0.843750 0.000000
0.238338 0.843750 0.000000
0.265834 0.843750 0.000000
0.293331 0.843750 0.000000
0.320828 0.843750 0.000000
0.348325 0.843750 0.000000
0.375822 0.843750 0.000000
0.403319 0.843750 0.000000
0.430816 0.843750 0.000000
0.458313 0.843750 0.000000
0.485809 0.843750 0.000000
0.513306 0.843750 0.000000
0.540803 0.843750 0.000000
0.568300 0.843750 0.000000
0.595797 0.843750 0.000000
0.623294 0.843750 0.000000
0.650791 0.843750 0.000000
0.678288 0.843750 0.000000
0.705784 0.843750 0.000000
0.733281 0.843750 0.000000
0.760778 0.843750 0.000000
0.788275 0.843750 0.000000
0.815772 0.843750 0.000000
0.843269 0.843750 0.000000
0.870766 0.843750 0.000000
0.898262 0.843750 0.000000
0.925759 0.843750 0.000000
0.047694 0.878653 0.000461
0.075191 0.878186 0.000274
0.102688 0.877719 0.000088
0.130184 0.877500 0.000000
0.157681 0.877500 0.000000
0.185178 0.877500 0.000000
0.212675 0.877500 0.000000
0.240172 0.877500 0.000000
0.267669 0.877500 0.000000
0.295166 0.877500 0.000000
0.322663 0.877500 0.000000
0.350159 0.877500 0.000000
0.377656 0.877500 0.000000
0.405153 0.877500 0.000000
0.432650 0.877500 0.000000
0.460147 0.877500 0.000000
0.487644 0.877500 0.000000
0.515141 0.877500 0.000000
0.542637 0.877500 0.000000
0.570134 0.877500 0.000000
0.597631 0.877500 0.000000
0.625128 0.877500 0.000000
0.652625 0.877500 0.000000
0.680122 0.877500 0.000000
0.707619 0.877500 0.000000
0.735116 0.877500 0.000000
