resources/luts/retro-90s.cube
# KomfyEdit 3D LUT: retro-90s
TITLE "retro-90s"
LUT_3D_SIZE 9
DOMAIN_MIN 0.0 0.0 0.0
DOMAIN_MAX 1.0 1.0 1.0
0.037915 0.031165 0.044844
0.128685 0.031165 0.044844
0.243781 0.031165 0.044844
0.379313 0.031165 0.044844
0.525671 0.031165 0.044844
0.669657 0.031165 0.044844
0.798892 0.031165 0.044844
0.905677 0.031165 0.044844
0.988042 0.031165 0.044844
0.037915 0.117624 0.044844
0.128685 0.117624 0.044844
0.243781 0.117624 0.044844
0.379313 0.117624 0.044844
0.525671 0.117624 0.044844
0.669657 0.117624 0.044844
0.798892 0.117624 0.044844
0.905677 0.117624 0.044844
0.988042 0.117624 0.044844
0.037915 0.227467 0.044844
0.128685 0.227467 0.044844
0.243781 0.227467 0.044844
0.379313 0.227467 0.044844
0.525671 0.227467 0.044844
0.669657 0.227467 0.044844
0.798892 0.227467 0.044844
0.905677 0.227467 0.044844
0.988042 0.227467 0.044844
0.037915 0.357693 0.044844
0.128685 0.357693 0.044844
0.243781 0.357693 0.044844
0.379313 0.357693 0.044844
0.525671 0.357693 0.044844
0.669657 0.357693 0.044844
0.798892 0.357693 0.044844
0.905677 0.357693 0.044844
0.988042 0.357693 0.044844
0.037915 0.500000 0.044844
0.128685 0.500000 0.044844
0.243781 0.500000 0.044844
0.379313 0.500000 0.044844
0.525671 0.500000 0.044844
0.669657 0.500000 0.044844
0.798892 0.500000 0.044844
0.905677 0.500000 0.044844
0.988042 0.500000 0.044844
0.037915 0.642307 0.044844
0.128685 0.642307 0.044844
0.243781 0.642307 0.044844
0.379313 0.642307 0.044844
0.525671 0.642307 0.044844
0.669657 0.642307 0.044844
0.798892 0.642307 0.044844
0.905677 0.642307 0.044844
0.988042 0.642307 0.044844
0.037915 0.772533 0.044844
0.128685 0.772533 0.044844
0.243781 0.772533 0.044844
0.379313 0.772533 0.044844
0.525671 0.772533 0.044844
0.669657 0.772533 0.044844
0.798892 0.772533 0.044844
0.905677 0.772533 0.044844
0.988042 0.772533 0.044844
0.037915 0.882376 0.044844
0.128685 0.882376 0.044844
0.243781 0.882376 0.044844
0.379313 0.882376 0.044844
0.525671 0.882376 0.044844
0.669657 0.882376 0.044844
0.798892 0.882376 0.044844
0.905677 0.882376 0.044844
0.988042 0.882376 0.044844
0.037915 0.968835 0.044844
0.128685 0.968835 0.044844
0.243781 0.968835 0.044844
0.379313 0.968835 0.044844
0.525671 0.968835 0.044844
0.669657 0.968835 0.044844
0.798892 0.968835 0.044844
0.905677 0.968835 0.044844
0.988042 0.968835 0.044844
0.037915 0.031165 0.133191
0.128685 0.031165 0.133191
0.243781 0.031165 0.133191
0.379313 0.031165 0.133191
0.525671 0.031165 0.133191
0.669657 0.031165 0.133191
0.798892 0.031165 0.133191
0.905677 0.031165 0.133191
0.988042 0.031165 0.133191
0.037915 0.117624 0.133191
0.128685 0.117624 0.133191
0.243781 0.117624 0.133191
0.379313 0.117624 0.133191
0.525671 0.117624 0.133191
0.669657 0.117624 0.133191
0.798892 0.117624 0.133191
0.905677 0.117624 0.133191
0.988042 0.117624 0.133191
0.037915 0.227467 0.133191
0.128685 0.227467 0.133191
0.243781 0.227467 0.133191
0.379313 0.227467 0.133191
0.525671 0.227467 0.133191
0.669657 0.227467 0.133191
0.798892 0.227467 0.133191
0.905677 0.227467 0.133191
0.988042 0.227467 0.133191
0.037915 0.357693 0.133191
0.128685 0.357693 0.133191
0.243781 0.357693 0.133191
0.379313 0.357693 0.133191
0.525671 0.357693 0.133191
0.669657 0.357693 0.133191
0.798892 0.357693 0.133191
0.905677 0.357693 0.133191
0.988042 0.357693 0.133191
0.037915 0.500000 0.133191
0.128685 0.500000 0.133191
0.243781 0.500000 0.133191
0.379313 0.500000 0.133191
0.525671 0.500000 0.133191
0.669657 0.500000 0.133191
0.798892 0.500000 0.133191
0.905677 0.500000 0.133191
0.988042 0.500000 0.133191
0.037915 0.642307 0.133191
0.128685 0.642307 0.133191
0.243781 0.642307 0.133191
0.379313 0.642307 0.133191
0.525671 0.642307 0.133191
0.669657 0.642307 0.133191
0.798892 0.642307 0.133191
0.905677 0.642307 0.133191
0.988042 0.642307 0.133191
0.037915 0.772533 0.133191
0.128685 0.772533 0.133191
0.243781 0.772533 0.133191
0.379313 0.772533 0.133191
0.525671 0.772533 0.133191
0.669657 0.772533 0.133191
0.798892 0.772533 0.133191
0.905677 0.772533 0.133191
0.988042 0.772533 0.133191
0.037915 0.882376 0.133191
0.128685 0.882376 0.133191
0.243781 0.882376 0.133191
0.379313 0.882376 0.133191
0.525671 0.882376 0.133191
0.669657 0.882376 0.133191
0.798892 0.882376 0.133191
0.905677 0.882376 0.133191
0.988042 0.882376 0.133191
0.037915 0.968835 0.133191
0.128685 0.968835 0.133191
0.243781 0.968835 0.133191
0.379313 0.968835 0.133191
0.525671 0.968835 0.133191
0.669657 0.968835 0.133191
0.798892 0.968835 0.133191
0.905677 0.968835 0.133191
0.988042 0.968835 0.133191
0.037915 0.031165 0.243781
0.128685 0.031165 0.243781
0.243781 0.031165 0.243781
0.379313 0.031165 0.243781
0.525671 0.031165 0.243781
0.669657 0.031165 0.243781
0.798892 0.031165 0.243781
0.905677 0.031165 0.243781
0.988042 0.031165 0.243781
0.037915 0.117624 0.243781
0.128685 0.117624 0.243781
0.243781 0.117624 0.243781
0.379313 0.117624 0.243781
0.525671 0.117624 0.243781
0.669657 0.117624 0.243781
0.798892 0.117624 0.243781
0.905677 0.117624 0.243781
0.988042 0.117624 0.243781
0.037915 0.227467 0.243781
0.128685 0.227467 0.243781
0.243781 0.227467 0.243781
0.379313 0.227467 0.243781
0.525671 0.227467 0.243781
0.669657 0.227467 0.243781
0.798892 0.227467 0.243781
0.905677 0.227467 0.243781
0.988042 0.227467 0.243781
0.037915 0.357693 0.243781
0.128685 0.357693 0.243781
0.243781 0.357693 0.243781
0.379313 0.357693 0.243781
0.525671 0.357693 0.243781
0.669657 0.357693 0.243781
0.798892 0.357693 0.243781
0.905677 0.357693 0.243781
0.988042 0.357693 0.243781
0.037915 0.500000 0.243781
0.128685 0.500000 0.243781
0.243781 0.500000 0.243781
0.379313 0.500000 0.243781
0.525671 0.500000 0.243781
0.669657 0.500000 0.243781
0.798892 0.500000 0.243781
0.905677 0.500000 0.243781
0.988042 0.500000 0.243781
0.037915 0.642307 0.243781
0.128685 0.642307 0.243781
0.243781 0.642307 0.243781
0.379313 0.642307 0.243781
0.525671 0.642307 0.243781
0.669657 0.642307 0.243781
0.798892 0.642307 0.243781
0.905677 0.642307 0.243781
0.988042 0.642307 0.243781
0.037915 0.772533 0.243781
0.128685 0.772533 0.243781
0.243781 0.772533 0.243781
0.379313 0.772533 0.243781
0.525671 0.772533 0.243781
0.669657 0.772533 0.243781
0.798892 0.772533 0.243781
0.905677 0.772533 0.243781
0.988042 0.772533 0.243781
0.037915 0.882376 0.243781
0.128685 0.882376 0.243781
0.243781 0.882376 0.243781
0.379313 0.882376 0.243781
0.525671 0.882376 0.243781
0.669657 0.882376 0.243781
0.798892 0.882376 0.243781
0.905677 0.882376 0.243781
0.988042 0.882376 0.243781
0.037915 0.968835 0.243781
0.128685 0.968835 0.243781
0.243781 0.968835 0.243781
0.379313 0.968835 0.243781
0.525671 0.968835 0.243781
0.669657 0.968835 0.243781
0.798892 0.968835 0.243781
0.905677 0.968835 0.243781
0.988042 0.968835 0.243781
0.037915 0.031165 0.373107
0.128685 0.031165 0.373107
0.243781 0.031165 0.373107
0.379313 0.031165 0.373107
0.525671 0.031165 0.373107
0.669657 0.031165 0.373107
0.798892 0.031165 0.373107
0.905677 0.031165 0.373107
0.988042 0.031165 0.373107
0.037915 0.117624 0.373107
0.128685 0.117624 0.373107
0.243781 0.117624 0.373107
0.379313 0.117624 0.373107
0.525671 0.117624 0.373107
0.669657 0.117624 0.373107
0.798892 0.117624 0.373107
0.905677 0.117624 0.373107
0.988042 0.117624 0.373107
0.037915 0.227467 0.373107
0.128685 0.227467 0.373107
0.243781 0.227467 0.373107
0.379313 0.227467 0.373107
0.525671 0.227467 0.373107
0.669657 0.227467 0.373107
0.798892 0.227467 0.373107
0.905677 0.227467 0.373107
0.988042 0.227467 0.373107
0.037915 0.357693 0.373107
0.128685 0.357693 0.373107
0.243781 0.357693 0.373107
0.379313 0.357693 0.373107
0.525671 0.357693 0.373107
0.669657 0.357693 0.373107
0.798892 0.357693 0.373107
0.905677 0.357693 0.373107
0.988042 0.357693 0.373107
0.037915 0.500000 0.373107
0.128685 0.500000 0.373107
0.243781 0.500000 0.373107
0.379313 0.500000 0.373107
0.525671 0.500000 0.373107
0.669657 0.500000 0.373107
0.798892 0.500000 0.373107
0.905677 0.500000 0.373107
0.988042 0.500000 0.373107
0.037915 0.642307 0.373107
0.128685 0.642307 0.373107
0.243781 0.642307 0.373107
0.379313 0.642307 0.373107
0.525671 0.642307 0.373107
0.669657 0.642307 0.373107
0.798892 0.642307 0.373107
0.905677 0.642307 0.373107
0.988042 0.642307 0.373107
0.037915 0.772533 0.373107
0.128685 0.772533 0.373107
0.243781 0.772533 0.373107
0.379313 0.772533 0.373107
0.525671 0.772533 0.373107
0.669657 0.772533 0.373107
0.798892 0.772533 0.373107
0.905677 0.772533 0.373107
0.988042 0.772533 0.373107
0.037915 0.882376 0.373107
0.128685 0.882376 0.373107
0.243781 0.882376 0.373107
0.379313 0.882376 0.373107
0.525671 0.882376 0.373107
0.669657 0.882376 0.373107
0.798892 0.882376 0.373107
0.905677 0.882376 0.373107
0.988042 0.882376 0.373107
0.037915 0.968835 0.373107
0.128685 0.968835 0.373107
0.243781 0.968835 0.373107
0.379313 0.968835 0.373107
0.525671 0.968835 0.373107
0.669657 0.968835 0.373107
0.798892 0.968835 0.373107
0.905677 0.968835 0.373107
0.988042 0.968835 0.373107
0.037915 0.031165 0.512840
0.128685 0.031165 0.512840
0.243781 0.031165 0.512840
0.379313 0.031165 0.512840
0.525671 0.031165 0.512840
0.669657 0.031165 0.512840
0.798892 0.031165 0.512840
0.905677 0.031165 0.512840
0.988042 0.031165 0.512840
0.037915 0.117624 0.512840
0.128685 0.117624 0.512840
0.243781 0.117624 0.512840
0.379313 0.117624 0.512840
0.525671 0.117624 0.512840
0.669657 0.117624 0.512840
0.798892 0.117624 0.512840
0.905677 0.117624 0.512840
0.988042 0.117624 0.512840
0.037915 0.227467 0.512840
0.128685 0.227467 0.512840
0.243781 0.227467 0.512840
0.379313 0.227467 0.512840
0.525671 0.227467 0.512840
0.669657 0.227467 0.512840
0.798892 0.227467 0.512840
0.905677 0.227467 0.512840
0.988042 0.227467 0.512840
0.037915 0.357693 0.512840
0.128685 0.357693 0.512840
0.243781 0.357693 0.512840
0.379313 0.357693 0.512840
0.525671 0.357693 0.512840
0.669657 0.357693 0.512840
0.798892 0.357693 0.512840
0.905677 0.357693 0.512840
0.988042 0.357693 0.512840
0.037915 0.500000 0.512840
0.128685 0.500000 0.512840
0.243781 0.500000 0.512840
0.379313 0.500000 0.512840
0.525671 0.500000 0.512840
0.669657 0.500000 0.512840
0.798892 0.500000 0.512840
0.905677 0.500000 0.512840
0.988042 0.500000 0.512840
0.037915 0.642307 0.512840
0.128685 0.642307 0.512840
0.243781 0.642307 0.512840
0.379313 0.642307 0.512840
0.525671 0.642307 0.512840
0.669657 0.642307 0.512840
0.798892 0.642307 0.512840
0.905677 0.642307 0.512840
0.988042 0.642307 0.512840
0.037915 0.772533 0.512840
0.128685 0.772533 0.512840
0.243781 0.772533 0.512840
0.379313 0.772533 0.512840
0.525671 0.772533 0.512840
0.669657 0.772533 0.512840
0.798892 0.772533 0.512840
0.905677 0.772533 0.512840
0.988042 0.772533 0.512840
0.037915 0.882376 0.512840
0.128685 0.882376 0.512840
0.243781 0.882376 0.512840
0.379313 0.882376 0.512840
0.525671 0.882376 0.512840
0.669657 0.882376 0.512840
0.798892 0.882376 0.512840
0.905677 0.882376 0.512840
0.988042 0.882376 0.512840
0.037915 0.968835 0.512840
0.128685 0.968835 0.512840
0.243781 0.968835 0.512840
0.379313 0.968835 0.512840
0.525671 0.968835 0.512840
0.669657 0.968835 0.512840
0.798892 0.968835 0.512840
0.905677 0.968835 0.512840
0.988042 0.968835 0.512840
0.037915 0.031165 0.651483
0.128685 0.031165 0.651483
0.243781 0.031165 0.651483
0.379313 0.031165 0.651483
0.525671 0.031165 0.651483
0.669657 0.031165 0.651483
0.798892 0.031165 0.651483
0.905677 0.031165 0.651483
0.988042 0.031165 0.651483
0.037915 0.117624 0.651483
0.128685 0.117624 0.651483
0.243781 0.117624 0.651483
0.379313 0.117624 0.651483
0.525671 0.117624 0.651483
0.669657 0.117624 0.651483
0.798892 0.117624 0.651483
0.905677 0.117624 0.651483
0.988042 0.117624 0.651483
0.037915 0.227467 0.651483
0.128685 0.227467 0.651483
0.243781 0.227467 0.651483
0.379313 0.227467 0.651483
0.525671 0.227467 0.651483
0.669657 0.227467 0.651483
0.798892 0.227467 0.651483
0.905677 0.227467 0.651483
0.988042 0.227467 0.651483
0.037915 0.357693 0.651483
0.128685 0.357693 0.651483
0.243781 0.357693 0.651483
0.379313 0.357693 0.651483
0.525671 0.357693 0.651483
0.669657 0.357693 0.651483
0.798892 0.357693 0.651483
0.905677 0.357693 0.651483
0.988042 0.357693 0.651483
0.037915 0.500000 0.651483
0.128685 0.500000 0.651483
0.243781 0.500000 0.651483
0.379313 0.500000 0.651483
0.525671 0.500000 0.651483
0.669657 0.500000 0.651483
0.798892 0.500000 0.651483
0.905677 0.500000 0.651483
0.988042 0.500000 0.651483
0.037915 0.642307 0.651483
0.128685 0.642307 0.651483
0.243781 0.642307 0.651483
0.379313 0.642307 0.651483
0.525671 0.642307 0.651483
0.669657 0.642307 0.651483
0.798892 0.642307 0.651483
0.905677 0.642307 0.651483
0.988042 0.642307 0.651483
0.037915 0.772533 0.651483
0.128685 0.772533 0.651483
0.243781 0.772533 0.651483
0.379313 0.772533 0.651483
0.525671 0.772533 0.651483
0.669657 0.772533 0.651483
0.798892 0.772533 0.651483
0.905677 0.772533 0.651483
0.988042 0.772533 0.651483
0.037915 0.882376 0.651483
0.128685 0.882376 0.651483
0.243781 0.882376 0.651483
0.379313 0.882376 0.651483
0.525671 0.882376 0.651483
0.669657 0.882376 0.651483
0.798892 0.882376 0.651483
0.905677 0.882376 0.651483
0.988042 0.882376 0.651483
0.037915 0.968835 0.651483
0.128685 0.968835 0.651483
0.243781 0.968835 0.651483
0.379313 0.968835 0.651483
0.525671 0.968835 0.651483
0.669657 0.968835 0.651483
0.798892 0.968835 0.651483
0.905677 0.968835 0.651483
0.988042 0.968835 0.651483
0.037915 0.031165 0.777889
0.128685 0.031165 0.777889
0.243781 0.031165 0.777889
0.379313 0.031165 0.777889
0.525671 0.031165 0.777889
0.669657 0.031165 0.777889
0.798892 0.031165 0.777889
0.905677 0.031165 0.777889
0.988042 0.031165 0.777889
0.037915 0.117624 0.777889
0.128685 0.117624 0.777889
0.243781 0.117624 0.777889
0.379313 0.117624 0.777889
0.525671 0.117624 0.777889
0.669657 0.117624 0.777889
0.798892 0.117624 0.777889
0.905677 0.117624 0.777889
0.988042 0.117624 0.777889
0.037915 0.227467 0.777889
0.128685 0.227467 0.777889
0.243781 0.227467 0.777889
0.379313 0.227467 0.777889
0.525671 0.227467 0.777889
0.669657 0.227467 0.777889
0.798892 0.227467 0.777889
0.905677 0.227467 0.777889
0.988042 0.227467 0.777889
0.037915 0.357693 0.777889
0.128685 0.357693 0.777889
0.243781 0.357693 0.777889
0.379313 0.357693 0.777889
0.525671 0.357693 0.777889
0.669657 0.357693 0.777889
0.798892 0.357693 0.777889
0.905677 0.357693 0.777889
0.988042 0.357693 0.777889
0.037915 0.500000 0.777889
0.128685 0.500000 0.777889
0.243781 0.500000 0.777889
0.379313 0.500000 0.777889
0.525671 0.500000 0.777889
0.669657 0.500000 0.777889
0.798892 0.500000 0.777889
0.905677 0.500000 0.777889
0.988042 0.500000 0.777889
0.037915 0.642307 0.777889
0.128685 0.642307 0.777889
0.243781 0.642307 0.777889
0.379313 0.642307 0.777889
0.525671 0.642307 0.777889
0.669657 0.642307 0.777889
0.798892 0.642307 0.777889
0.905677 0.642307 0.777889
0.988042 0.642307 0.777889
0.037915 0.772533 0.777889
0.128685 0.772533 0.777889
0.243781 0.772533 0.777889
0.379313 0.772533 0.777889
0.525671 0.772533 0.777889
0.669657 0.772533 0.777889
0.798892 0.772533 0.777889
0.905677 0.772533 0.777889
0.988042 0.772533 0.777889
0.037915 0.882376 0.777889
0.128685 0.882376 0.777889
0.243781 0.882376 0.777889
0.379313 0.882376 0.777889
0.525671 0.882376 0.777889
0.669657 0.882376 0.777889
0.798892 0.882376 0.777889
0.905677 0.882376 0.777889
0.988042 0.882376 0.777889
0.037915 0.968835 0.777889
0.128685 0.968835 0.777889
0.243781 0.968835 0.777889
0.379313 0.968835 0.777889
0.525671 0.968835 0.777889
0.669657 0.968835 0.777889
0.798892 0.968835 0.777889
0.905677 0.968835 0.777889
0.988042 0.968835 0.777889
0.037915 0.031165 0.884553
0.128685 0.031165 0.884553
0.243781 0.031165 0.884553
0.379313 0.031165 0.884553
0.525671 0.031165 0.884553
0.669657 0.031165 0.884553
0.798892 0.031165 0.884553
0.905677 0.031165 0.884553
0.988042 0.031165 0.884553
0.037915 0.117624 0.884553
0.128685 0.117624 0.884553
0.243781 0.117624 0.884553
0.379313 0.117624 0.884553
0.525671 0.117624 0.884553
0.669657 0.117624 0.884553
0.798892 0.117624 0.884553
0.905677 0.117624 0.884553
0.988042 0.117624 0.884553
0.037915 0.227467 0.884553
0.128685 0.227467 0.884553
0.243781 0.227467 0.884553
0.379313 0.227467 0.884553
0.525671 0.227467 0.884553
0.669657 0.227467 0.884553
0.798892 0.227467 0.884553
0.905677 0.227467 0.884553
0.988042 0.227467 0.884553
0.037915 0.357693 0.884553
0.128685 0.357693 0.884553
0.243781 0.357693 0.884553
0.379313 0.357693 0.884553
0.525671 0.357693 0.884553
0.669657 0.357693 0.884553
0.798892 0.357693 0.884553
0.905677 0.357693 0.884553
0.988042 0.357693 0.884553
0.037915 0.500000 0.884553
0.128685 0.500000 0.884553
0.243781 0.500000 0.884553
0.379313 0.500000 0.884553
0.525671 0.500000 0.884553
0.669657 0.500000 0.884553
0.798892 0.500000 0.884553
0.905677 0.500000 0.884553
0.988042 0.500000 0.884553
0.037915 0.642307 0.884553
0.128685 0.642307 0.884553
0.243781 0.642307 0.884553
0.379313 0.642307 0.884553
0.525671 0.642307 0.884553
0.669657 0.642307 0.884553
0.798892 0.642307 0.884553
0.905677 0.642307 0.884553
0.988042 0.642307 0.884553
0.037915 0.772533 0.884553
0.128685 0.772533 0.884553
0.243781 0.772533 0.884553
0.379313 0.772533 0.884553
0.525671 0.772533 0.884553
0.669657 0.772533 0.884553
0.798892 0.772533 0.884553
0.905677 0.772533 0.884553
0.988042 0.772533 0.884553
0.037915 0.882376 0.884553
0.128685 0.882376 0.884553
0.243781 0.882376 0.884553
0.379313 0.882376 0.884553
0.525671 0.882376 0.884553
0.669657 0.882376 0.884553
0.798892 0.882376 0.884553
0.905677 0.882376 0.884553
0.988042 0.882376 0.884553
0.037915 0.968835 0.884553
0.128685 0.968835 0.884553
0.243781 0.968835 0.884553
0.379313 0.968835 0.884553
0.525671 0.968835 0.884553
0.669657 0.968835 0.884553
0.798892 0.968835 0.884553
0.905677 0.968835 0.884553
0.988042 0.968835 0.884553
0.037915 0.031165 0.968835
0.128685 0.031165 0.968835
0.243781 0.031165 0.968835
0.379313 0.031165 0.968835
0.525671 0.031165 0.968835
0.669657 0.031165 0.968835
0.798892 0.031165 0.968835
0.905677 0.031165 0.968835
0.988042 0.031165 0.968835
0.037915 0.117624 0.968835
0.128685 0.117624 0.968835
0.243781 0.117624 0.968835
0.379313 0.117624 0.968835
0.525671 0.117624 0.968835
0.669657 0.117624 0.968835
0.798892 0.117624 0.968835
0.905677 0.117624 0.968835
0.988042 0.117624 0.968835
0.037915 0.227467 0.968835
0.128685 0.227467 0.968835
0.243781 0.227467 0.968835
0.379313 0.227467 0.968835
0.525671 0.227467 0.968835
0.669657 0.227467 0.968835
0.798892 0.227467 0.968835
0.905677 0.227467 0.968835
0.988042 0.227467 0.968835
0.037915 0.357693 0.968835
0.128685 0.357693 0.968835
0.243781 0.357693 0.968835
0.379313 0.357693 0.968835
0.525671 0.357693 0.968835
0.669657 0.357693 0.968835
0.798892 0.357693 0.968835
0.905677 0.357693 0.968835
0.988042 0.357693 0.968835
0.037915 0.500000 0.968835
0.128685 0.500000 0.968835
0.243781 0.500000 0.968835
0.379313 0.500000 0.968835
0.525671 0.500000 0.968835
0.669657 0.500000 0.968835
0.798892 0.500000 0.968835
0.905677 0.500000 0.968835
0.988042 0.500000 0.968835
0.037915 0.642307 0.968835
0.128685 0.642307 0.968835
0.243781 0.642307 0.968835
0.379313 0.642307 0.968835
0.525671 0.642307 0.968835
0.669657 0.642307 0.968835
0.798892 0.642307 0.968835
0.905677 0.642307 0.968835
0.988042 0.642307 0.968835
0.037915 0.772533 0.968835
0.128685 0.772533 0.968835
0.243781 0.772533 0.968835
0.379313 0.772533 0.968835
0.525671 0.772533 0.968835
0.669657 0.772533 0.968835
0.798892 0.772533 0.968835
0.905677 0.772533 0.968835
0.988042 0.772533 0.968835
0.037915 0.882376 0.968835
0.128685 0.882376 0.968835
0.243781 0.882376 0.968835
0.379313 0.882376 0.968835
0.525671 0.882376 0.968835
0.669657 0.882376 0.968835
0.798892 0.882376 0.968835
0.905677 0.882376 0.968835
0.988042 0.882376 0.968835
0.037915 0.968835 0.968835
0.128685 0.968835 0.968835
0.243781 0.968835 0.968835
0.379313 0.968835 0.968835
0.525671 0.968835 0.968835
0.669657 0.968835 0.968835
0.798892 0.968835 0.968835
0.905677 0.968835 0.968835
0.988042 0.968835 0.968835
