resources/luts/retro-90s.cube
# KomfyEdit 3D LUT: retro-90s
TITLE "retro-90s"
LUT_3D_SIZE 33
DOMAIN_MIN 0.0 0.0 0.0
DOMAIN_MAX 1.0 1.0 1.0
0.037915 0.031165 0.044844
0.058320 0.031165 0.044844
0.080233 0.031165 0.044844
0.103684 0.031165 0.044844
0.128685 0.031165 0.044844
0.155232 0.031165 0.044844
0.183299 0.031165 0.044844
0.212839 0.031165 0.044844
0.243781 0.031165 0.044844
0.276031 0.031165 0.044844
0.309468 0.031165 0.044844
0.343950 0.031165 0.044844
0.379313 0.031165 0.044844
0.415371 0.031165 0.044844
0.451925 0.031165 0.044844
0.488765 0.031165 0.044844
0.525671 0.031165 0.044844
0.562424 0.031165 0.044844
0.598809 0.031165 0.044844
0.634618 0.031165 0.044844
0.669657 0.031165 0.044844
0.703749 0.031165 0.044844
0.736737 0.031165 0.044844
0.768488 0.031165 0.044844
0.798892 0.031165 0.044844
0.827863 0.031165 0.044844
0.855339 0.031165 0.044844
0.881283 0.031165 0.044844
0.905677 0.031165 0.044844
0.928524 0.031165 0.044844
0.949842 0.031165 0.044844
0.969667 0.031165 0.044844
0.988042 0.031165 0.044844
0.037915 0.050605 0.044844
0.058320 0.050605 0.044844
0.080233 0.050605 0.044844
0.103684 0.050605 0.044844
0.128685 0.050605 0.044844
0.155232 0.050605 0.044844
0.183299 0.050605 0.044844
0.212839 0.050605 0.044844
0.243781 0.050605 0.044844
0.276031 0.050605 0.044844
0.309468 0.050605 0.044844
0.343950 0.050605 0.044844
0.379313 0.050605 0.044844
0.415371 0.050605 0.044844
0.451925 0.050605 0.044844
0.488765 0.050605 0.044844
0.525671 0.050605 0.044844
0.562424 0.050605 0.044844
0.598809 0.050605 0.044844
0.634618 0.050605 0.044844
0.669657 0.050605 0.044844
0.703749 0.050605 0.044844
0.736737 0.050605 0.044844
0.768488 0.050605 0.044844
0.798892 0.050605 0.044844
0.827863 0.050605 0.044844
0.855339 0.050605 0.044844
0.881283 0.050605 0.044844
0.905677 0.050605 0.044844
0.928524 0.050605 0.044844
0.949842 0.050605 0.044844
0.969667 0.050605 0.044844
0.988042 0.050605 0.044844
0.037915 0.071476 0.044844
0.058320 0.071476 0.044844
0.080233 0.071476 0.044844
0.103684 0.071476 0.044844
0.128685 0.071476 0.044844
0.155232 0.071476 0.044844
0.183299 0.071476 0.044844
0.212839 0.071476 0.044844
0.243781 0.071476 0.044844
0.276031 0.071476 0.044844
0.309468 0.071476 0.044844
0.343950 0.071476 0.044844
0.379313 0.071476 0.044844
0.415371 0.071476 0.044844
0.451925 0.071476 0.044844
0.488765 0.071476 0.044844
0.525671 0.071476 0.044844
0.562424 0.071476 0.044844
0.598809 0.071476 0.044844
0.634618 0.071476 0.044844
0.669657 0.071476 0.044844
0.703749 0.071476 0.044844
0.736737 0.071476 0.044844
0.768488 0.071476 0.044844
0.798892 0.071476 0.044844
0.827863 0.071476 0.044844
0.855339 0.071476 0.044844
0.881283 0.071476 0.044844
0.905677 0.071476 0.044844
0.928524 0.071476 0.044844
0.949842 0.071476 0.044844
0.969667 0.071476 0.044844
0.988042 0.071476 0.044844
0.037915 0.093810 0.044844
0.058320 0.093810 0.044844
0.080233 0.093810 0.044844
0.103684 0.093810 0.044844
0.128685 0.093810 0.044844
0.155232 0.093810 0.044844
0.183299 0.093810 0.044844
0.212839 0.093810 0.044844
0.243781 0.093810 0.044844
0.276031 0.093810 0.044844
0.309468 0.093810 0.044844
0.343950 0.093810 0.044844
0.379313 0.093810 0.044844
0.415371 0.093810 0.044844
0.451925 0.093810 0.044844
0.488765 0.093810 0.044844
0.525671 0.093810 0.044844
0.562424 0.093810 0.044844
0.598809 0.093810 0.044844
0.634618 0.093810 0.044844
0.669657 0.093810 0.044844
0.703749 0.093810 0.044844
0.736737 0.093810 0.044844
0.768488 0.093810 0.044844
0.798892 0.093810 0.044844
0.827863 0.093810 0.044844
0.855339 0.093810 0.044844
0.881283 0.093810 0.044844
0.905677 0.093810 0.044844
0.928524 0.093810 0.044844
0.949842 0.093810 0.044844
0.969667 0.093810 0.044844
0.988042 0.093810 0.044844
0.037915 0.117624 0.044844
0.058320 0.117624 0.044844
0.080233 0.117624 0.044844
0.103684 0.117624 0.044844
0.128685 0.117624 0.044844
0.155232 0.117624 0.044844
0.183299 0.117624 0.044844
0.212839 0.117624 0.044844
0.243781 0.117624 0.044844
0.276031 0.117624 0.044844
0.309468 0.117624 0.044844
0.343950 0.117624 0.044844
0.379313 0.117624 0.044844
0.415371 0.117624 0.044844
0.451925 0.117624 0.044844
0.488765 0.117624 0.044844
0.525671 0.117624 0.044844
0.562424 0.117624 0.044844
0.598809 0.117624 0.044844
0.634618 0.117624 0.044844
0.669657 0.117624 0.044844
0.703749 0.117624 0.044844
0.736737 0.117624 0.044844
0.768488 0.117624 0.044844
0.798892 0.117624 0.044844
0.827863 0.117624 0.044844
0.855339 0.117624 0.044844
0.881283 0.117624 0.044844
0.905677 0.117624 0.044844
0.928524 0.117624 0.044844
0.949842 0.117624 0.044844
0.969667 0.117624 0.044844
0.988042 0.117624 0.044844
0.037915 0.142922 0.044844
0.058320 0.142922 0.044844
0.080233 0.142922 0.044844
0.103684 0.142922 0.044844
0.128685 0.142922 0.044844
0.155232 0.142922 0.044844
0.183299 0.142922 0.044844
0.212839 0.142922 0.044844
0.243781 0.142922 0.044844
0.276031 0.142922 0.044844
0.309468 0.142922 0.044844
0.343950 0.142922 0.044844
0.379313 0.142922 0.044844
0.415371 0.142922 0.044844
0.451925 0.142922 0.044844
0.488765 0.142922 0.044844
0.525671 0.142922 0.044844
0.562424 0.142922 0.044844
0.598809 0.142922 0.044844
0.634618 0.142922 0.044844
0.669657 0.142922 0.044844
0.703749 0.142922 0.044844
0.736737 0.142922 0.044844
0.768488 0.142922 0.044844
0.798892 0.142922 0.044844
0.827863 0.142922 0.044844
0.855339 0.142922 0.044844
0.881283 0.142922 0.044844
0.905677 0.142922 0.044844
0.928524 0.142922 0.044844
0.949842 0.142922 0.044844
0.969667 0.142922 0.044844
0.988042 0.142922 0.044844
0.037915 0.169688 0.044844
0.058320 0.169688 0.044844
0.080233 0.169688 0.044844
0.103684 0.169688 0.044844
0.128685 0.169688 0.044844
0.155232 0.169688 0.044844
0.183299 0.169688 0.044844
0.212839 0.169688 0.044844
0.243781 0.169688 0.044844
0.276031 0.169688 0.044844
0.309468 0.169688 0.044844
0.343950 0.169688 0.044844
0.379313 0.169688 0.044844
0.415371 0.169688 0.044844
0.451925 0.169688 0.044844
0.488765 0.169688 0.044844
0.525671 0.169688 0.044844
0.562424 0.169688 0.044844
0.598809 0.169688 0.044844
0.634618 0.169688 0.044844
0.669657 0.169688 0.044844
0.703749 0.169688 0.044844
0.736737 0.169688 0.044844
0.768488 0.169688 0.044844
0.798892 0.169688 0.044844
0.827863 0.169688 0.044844
0.855339 0.169688 0.044844
0.881283 0.169688 0.044844
0.905677 0.169688 0.044844
0.928524 0.169688 0.044844
0.949842 0.169688 0.044844
0.969667 0.169688 0.044844
0.988042 0.169688 0.044844
0.037915 0.197888 0.044844
0.058320 0.197888 0.044844
0.080233 0.197888 0.044844
0.103684 0.197888 0.044844
0.128685 0.197888 0.044844
0.155232 0.197888 0.044844
0.183299 0.197888 0.044844
0.212839 0.197888 0.044844
0.243781 0.197888 0.044844
0.276031 0.197888 0.044844
0.309468 0.197888 0.044844
0.343950 0.197888 0.044844
0.379313 0.197888 0.044844
0.415371 0.197888 0.044844
0.451925 0.197888 0.044844
0.488765 0.197888 0.044844
0.525671 0.197888 0.044844
0.562424 0.197888 0.044844
0.598809 0.197888 0.044844
0.634618 0.197888 0.044844
0.669657 0.197888 0.044844
0.703749 0.197888 0.044844
0.736737 0.197888 0.044844
0.768488 0.197888 0.044844
0.798892 0.197888 0.044844
0.827863 0.197888 0.044844
0.855339 0.197888 0.044844
0.881283 0.197888 0.044844
0.905677 0.197888 0.044844
0.928524 0.197888 0.044844
0.949842 0.197888 0.044844
0.969667 0.197888 0.044844
0.988042 0.197888 0.044844
0.037915 0.227467 0.044844
0.058320 0.227467 0.044844
0.080233 0.227467 0.044844
0.103684 0.227467 0.044844
0.128685 0.227467 0.044844
0.155232 0.227467 0.044844
0.183299 0.227467 0.044844
0.212839 0.227467 0.044844
0.243781 0.227467 0.044844
0.276031 0.227467 0.044844
0.309468 0.227467 0.044844
0.343950 0.227467 0.044844
0.379313 0.227467 0.044844
0.415371 0.227467 0.044844
0.451925 0.227467 0.044844
0.488765 0.227467 0.044844
0.525671 0.227467 0.044844
0.562424 0.227467 0.044844
0.598809 0.227467 0.044844
0.634618 0.227467 0.044844
0.669657 0.227467 0.044844
0.703749 0.227467 0.044844
0.736737 0.227467 0.044844
0.768488 0.227467 0.044844
0.798892 0.227467 0.044844
0.827863 0.227467 0.044844
0.855339 0.227467 0.044844
0.881283 0.227467 0.044844
0.905677 0.227467 0.044844
0.928524 0.227467 0.044844
0.949842 0.227467 0.044844
0.969667 0.227467 0.044844
0.988042 0.227467 0.044844
0.037915 0.258348 0.044844
0.058320 0.258348 0.044844
0.080233 0.258348 0.044844
0.103684 0.258348 0.044844
0.128685 0.258348 0.044844
0.155232 0.258348 0.044844
0.183299 0.258348 0.044844
0.212839 0.258348 0.044844
0.243781 0.258348 0.044844
0.276031 0.258348 0.044844
0.309468 0.258348 0.044844
0.343950 0.258348 0.044844
0.379313 0.258348 0.044844
0.415371 0.258348 0.044844
0.451925 0.258348 0.044844
0.488765 0.258348 0.044844
0.525671 0.258348 0.044844
0.562424 0.258348 0.044844
0.598809 0.258348 0.044844
0.634618 0.258348 0.044844
0.669657 0.258348 0.044844
0.703749 0.258348 0.044844
0.736737 0.258348 0.044844
0.768488 0.258348 0.044844
0.798892 0.258348 0.044844
0.827863 0.258348 0.044844
0.855339 0.258348 0.044844
0.881283 0.258348 0.044844
0.905677 0.258348 0.044844
0.928524 0.258348 0.044844
0.949842 0.258348 0.044844
0.969667 0.258348 0.044844
0.988042 0.258348 0.044844
0.037915 0.290430 0.044844
0.058320 0.290430 0.044844
0.080233 0.290430 0.044844
0.103684 0.290430 0.044844
0.128685 0.290430 0.044844
0.155232 0.290430 0.044844
0.183299 0.290430 0.044844
0.212839 0.290430 0.044844
0.243781 0.290430 0.044844
0.276031 0.290430 0.044844
0.309468 0.290430 0.044844
0.343950 0.290430 0.044844
0.379313 0.290430 0.044844
0.415371 0.290430 0.044844
0.451925 0.290430 0.044844
0.488765 0.290430 0.044844
0.525671 0.290430 0.044844
0.562424 0.290430 0.044844
0.598809 0.290430 0.044844
0.634618 0.290430 0.044844
0.669657 0.290430 0.044844
0.703749 0.290430 0.044844
0.736737 0.290430 0.044844
0.768488 0.290430 0.044844
0.798892 0.290430 0.044844
0.827863 0.290430 0.044844
0.855339 0.290430 0.044844
0.881283 0.290430 0.044844
0.905677 0.290430 0.044844
0.928524 0.290430 0.044844
0.949842 0.290430 0.044844
0.969667 0.290430 0.044844
0.988042 0.290430 0.044844
0.037915 0.323593 0.044844
0.058320 0.323593 0.044844
0.080233 0.323593 0.044844
0.103684 0.323593 0.044844
0.128685 0.323593 0.044844
0.155232 0.323593 0.044844
0.183299 0.323593 0.044844
0.212839 0.323593 0.044844
0.243781 0.323593 0.044844
0.276031 0.323593 0.044844
0.309468 0.323593 0.044844
0.343950 0.323593 0.044844
0.379313 0.323593 0.044844
0.415371 0.323593 0.044844
0.451925 0.323593 0.044844
0.488765 0.323593 0.044844
0.525671 0.323593 0.044844
0.562424 0.323593 0.044844
0.598809 0.323593 0.044844
0.634618 0.323593 0.044844
0.669657 0.323593 0.044844
0.703749 0.323593 0.044844
0.736737 0.323593 0.044844
0.768488 0.323593 0.044844
0.798892 0.323593 0.044844
0.827863 0.323593 0.044844
0.855339 0.323593 0.044844
0.881283 0.323593 0.044844
0.905677 0.323593 0.044844
0.928524 0.323593 0.044844
0.949842 0.323593 0.044844
0.969667 0.323593 0.044844
0.988042 0.323593 0.044844
0.037915 0.357693 0.044844
0.058320 0.357693 0.044844
0.080233 0.357693 0.044844
0.103684 0.357693 0.044844
0.128685 0.357693 0.044844
0.155232 0.357693 0.044844
0.183299 0.357693 0.044844
0.212839 0.357693 0.044844
0.243781 0.357693 0.044844
0.276031 0.357693 0.044844
0.309468 0.357693 0.044844
0.343950 0.357693 0.044844
0.379313 0.357693 0.044844
0.415371 0.357693 0.044844
0.451925 0.357693 0.044844
0.488765 0.357693 0.044844
0.525671 0.357693 0.044844
0.562424 0.357693 0.044844
0.598809 0.357693 0.044844
0.634618 0.357693 0.044844
0.669657 0.357693 0.044844
0.703749 0.357693 0.044844
0.736737 0.357693 0.044844
0.768488 0.357693 0.044844
0.798892 0.357693 0.044844
0.827863 0.357693 0.044844
0.855339 0.357693 0.044844
0.881283 0.357693 0.044844
0.905677 0.357693 0.044844
0.928524 0.357693 0.044844
0.949842 0.357693 0.044844
0.969667 0.357693 0.044844
0.988042 0.357693 0.044844
0.037915 0.392568 0.044844
0.058320 0.392568 0.044844
0.080233 0.392568 0.044844
0.103684 0.392568 0.044844
0.128685 0.392568 0.044844
0.155232 0.392568 0.044844
0.183299 0.392568 0.044844
0.212839 0.392568 0.044844
0.243781 0.392568 0.044844
0.276031 0.392568 0.044844
0.309468 0.392568 0.044844
0.343950 0.392568 0.044844
0.379313 0.392568 0.044844
0.415371 0.392568 0.044844
0.451925 0.392568 0.044844
0.488765 0.392568 0.044844
0.525671 0.392568 0.044844
0.562424 0.392568 0.044844
0.598809 0.392568 0.044844
0.634618 0.392568 0.044844
0.669657 0.392568 0.044844
0.703749 0.392568 0.044844
0.736737 0.392568 0.044844
0.768488 0.392568 0.044844
0.798892 0.392568 0.044844
0.827863 0.392568 0.044844
0.855339 0.392568 0.044844
0.881283 0.392568 0.044844
0.905677 0.392568 0.044844
0.928524 0.392568 0.044844
0.949842 0.392568 0.044844
0.969667 0.392568 0.044844
0.988042 0.392568 0.044844
0.037915 0.428040 0.044844
0.058320 0.428040 0.044844
0.080233 0.428040 0.044844
0.103684 0.428040 0.044844
0.128685 0.428040 0.044844
0.155232 0.428040 0.044844
0.183299 0.428040 0.044844
0.212839 0.428040 0.044844
0.243781 0.428040 0.044844
0.276031 0.428040 0.044844
0.309468 0.428040 0.044844
0.343950 0.428040 0.044844
0.379313 0.428040 0.044844
0.415371 0.428040 0.044844
0.451925 0.428040 0.044844
0.488765 0.428040 0.044844
0.525671 0.428040 0.044844
0.562424 0.428040 0.044844
0.598809 0.428040 0.044844
0.634618 0.428040 0.044844
0.669657 0.428040 0.044844
0.703749 0.428040 0.044844
0.736737 0.428040 0.044844
0.768488 0.428040 0.044844
0.798892 0.428040 0.044844
0.827863 0.428040 0.044844
0.855339 0.428040 0.044844
0.881283 0.428040 0.044844
0.905677 0.428040 0.044844
0.928524 0.428040 0.044844
0.949842 0.428040 0.044844
0.969667 0.428040 0.044844
0.988042 0.428040 0.044844
0.037915 0.463917 0.044844
0.058320 0.463917 0.044844
0.080233 0.463917 0.044844
0.103684 0.463917 0.044844
0.128685 0.463917 0.044844
0.155232 0.463917 0.044844
0.183299 0.463917 0.044844
0.212839 0.463917 0.044844
0.243781 0.463917 0.044844
0.276031 0.463917 0.044844
0.309468 0.463917 0.044844
0.343950 0.463917 0.044844
0.379313 0.463917 0.044844
0.415371 0.463917 0.044844
0.451925 0.463917 0.044844
0.488765 0.463917 0.044844
0.525671 0.463917 0.044844
0.562424 0.463917 0.044844
0.598809 0.463917 0.044844
0.634618 0.463917 0.044844
0.669657 0.463917 0.044844
0.703749 0.463917 0.044844
0.736737 0.463917 0.044844
0.768488 0.463917 0.044844
0.798892 0.463917 0.044844
0.827863 0.463917 0.044844
0.855339 0.463917 0.044844
0.881283 0.463917 0.044844
0.905677 0.463917 0.044844
0.928524 0.463917 0.044844
0.949842 0.463917 0.044844
0.969667 0.463917 0.044844
0.988042 0.463917 0.044844
0.037915 0.500000 0.044844
0.058320 0.500000 0.044844
0.080233 0.500000 0.044844
0.103684 0.500000 0.044844
0.128685 0.500000 0.044844
0.155232 0.500000 0.044844
0.183299 0.500000 0.044844
0.212839 0.500000 0.044844
0.243781 0.500000 0.044844
0.276031 0.500000 0.044844
0.309468 0.500000 0.044844
0.343950 0.500000 0.044844
0.379313 0.500000 0.044844
0.415371 0.500000 0.044844
0.451925 0.500000 0.044844
0.488765 0.500000 0.044844
0.525671 0.500000 0.044844
0.562424 0.500000 0.044844
0.598809 0.500000 0.044844
0.634618 0.500000 0.044844
0.669657 0.500000 0.044844
0.703749 0.500000 0.044844
0.736737 0.500000 0.044844
0.768488 0.500000 0.044844
0.798892 0.500000 0.044844
0.827863 0.500000 0.044844
0.855339 0.500000 0.044844
0.881283 0.500000 0.044844
0.905677 0.500000 0.044844
0.928524 0.500000 0.044844
0.949842 0.500000 0.044844
0.969667 0.500000 0.044844
0.988042 0.500000 0.044844
0.037915 0.536083 0.044844
0.058320 0.536083 0.044844
0.080233 0.536083 0.044844
0.103684 0.536083 0.044844
0.128685 0.536083 0.044844
0.155232 0.536083 0.044844
0.183299 0.536083 0.044844
0.212839 0.536083 0.044844
0.243781 0.536083 0.044844
0.276031 0.536083 0.044844
0.309468 0.536083 0.044844
0.343950 0.536083 0.044844
0.379313 0.536083 0.044844
0.415371 0.536083 0.044844
0.451925 0.536083 0.044844
0.488765 0.536083 0.044844
0.525671 0.536083 0.044844
0.562424 0.536083 0.044844
0.598809 0.536083 0.044844
0.634618 0.536083 0.044844
0.669657 0.536083 0.044844
0.703749 0.536083 0.044844
0.736737 0.536083 0.044844
0.768488 0.536083 0.044844
0.798892 0.536083 0.044844
0.827863 0.536083 0.044844
0.855339 0.536083 0.044844
0.881283 0.536083 0.044844
0.905677 0.536083 0.044844
0.928524 0.536083 0.044844
0.949842 0.536083 0.044844
0.969667 0.536083 0.044844
0.988042 0.536083 0.044844
0.037915 0.571960 0.044844
0.058320 0.571960 0.044844
0.080233 0.571960 0.044844
0.103684 0.571960 0.044844
0.128685 0.571960 0.044844
0.155232 0.571960 0.044844
0.183299 0.571960 0.044844
0.212839 0.571960 0.044844
0.243781 0.571960 0.044844
0.276031 0.571960 0.044844
0.309468 0.571960 0.044844
0.343950 0.571960 0.044844
0.379313 0.571960 0.044844
0.415371 0.571960 0.044844
0.451925 0.571960 0.044844
0.488765 0.571960 0.044844
0.525671 0.571960 0.044844
0.562424 0.571960 0.044844
0.598809 0.571960 0.044844
0.634618 0.571960 0.044844
0.669657 0.571960 0.044844
0.703749 0.571960 0.044844
0.736737 0.571960 0.044844
0.768488 0.571960 0.044844
0.798892 0.571960 0.044844
0.827863 0.571960 0.044844
0.855339 0.571960 0.044844
0.881283 0.571960 0.044844
0.905677 0.571960 0.044844
0.928524 0.571960 0.044844
0.949842 0.571960 0.044844
0.969667 0.571960 0.044844
0.988042 0.571960 0.044844
0.037915 0.607432 0.044844
0.058320 0.607432 0.044844
0.080233 0.607432 0.044844
0.103684 0.607432 0.044844
0.128685 0.607432 0.044844
0.155232 0.607432 0.044844
0.183299 0.607432 0.044844
0.212839 0.607432 0.044844
0.243781 0.607432 0.044844
0.276031 0.607432 0.044844
0.309468 0.607432 0.044844
0.343950 0.607432 0.044844
0.379313 0.607432 0.044844
0.415371 0.607432 0.044844
0.451925 0.607432 0.044844
0.488765 0.607432 0.044844
0.525671 0.607432 0.044844
0.562424 0.607432 0.044844
0.598809 0.607432 0.044844
0.634618 0.607432 0.044844
0.669657 0.607432 0.044844
0.703749 0.607432 0.044844
0.736737 0.607432 0.044844
0.768488 0.607432 0.044844
0.798892 0.607432 0.044844
0.827863 0.607432 0.044844
0.855339 0.607432 0.044844
0.881283 0.607432 0.044844
0.905677 0.607432 0.044844
0.928524 0.607432 0.044844
0.949842 0.607432 0.044844
0.969667 0.607432 0.044844
0.988042 0.607432 0.044844
0.037915 0.642307 0.044844
0.058320 0.642307 0.044844
0.080233 0.642307 0.044844
0.103684 0.642307 0.044844
0.128685 0.642307 0.044844
0.155232 0.642307 0.044844
0.183299 0.642307 0.044844
0.212839 0.642307 0.044844
0.243781 0.642307 0.044844
0.276031 0.642307 0.044844
0.309468 0.642307 0.044844
0.343950 0.642307 0.044844
0.379313 0.642307 0.044844
0.415371 0.642307 0.044844
0.451925 0.642307 0.044844
0.488765 0.642307 0.044844
0.525671 0.642307 0.044844
0.562424 0.642307 0.044844
0.598809 0.642307 0.044844
0.634618 0.642307 0.044844
0.669657 0.642307 0.044844
0.703749 0.642307 0.044844
0.736737 0.642307 0.044844
0.768488 0.642307 0.044844
0.798892 0.642307 0.044844
0.827863 0.642307 0.044844
0.855339 0.642307 0.044844
0.881283 0.642307 0.044844
0.905677 0.642307 0.044844
0.928524 0.642307 0.044844
0.949842 0.642307 0.044844
0.969667 0.642307 0.044844
0.988042 0.642307 0.044844
0.037915 0.676407 0.044844
0.058320 0.676407 0.044844
0.080233 0.676407 0.044844
0.103684 0.676407 0.044844
0.128685 0.676407 0.044844
0.155232 0.676407 0.044844
0.183299 0.676407 0.044844
0.212839 0.676407 0.044844
0.243781 0.676407 0.044844
0.276031 0.676407 0.044844
0.309468 0.676407 0.044844
0.343950 0.676407 0.044844
0.379313 0.676407 0.044844
0.415371 0.676407 0.044844
0.451925 0.676407 0.044844
0.488765 0.676407 0.044844
0.525671 0.676407 0.044844
0.562424 0.676407 0.044844
0.598809 0.676407 0.044844
0.634618 0.676407 0.044844
0.669657 0.676407 0.044844
0.703749 0.676407 0.044844
0.736737 0.676407 0.044844
0.768488 0.676407 0.044844
0.798892 0.676407 0.044844
0.827863 0.676407 0.044844
0.855339 0.676407 0.044844
0.881283 0.676407 0.044844
0.905677 0.676407 0.044844
0.928524 0.676407 0.044844
0.949842 0.676407 0.044844
0.969667 0.676407 0.044844
0.988042 0.676407 0.044844
0.037915 0.709570 0.044844
0.058320 0.709570 0.044844
0.080233 0.709570 0.044844
0.103684 0.709570 0.044844
0.128685 0.709570 0.044844
0.155232 0.709570 0.044844
0.183299 0.709570 0.044844
0.212839 0.709570 0.044844
0.243781 0.709570 0.044844
0.276031 0.709570 0.044844
0.309468 0.709570 0.044844
0.343950 0.709570 0.044844
0.379313 0.709570 0.044844
0.415371 0.709570 0.044844
0.451925 0.709570 0.044844
0.488765 0.709570 0.044844
0.525671 0.709570 0.044844
0.562424 0.709570 0.044844
0.598809 0.709570 0.044844
0.634618 0.709570 0.044844
0.669657 0.709570 0.044844
0.703749 0.709570 0.044844
0.736737 0.709570 0.044844
0.768488 0.709570 0.044844
0.798892 0.709570 0.044844
0.827863 0.709570 0.044844
0.855339 0.709570 0.044844
0.881283 0.709570 0.044844
0.905677 0.709570 0.044844
0.928524 0.709570 0.044844
0.949842 0.709570 0.044844
0.969667 0.709570 0.044844
0.988042 0.709570 0.044844
0.037915 0.741652 0.044844
0.058320 0.741652 0.044844
0.080233 0.741652 0.044844
0.103684 0.741652 0.044844
0.128685 0.741652 0.044844
0.155232 0.741652 0.044844
0.183299 0.741652 0.044844
0.212839 0.741652 0.044844
0.243781 0.741652 0.044844
0.276031 0.741652 0.044844
0.309468 0.741652 0.044844
0.343950 0.741652 0.044844
0.379313 0.741652 0.044844
0.415371 0.741652 0.044844
0.451925 0.741652 0.044844
0.488765 0.741652 0.044844
0.525671 0.741652 0.044844
0.562424 0.741652 0.044844
0.598809 0.741652 0.044844
0.634618 0.741652 0.044844
0.669657 0.741652 0.044844
0.703749 0.741652 0.044844
0.736737 0.741652 0.044844
0.768488 0.741652 0.044844
0.798892 0.741652 0.044844
0.827863 0.741652 0.044844
0.855339 0.741652 0.044844
0.881283 0.741652 0.044844
0.905677 0.741652 0.044844
0.928524 0.741652 0.044844
0.949842 0.741652 0.044844
0.969667 0.741652 0.044844
0.988042 0.741652 0.044844
0.037915 0.772533 0.044844
0.058320 0.772533 0.044844
0.080233 0.772533 0.044844
0.103684 0.772533 0.044844
0.128685 0.772533 0.044844
0.155232 0.772533 0.044844
0.183299 0.772533 0.044844
0.212839 0.772533 0.044844
0.243781 0.772533 0.044844
0.276031 0.772533 0.044844
0.309468 0.772533 0.044844
0.343950 0.772533 0.044844
0.379313 0.772533 0.044844
0.415371 0.772533 0.044844
0.451925 0.772533 0.044844
0.488765 0.772533 0.044844
0.525671 0.772533 0.044844
0.562424 0.772533 0.044844
0.598809 0.772533 0.044844
0.634618 0.772533 0.044844
0.669657 0.772533 0.044844
0.703749 0.772533 0.044844
0.736737 0.772533 0.044844
0.768488 0.772533 0.044844
0.798892 0.772533 0.044844
0.827863 0.772533 0.044844
0.855339 0.772533 0.044844
0.881283 0.772533 0.044844
0.905677 0.772533 0.044844
0.928524 0.772533 0.044844
0.949842 0.772533 0.044844
0.969667 0.772533 0.044844
0.988042 0.772533 0.044844
0.037915 0.802112 0.044844
0.058320 0.802112 0.044844
0.080233 0.802112 0.044844
0.103684 0.802112 0.044844
0.128685 0.802112 0.044844
0.155232 0.802112 0.044844
0.183299 0.802112 0.044844
0.212839 0.802112 0.044844
0.243781 0.802112 0.044844
0.276031 0.802112 0.044844
0.309468 0.802112 0.044844
0.343950 0.802112 0.044844
0.379313 0.802112 0.044844
0.415371 0.802112 0.044844
0.451925 0.802112 0.044844
0.488765 0.802112 0.044844
0.525671 0.802112 0.044844
0.562424 0.802112 0.044844
0.598809 0.802112 0.044844
0.634618 0.802112 0.044844
0.669657 0.802112 0.044844
0.703749 0.802112 0.044844
0.736737 0.802112 0.044844
0.768488 0.802112 0.044844
0.798892 0.802112 0.044844
0.827863 0.802112 0.044844
0.855339 0.802112 0.044844
0.881283 0.802112 0.044844
0.905677 0.802112 0.044844
0.928524 0.802112 0.044844
0.949842 0.802112 0.044844
0.969667 0.802112 0.044844
0.988042 0.802112 0.044844
0.037915 0.830312 0.044844
0.058320 0.830312 0.044844
0.080233 0.830312 0.044844
0.103684 0.830312 0.044844
0.128685 0.830312 0.044844
0.155232 0.830312 0.044844
0.183299 0.830312 0.044844
0.212839 0.830312 0.044844
0.243781 0.830312 0.044844
0.276031 0.830312 0.044844
0.309468 0.830312 0.044844
0.343950 0.830312 0.044844
0.379313 0.830312 0.044844
0.415371 0.830312 0.044844
0.451925 0.830312 0.044844
0.488765 0.830312 0.044844
0.525671 0.830312 0.044844
0.562424 0.830312 0.044844
0.598809 0.830312 0.044844
0.634618 0.830312 0.044844
0.669657 0.830312 0.044844
0.703749 0.830312 0.044844
0.736737 0.830312 0.044844
0.768488 0.830312 0.044844
0.798892 0.830312 0.044844
0.827863 0.830312 0.044844
