resources/luts/retro-90s.cube
# KomfyEdit 3D LUT: retro-90s
TITLE "retro-90s"
LUT_3D_SIZE 5
DOMAIN_MIN 0.0 0.0 0.0
DOMAIN_MAX 1.0 1.0 1.0
0.037915 0.031165 0.044844
0.243781 0.031165 0.044844
0.525671 0.031165 0.044844
0.798892 0.031165 0.044844
0.988042 0.031165 0.044844
0.037915 0.227467 0.044844
0.243781 0.227467 0.044844
0.525671 0.227467 0.044844
0.798892 0.227467 0.044844
0.988042 0.227467 0.044844
0.037915 0.500000 0.044844
0.243781 0.500000 0.044844
0.525671 0.500000 0.044844
0.798892 0.500000 0.044844
0.988042 0.500000 0.044844
0.037915 0.772533 0.044844
0.243781 0.772533 0.044844
0.525671 0.772533 0.044844
0.798892 0.772533 0.044844
0.988042 0.772533 0.044844
0.037915 0.968835 0.044844
0.243781 0.968835 0.044844
0.525671 0.968835 0.044844
0.798892 0.968835 0.044844
0.988042 0.968835 0.044844
0.037915 0.031165 0.243781
0.243781 0.031165 0.243781
0.525671 0.031165 0.243781
0.798892 0.031165 0.243781
0.988042 0.031165 0.243781
0.037915 0.227467 0.243781
0.243781 0.227467 0.243781
0.525671 0.227467 0.243781
0.798892 0.227467 0.243781
0.988042 0.227467 0.243781
0.037915 0.500000 0.243781
0.243781 0.500000 0.243781
0.525671 0.500000 0.243781
0.798892 0.500000 0.243781
0.988042 0.500000 0.243781
0.037915 0.772533 0.243781
0.243781 0.772533 0.243781
0.525671 0.772533 0.243781
0.798892 0.772533 0.243781
0.988042 0.772533 0.243781
0.037915 0.968835 0.243781
0.243781 0.968835 0.243781
0.525671 0.968835 0.243781
0.798892 0.968835 0.243781
0.988042 0.968835 0.243781
0.037915 0.031165 0.512840
0.243781 0.031165 0.512840
0.525671 0.031165 0.512840
0.798892 0.031165 0.512840
0.988042 0.031165 0.512840
0.037915 0.227467 0.512840
0.243781 0.227467 0.512840
0.525671 0.227467 0.512840
0.798892 0.227467 0.512840
0.988042 0.227467 0.512840
0.037915 0.500000 0.512840
0.243781 0.500000 0.512840
0.525671 0.500000 0.512840
0.798892 0.500000 0.512840
0.988042 0.500000 0.512840
0.037915 0.772533 0.512840
0.243781 0.772533 0.512840
0.525671 0.772533 0.512840
0.798892 0.772533 0.512840
0.988042 0.772533 0.512840
0.037915 0.968835 0.512840
0.243781 0.968835 0.512840
0.525671 0.968835 0.512840
0.798892 0.968835 0.512840
0.988042 0.968835 0.512840
0.037915 0.031165 0.777889
0.243781 0.031165 0.777889
0.525671 0.031165 0.777889
0.798892 0.031165 0.777889
0.988042 0.031165 0.777889
0.037915 0.227467 0.777889
0.243781 0.227467 0.777889
0.525671 0.227467 0.777889
0.798892 0.227467 0.777889
0.988042 0.227467 0.777889
0.037915 0.500000 0.777889
0.243781 0.500000 0.777889
0.525671 0.500000 0.777889
0.798892 0.500000 0.777889
0.988042 0.500000 0.777889
0.037915 0.772533 0.777889
0.243781 0.772533 0.777889
0.525671 0.772533 0.777889
0.798892 0.772533 0.777889
0.988042 0.772533 0.777889
0.037915 0.968835 0.777889
0.243781 0.968835 0.777889
0.525671 0.968835 0.777889
0.798892 0.968835 0.777889
0.988042 0.968835 0.777889
0.037915 0.031165 0.968835
0.243781 0.031165 0.968835
0.525671 0.031165 0.968835
0.798892 0.031165 0.968835
0.988042 0.031165 0.968835
0.037915 0.227467 0.968835
0.243781 0.227467 0.968835
0.525671 0.227467 0.968835
0.798892 0.227467 0.968835
0.988042 0.227467 0.968835
0.037915 0.500000 0.968835
0.243781 0.500000 0.968835
0.525671 0.500000 0.968835
0.798892 0.500000 0.968835
0.988042 0.500000 0.968835
0.037915 0.772533 0.968835
0.243781 0.772533 0.968835
0.525671 0.772533 0.968835
0.798892 0.772533 0.968835
0.988042 0.772533 0.968835
0.037915 0.968835 0.968835
0.243781 0.968835 0.968835
0.525671 0.968835 0.968835
0.798892 0.968835 0.968835
0.988042 0.968835 0.968835
