resources/luts/warm-sunset.cube
# KomfyEdit 3D LUT: warm-sunset
TITLE "warm-sunset"
LUT_3D_SIZE 33
DOMAIN_MIN 0.0 0.0 0.0
DOMAIN_MAX 1.0 1.0 1.0
0.000000 0.000000 0.080000
0.063067 0.000000 0.079253
0.113679 0.000000 0.078505
0.160456 0.000000 0.077758
0.204906 0.000000 0.077010
0.247701 0.000000 0.076263
0.289223 0.000000 0.075515
0.329714 0.000000 0.074768
0.369343 0.000000 0.074020
0.408235 0.000000 0.073273
0.446482 0.000000 0.072525
0.484158 0.000000 0.071778
0.521324 0.000000 0.071030
0.558028 0.000000 0.070283
0.594309 0.000000 0.069535
0.630204 0.000000 0.068788
0.665742 0.000000 0.068040
0.700947 0.000000 0.067293
0.735843 0.000000 0.066545
0.770450 0.000000 0.065797
0.804784 0.000000 0.065050
0.838861 0.000000 0.064303
0.872696 0.000000 0.063555
0.906301 0.000000 0.062808
0.939687 0.000000 0.062060
0.972865 0.000000 0.061313
1.000000 0.000000 0.060565
1.000000 0.000000 0.059818
1.000000 0.000000 0.059070
1.000000 0.000000 0.058322
1.000000 0.000000 0.057575
1.000000 0.000000 0.056828
1.000000 0.000000 0.056080
0.000000 0.029687 0.078533
0.063067 0.029687 0.077785
0.113679 0.029687 0.077038
0.160456 0.029687 0.076290
0.204906 0.029687 0.075543
0.247701 0.029687 0.074795
0.289223 0.029687 0.074048
0.329714 0.029687 0.073300
0.369343 0.029687 0.072553
0.408235 0.029687 0.071805
0.446482 0.029687 0.071058
0.484158 0.029687 0.070310
0.521324 0.029687 0.069563
0.558028 0.029687 0.068815
0.594309 0.029687 0.068068
0.630204 0.029687 0.067320
0.665742 0.029687 0.066573
0.700947 0.029687 0.065825
0.735843 0.029687 0.065077
0.770450 0.029687 0.064330
0.804784 0.029687 0.063583
0.838861 0.029687 0.062835
0.872696 0.029687 0.062088
0.906301 0.029687 0.061340
0.939687 0.029687 0.060593
0.972865 0.029687 0.059845
1.000000 0.029687 0.059098
1.000000 0.029687 0.058350
1.000000 0.029687 0.057603
1.000000 0.029687 0.056855
1.000000 0.029687 0.056108
1.000000 0.029687 0.055360
1.000000 0.029687 0.054613
0.000000 0.059375 0.077065
0.063067 0.059375 0.076318
0.113679 0.059375 0.075570
0.160456 0.059375 0.074823
0.204906 0.059375 0.074075
0.247701 0.059375 0.073328
0.289223 0.059375 0.072580
0.329714 0.059375 0.071833
0.369343 0.059375 0.071085
0.408235 0.059375 0.070338
0.446482 0.059375 0.069590
0.484158 0.059375 0.068843
0.521324 0.059375 0.068095
0.558028 0.059375 0.067348
0.594309 0.059375 0.066600
0.630204 0.059375 0.065853
0.665742 0.059375 0.065105
0.700947 0.059375 0.064358
0.735843 0.059375 0.063610
0.770450 0.059375 0.062863
0.804784 0.059375 0.062115
0.838861 0.059375 0.061368
0.872696 0.059375 0.060620
0.906301 0.059375 0.059872
0.939687 0.059375 0.059125
0.972865 0.059375 0.058378
1.000000 0.059375 0.057630
1.000000 0.059375 0.056883
1.000000 0.059375 0.056135
1.000000 0.059375 0.055388
1.000000 0.059375 0.054640
1.000000 0.059375 0.053893
1.000000 0.059375 0.053145
0.000000 0.089062 0.075598
0.063067 0.089062 0.074850
0.113679 0.089062 0.074103
0.160456 0.089062 0.073355
0.204906 0.089062 0.072608
0.247701 0.089062 0.071860
0.289223 0.089062 0.071113
0.329714 0.089062 0.070365
0.369343 0.089062 0.069618
0.408235 0.089062 0.068870
0.446482 0.089062 0.068123
0.484158 0.089062 0.067375
0.521324 0.089062 0.066628
0.558028 0.089062 0.065880
0.594309 0.089062 0.065133
0.630204 0.089062 0.064385
0.665742 0.089062 0.063637
0.700947 0.089062 0.062890
0.735843 0.089062 0.062143
0.770450 0.089062 0.061395
0.804784 0.089062 0.060648
0.838861 0.089062 0.059900
0.872696 0.089062 0.059153
0.906301 0.089062 0.058405
0.939687 0.089062 0.057658
0.972865 0.089062 0.056910
1.000000 0.089062 0.056163
1.000000 0.089062 0.055415
1.000000 0.089062 0.054668
1.000000 0.089062 0.053920
1.000000 0.089062 0.053173
1.000000 0.089062 0.052425
1.000000 0.089062 0.051678
0.000000 0.118750 0.074130
0.063067 0.118750 0.073383
0.113679 0.118750 0.072635
0.160456 0.118750 0.071888
0.204906 0.118750 0.071140
0.247701 0.118750 0.070393
0.289223 0.118750 0.069645
0.329714 0.118750 0.068898
0.369343 0.118750 0.068150
0.408235 0.118750 0.067403
0.446482 0.118750 0.066655
0.484158 0.118750 0.065908
0.521324 0.118750 0.065160
0.558028 0.118750 0.064413
0.594309 0.118750 0.063665
0.630204 0.118750 0.062918
0.665742 0.118750 0.062170
0.700947 0.118750 0.061423
0.735843 0.118750 0.060675
0.770450 0.118750 0.059928
0.804784 0.118750 0.059180
0.838861 0.118750 0.058433
0.872696 0.118750 0.057685
0.906301 0.118750 0.056938
0.939687 0.118750 0.056190
0.972865 0.118750 0.055443
1.000000 0.118750 0.054695
1.000000 0.118750 0.053948
1.000000 0.118750 0.053200
1.000000 0.118750 0.052453
1.000000 0.118750 0.051705
1.000000 0.118750 0.050958
1.000000 0.118750 0.050210
0.000000 0.148438 0.072663
0.063067 0.148438 0.071915
0.113679 0.148438 0.071168
0.160456 0.148438 0.070420
0.204906 0.148438 0.069673
0.247701 0.148438 0.068925
0.289223 0.148438 0.068178
0.329714 0.148438 0.067430
0.369343 0.148438 0.066683
0.408235 0.148438 0.065935
0.446482 0.148438 0.065188
0.484158 0.148438 0.064440
0.521324 0.148438 0.063693
0.558028 0.148438 0.062945
0.594309 0.148438 0.062198
0.630204 0.148438 0.061450
0.665742 0.148438 0.060703
0.700947 0.148438 0.059955
0.735843 0.148438 0.059208
0.770450 0.148438 0.058460
0.804784 0.148438 0.057712
0.838861 0.148438 0.056965
0.872696 0.148438 0.056218
0.906301 0.148438 0.055470
0.939687 0.148438 0.054723
0.972865 0.148438 0.053975
1.000000 0.148438 0.053228
1.000000 0.148438 0.052480
1.000000 0.148438 0.051733
1.000000 0.148438 0.050985
1.000000 0.148438 0.050238
1.000000 0.148438 0.049490
1.000000 0.148438 0.048743
0.000000 0.178125 0.071195
0.063067 0.178125 0.070448
0.113679 0.178125 0.069700
0.160456 0.178125 0.068953
0.204906 0.178125 0.068205
0.247701 0.178125 0.067458
0.289223 0.178125 0.066710
0.329714 0.178125 0.065963
0.369343 0.178125 0.065215
0.408235 0.178125 0.064467
0.446482 0.178125 0.063720
0.484158 0.178125 0.062973
0.521324 0.178125 0.062225
0.558028 0.178125 0.061478
0.594309 0.178125 0.060730
0.630204 0.178125 0.059983
0.665742 0.178125 0.059235
0.700947 0.178125 0.058488
0.735843 0.178125 0.057740
0.770450 0.178125 0.056993
0.804784 0.178125 0.056245
0.838861 0.178125 0.055498
0.872696 0.178125 0.054750
0.906301 0.178125 0.054003
0.939687 0.178125 0.053255
0.972865 0.178125 0.052508
1.000000 0.178125 0.051760
1.000000 0.178125 0.051013
1.000000 0.178125 0.050265
1.000000 0.178125 0.049518
1.000000 0.178125 0.048770
1.000000 0.178125 0.048023
1.000000 0.178125 0.047275
0.000000 0.207812 0.069727
0.063067 0.207812 0.068980
0.113679 0.207812 0.068233
0.160456 0.207812 0.067485
0.204906 0.207812 0.066738
0.247701 0.207812 0.065990
0.289223 0.207812 0.065243
0.329714 0.207812 0.064495
0.369343 0.207812 0.063748
0.408235 0.207812 0.063000
0.446482 0.207812 0.062253
0.484158 0.207812 0.061505
0.521324 0.207812 0.060758
0.558028 0.207812 0.060010
0.594309 0.207812 0.059262
0.630204 0.207812 0.058515
0.665742 0.207812 0.057768
0.700947 0.207812 0.057020
0.735843 0.207812 0.056273
0.770450 0.207812 0.055525
0.804784 0.207812 0.054778
0.838861 0.207812 0.054030
0.872696 0.207812 0.053283
0.906301 0.207812 0.052535
0.939687 0.207812 0.051788
0.972865 0.207812 0.051040
1.000000 0.207812 0.050293
1.000000 0.207812 0.049545
1.000000 0.207812 0.048798
1.000000 0.207812 0.048050
1.000000 0.207812 0.047303
1.000000 0.207812 0.046555
1.000000 0.207812 0.045808
0.000000 0.237500 0.068260
0.063067 0.237500 0.067513
0.113679 0.237500 0.066765
0.160456 0.237500 0.066018
0.204906 0.237500 0.065270
0.247701 0.237500 0.064523
0.289223 0.237500 0.063775
0.329714 0.237500 0.063028
0.369343 0.237500 0.062280
0.408235 0.237500 0.061533
0.446482 0.237500 0.060785
0.484158 0.237500 0.060038
0.521324 0.237500 0.059290
0.558028 0.237500 0.058543
0.594309 0.237500 0.057795
0.630204 0.237500 0.057048
0.665742 0.237500 0.056300
0.700947 0.237500 0.055553
0.735843 0.237500 0.054805
0.770450 0.237500 0.054058
0.804784 0.237500 0.053310
0.838861 0.237500 0.052563
0.872696 0.237500 0.051815
0.906301 0.237500 0.051068
0.939687 0.237500 0.050320
0.972865 0.237500 0.049573
1.000000 0.237500 0.048825
1.000000 0.237500 0.048078
1.000000 0.237500 0.047330
1.000000 0.237500 0.046583
1.000000 0.237500 0.045835
1.000000 0.237500 0.045088
1.000000 0.237500 0.044340
0.000000 0.267187 0.066793
0.063067 0.267187 0.066045
0.113679 0.267187 0.065298
0.160456 0.267187 0.064550
0.204906 0.267187 0.063803
0.247701 0.267187 0.063055
0.289223 0.267187 0.062308
0.329714 0.267187 0.061560
0.369343 0.267187 0.060813
0.408235 0.267187 0.060065
0.446482 0.267187 0.059318
0.484158 0.267187 0.058570
0.521324 0.267187 0.057823
0.558028 0.267187 0.057075
0.594309 0.267187 0.056328
0.630204 0.267187 0.055580
0.665742 0.267187 0.054833
0.700947 0.267187 0.054085
0.735843 0.267187 0.053338
0.770450 0.267187 0.052590
0.804784 0.267187 0.051843
0.838861 0.267187 0.051095
0.872696 0.267187 0.050348
0.906301 0.267187 0.049600
0.939687 0.267187 0.048853
0.972865 0.267187 0.048105
1.000000 0.267187 0.047358
1.000000 0.267187 0.046610
1.000000 0.267187 0.045863
1.000000 0.267187 0.045115
1.000000 0.267187 0.044368
1.000000 0.267187 0.043620
1.000000 0.267187 0.042873
0.000000 0.296875 0.065325
0.063067 0.296875 0.064577
0.113679 0.296875 0.063830
0.160456 0.296875 0.063083
0.204906 0.296875 0.062335
0.247701 0.296875 0.061588
0.289223 0.296875 0.060840
0.329714 0.296875 0.060093
0.369343 0.296875 0.059345
0.408235 0.296875 0.058598
0.446482 0.296875 0.057850
0.484158 0.296875 0.057103
0.521324 0.296875 0.056355
0.558028 0.296875 0.055608
0.594309 0.296875 0.054860
0.630204 0.296875 0.054113
0.665742 0.296875 0.053365
0.700947 0.296875 0.052618
0.735843 0.296875 0.051870
0.770450 0.296875 0.051123
0.804784 0.296875 0.050375
0.838861 0.296875 0.049628
0.872696 0.296875 0.048880
0.906301 0.296875 0.048133
0.939687 0.296875 0.047385
0.972865 0.296875 0.046638
1.000000 0.296875 0.045890
1.000000 0.296875 0.045143
1.000000 0.296875 0.044395
1.000000 0.296875 0.043648
1.000000 0.296875 0.042900
1.000000 0.296875 0.042153
1.000000 0.296875 0.041405
0.000000 0.326562 0.063857
0.063067 0.326562 0.063110
0.113679 0.326562 0.062363
0.160456 0.326562 0.061615
0.204906 0.326562 0.060868
0.247701 0.326562 0.060120
0.289223 0.326562 0.059373
0.329714 0.326562 0.058625
0.369343 0.326562 0.057878
0.408235 0.326562 0.057130
0.446482 0.326562 0.056383
0.484158 0.326562 0.055635
0.521324 0.326562 0.054888
0.558028 0.326562 0.054140
0.594309 0.326562 0.053393
0.630204 0.326562 0.052645
0.665742 0.326562 0.051898
0.700947 0.326562 0.051150
0.735843 0.326562 0.050403
0.770450 0.326562 0.049655
0.804784 0.326562 0.048908
0.838861 0.326562 0.048160
0.872696 0.326562 0.047413
0.906301 0.326562 0.046665
0.939687 0.326562 0.045918
0.972865 0.326562 0.045170
1.000000 0.326562 0.044423
1.000000 0.326562 0.043675
1.000000 0.326562 0.042928
1.000000 0.326562 0.042180
1.000000 0.326562 0.041433
1.000000 0.326562 0.040685
1.000000 0.326562 0.039938
0.000000 0.356250 0.062390
0.063067 0.356250 0.061643
0.113679 0.356250 0.060895
0.160456 0.356250 0.060148
0.204906 0.356250 0.059400
0.247701 0.356250 0.058652
0.289223 0.356250 0.057905
0.329714 0.356250 0.057158
0.369343 0.356250 0.056410
0.408235 0.356250 0.055663
0.446482 0.356250 0.054915
0.484158 0.356250 0.054168
0.521324 0.356250 0.053420
0.558028 0.356250 0.052673
0.594309 0.356250 0.051925
0.630204 0.356250 0.051178
0.665742 0.356250 0.050430
0.700947 0.356250 0.049683
0.735843 0.356250 0.048935
0.770450 0.356250 0.048188
0.804784 0.356250 0.047440
0.838861 0.356250 0.046693
0.872696 0.356250 0.045945
0.906301 0.356250 0.045198
0.939687 0.356250 0.044450
0.972865 0.356250 0.043703
1.000000 0.356250 0.042955
1.000000 0.356250 0.042208
1.000000 0.356250 0.041460
1.000000 0.356250 0.040713
1.000000 0.356250 0.039965
1.000000 0.356250 0.039218
1.000000 0.356250 0.038470
0.000000 0.385937 0.060923
0.063067 0.385937 0.060175
0.113679 0.385937 0.059428
0.160456 0.385937 0.058680
0.204906 0.385937 0.057933
0.247701 0.385937 0.057185
0.289223 0.385937 0.056438
0.329714 0.385937 0.055690
0.369343 0.385937 0.054943
0.408235 0.385937 0.054195
0.446482 0.385937 0.053448
0.484158 0.385937 0.052700
0.521324 0.385937 0.051953
0.558028 0.385937 0.051205
0.594309 0.385937 0.050458
0.630204 0.385937 0.049710
0.665742 0.385937 0.048963
0.700947 0.385937 0.048215
0.735843 0.385937 0.047468
0.770450 0.385937 0.046720
0.804784 0.385937 0.045973
0.838861 0.385937 0.045225
0.872696 0.385937 0.044478
0.906301 0.385937 0.043730
0.939687 0.385937 0.042983
0.972865 0.385937 0.042235
1.000000 0.385937 0.041488
1.000000 0.385937 0.040740
1.000000 0.385937 0.039993
1.000000 0.385937 0.039245
1.000000 0.385937 0.038498
1.000000 0.385937 0.037750
1.000000 0.385937 0.037003
0.000000 0.415625 0.059455
0.063067 0.415625 0.058708
0.113679 0.415625 0.057960
0.160456 0.415625 0.057212
0.204906 0.415625 0.056465
0.247701 0.415625 0.055718
0.289223 0.415625 0.054970
0.329714 0.415625 0.054223
0.369343 0.415625 0.053475
0.408235 0.415625 0.052728
0.446482 0.415625 0.051980
0.484158 0.415625 0.051233
0.521324 0.415625 0.050485
0.558028 0.415625 0.049738
0.594309 0.415625 0.048990
0.630204 0.415625 0.048243
0.665742 0.415625 0.047495
0.700947 0.415625 0.046747
0.735843 0.415625 0.046000
0.770450 0.415625 0.045253
0.804784 0.415625 0.044505
0.838861 0.415625 0.043758
0.872696 0.415625 0.043010
0.906301 0.415625 0.042263
0.939687 0.415625 0.041515
0.972865 0.415625 0.040768
1.000000 0.415625 0.040020
1.000000 0.415625 0.039273
1.000000 0.415625 0.038525
1.000000 0.415625 0.037778
1.000000 0.415625 0.037030
1.000000 0.415625 0.036282
1.000000 0.415625 0.035535
0.000000 0.445313 0.057988
0.063067 0.445313 0.057240
0.113679 0.445313 0.056493
0.160456 0.445313 0.055745
0.204906 0.445313 0.054998
0.247701 0.445313 0.054250
0.289223 0.445313 0.053503
0.329714 0.445313 0.052755
0.369343 0.445313 0.052008
0.408235 0.445313 0.051260
0.446482 0.445313 0.050512
0.484158 0.445313 0.049765
0.521324 0.445313 0.049018
0.558028 0.445313 0.048270
0.594309 0.445313 0.047523
0.630204 0.445313 0.046775
0.665742 0.445313 0.046028
0.700947 0.445313 0.045280
0.735843 0.445313 0.044533
0.770450 0.445313 0.043785
0.804784 0.445313 0.043038
0.838861 0.445313 0.042290
0.872696 0.445313 0.041543
0.906301 0.445313 0.040795
0.939687 0.445313 0.040047
0.972865 0.445313 0.039300
1.000000 0.445313 0.038553
1.000000 0.445313 0.037805
1.000000 0.445313 0.037058
1.000000 0.445313 0.036310
1.000000 0.445313 0.035563
1.000000 0.445313 0.034815
1.000000 0.445313 0.034068
0.000000 0.475000 0.056520
0.063067 0.475000 0.055773
0.113679 0.475000 0.055025
0.160456 0.475000 0.054278
0.204906 0.475000 0.053530
0.247701 0.475000 0.052783
0.289223 0.475000 0.052035
0.329714 0.475000 0.051288
0.369343 0.475000 0.050540
0.408235 0.475000 0.049793
0.446482 0.475000 0.049045
0.484158 0.475000 0.048298
0.521324 0.475000 0.047550
0.558028 0.475000 0.046803
0.594309 0.475000 0.046055
0.630204 0.475000 0.045308
0.665742 0.475000 0.044560
0.700947 0.475000 0.043813
0.735843 0.475000 0.043065
0.770450 0.475000 0.042318
0.804784 0.475000 0.041570
0.838861 0.475000 0.040823
0.872696 0.475000 0.040075
0.906301 0.475000 0.039328
0.939687 0.475000 0.038580
0.972865 0.475000 0.037833
1.000000 0.475000 0.037085
1.000000 0.475000 0.036338
1.000000 0.475000 0.035590
1.000000 0.475000 0.034843
1.000000 0.475000 0.034095
1.000000 0.475000 0.033347
1.000000 0.475000 0.032600
0.000000 0.504687 0.055053
0.063067 0.504687 0.054305
0.113679 0.504687 0.053558
0.160456 0.504687 0.052810
0.204906 0.504687 0.052063
0.247701 0.504687 0.051315
0.289223 0.504687 0.050568
0.329714 0.504687 0.049820
0.369343 0.504687 0.049073
0.408235 0.504687 0.048325
0.446482 0.504687 0.047578
0.484158 0.504687 0.046830
0.521324 0.504687 0.046083
0.558028 0.504687 0.045335
0.594309 0.504687 0.044588
0.630204 0.504687 0.043840
0.665742 0.504687 0.043093
0.700947 0.504687 0.042345
0.735843 0.504687 0.041598
0.770450 0.504687 0.040850
0.804784 0.504687 0.040103
0.838861 0.504687 0.039355
0.872696 0.504687 0.038608
0.906301 0.504687 0.037860
0.939687 0.504687 0.037112
0.972865 0.504687 0.036365
1.000000 0.504687 0.035618
1.000000 0.504687 0.034870
1.000000 0.504687 0.034123
1.000000 0.504687 0.033375
1.000000 0.504687 0.032628
1.000000 0.504687 0.031880
1.000000 0.504687 0.031133
0.000000 0.534375 0.053585
0.063067 0.534375 0.052838
0.113679 0.534375 0.052090
0.160456 0.534375 0.051343
0.204906 0.534375 0.050595
0.247701 0.534375 0.049848
0.289223 0.534375 0.049100
0.329714 0.534375 0.048353
0.369343 0.534375 0.047605
0.408235 0.534375 0.046858
0.446482 0.534375 0.046110
0.484158 0.534375 0.045363
0.521324 0.534375 0.044615
0.558028 0.534375 0.043868
0.594309 0.534375 0.043120
0.630204 0.534375 0.042373
0.665742 0.534375 0.041625
0.700947 0.534375 0.040878
0.735843 0.534375 0.040130
0.770450 0.534375 0.039383
0.804784 0.534375 0.038635
0.838861 0.534375 0.037888
0.872696 0.534375 0.037140
0.906301 0.534375 0.036393
0.939687 0.534375 0.035645
0.972865 0.534375 0.034898
1.000000 0.534375 0.034150
1.000000 0.534375 0.033403
1.000000 0.534375 0.032655
1.000000 0.534375 0.031908
1.000000 0.534375 0.031160
1.000000 0.534375 0.030412
1.000000 0.534375 0.029665
0.000000 0.564063 0.052118
0.063067 0.564063 0.051370
0.113679 0.564063 0.050623
0.160456 0.564063 0.049875
0.204906 0.564063 0.049128
0.247701 0.564063 0.048380
0.289223 0.564063 0.047633
0.329714 0.564063 0.046885
0.369343 0.564063 0.046138
0.408235 0.564063 0.045390
0.446482 0.564063 0.044643
0.484158 0.564063 0.043895
0.521324 0.564063 0.043148
0.558028 0.564063 0.042400
0.594309 0.564063 0.041653
0.630204 0.564063 0.040905
0.665742 0.564063 0.040158
0.700947 0.564063 0.039410
0.735843 0.564063 0.038663
0.770450 0.564063 0.037915
0.804784 0.564063 0.037168
0.838861 0.564063 0.036420
0.872696 0.564063 0.035673
0.906301 0.564063 0.034925
0.939687 0.564063 0.034177
0.972865 0.564063 0.033430
1.000000 0.564063 0.032683
1.000000 0.564063 0.031935
1.000000 0.564063 0.031188
1.000000 0.564063 0.030440
1.000000 0.564063 0.029693
1.000000 0.564063 0.028945
1.000000 0.564063 0.028198
0.000000 0.593750 0.050650
0.063067 0.593750 0.049903
0.113679 0.593750 0.049155
0.160456 0.593750 0.048408
0.204906 0.593750 0.047660
0.247701 0.593750 0.046913
0.289223 0.593750 0.046165
0.329714 0.593750 0.045418
0.369343 0.593750 0.044670
0.408235 0.593750 0.043923
0.446482 0.593750 0.043175
0.484158 0.593750 0.042428
0.521324 0.593750 0.041680
0.558028 0.593750 0.040933
0.594309 0.593750 0.040185
0.630204 0.593750 0.039438
0.665742 0.593750 0.038690
0.700947 0.593750 0.037943
0.735843 0.593750 0.037195
0.770450 0.593750 0.036448
0.804784 0.593750 0.035700
0.838861 0.593750 0.034953
0.872696 0.593750 0.034205
0.906301 0.593750 0.033458
0.939687 0.593750 0.032710
0.972865 0.593750 0.031963
1.000000 0.593750 0.031215
1.000000 0.593750 0.030468
1.000000 0.593750 0.029720
1.000000 0.593750 0.028973
1.000000 0.593750 0.028225
1.000000 0.593750 0.027478
1.000000 0.593750 0.026730
0.000000 0.623437 0.049183
0.063067 0.623437 0.048435
0.113679 0.623437 0.047688
0.160456 0.623437 0.046940
0.204906 0.623437 0.046193
0.247701 0.623437 0.045445
0.289223 0.623437 0.044698
0.329714 0.623437 0.043950
0.369343 0.623437 0.043203
0.408235 0.623437 0.042455
0.446482 0.623437 0.041708
0.484158 0.623437 0.040960
0.521324 0.623437 0.040213
0.558028 0.623437 0.039465
0.594309 0.623437 0.038718
0.630204 0.623437 0.037970
0.665742 0.623437 0.037223
0.700947 0.623437 0.036475
0.735843 0.623437 0.035728
0.770450 0.623437 0.034980
0.804784 0.623437 0.034233
0.838861 0.623437 0.033485
0.872696 0.623437 0.032737
0.906301 0.623437 0.031990
0.939687 0.623437 0.031243
0.972865 0.623437 0.030495
1.000000 0.623437 0.029748
1.000000 0.623437 0.029000
1.000000 0.623437 0.028253
1.000000 0.623437 0.027505
1.000000 0.623437 0.026758
1.000000 0.623437 0.026010
1.000000 0.623437 0.025263
0.000000 0.653125 0.047715
0.063067 0.653125 0.046968
0.113679 0.653125 0.046220
0.160456 0.653125 0.045473
0.204906 0.653125 0.044725
0.247701 0.653125 0.043978
0.289223 0.653125 0.043230
0.329714 0.653125 0.042483
0.369343 0.653125 0.041735
0.408235 0.653125 0.040988
0.446482 0.653125 0.040240
0.484158 0.653125 0.039493
0.521324 0.653125 0.038745
0.558028 0.653125 0.037998
0.594309 0.653125 0.037250
0.630204 0.653125 0.036503
0.665742 0.653125 0.035755
0.700947 0.653125 0.035008
0.735843 0.653125 0.034260
0.770450 0.653125 0.033513
0.804784 0.653125 0.032765
0.838861 0.653125 0.032018
0.872696 0.653125 0.031270
0.906301 0.653125 0.030523
0.939687 0.653125 0.029775
0.972865 0.653125 0.029028
1.000000 0.653125 0.028280
1.000000 0.653125 0.027533
1.000000 0.653125 0.026785
1.000000 0.653125 0.026037
1.000000 0.653125 0.025290
1.000000 0.653125 0.024543
1.000000 0.653125 0.023795
0.000000 0.682812 0.046248
0.063067 0.682812 0.045500
0.113679 0.682812 0.044753
0.160456 0.682812 0.044005
0.204906 0.682812 0.043258
0.247701 0.682812 0.042510
0.289223 0.682812 0.041763
0.329714 0.682812 0.041015
0.369343 0.682812 0.040268
0.408235 0.682812 0.039520
0.446482 0.682812 0.038773
0.484158 0.682812 0.038025
0.521324 0.682812 0.037278
0.558028 0.682812 0.036530
0.594309 0.682812 0.035783
0.630204 0.682812 0.035035
0.665742 0.682812 0.034288
0.700947 0.682812 0.033540
0.735843 0.682812 0.032793
0.770450 0.682812 0.032045
0.804784 0.682812 0.031298
0.838861 0.682812 0.030550
0.872696 0.682812 0.029802
0.906301 0.682812 0.029055
0.939687 0.682812 0.028308
0.972865 0.682812 0.027560
1.000000 0.682812 0.026813
1.000000 0.682812 0.026065
1.000000 0.682812 0.025318
1.000000 0.682812 0.024570
1.000000 0.682812 0.023823
1.000000 0.682812 0.023075
1.000000 0.682812 0.022328
0.000000 0.712500 0.044780
0.063067 0.712500 0.044033
0.113679 0.712500 0.043285
0.160456 0.712500 0.042538
0.204906 0.712500 0.041790
0.247701 0.712500 0.041043
0.289223 0.712500 0.040295
0.329714 0.712500 0.039548
0.369343 0.712500 0.038800
0.408235 0.712500 0.038053
0.446482 0.712500 0.037305
0.484158 0.712500 0.036558
0.521324 0.712500 0.035810
0.558028 0.712500 0.035063
0.594309 0.712500 0.034315
0.630204 0.712500 0.033568
0.665742 0.712500 0.032820
0.700947 0.712500 0.032073
0.735843 0.712500 0.031325
0.770450 0.712500 0.030578
0.804784 0.712500 0.029830
0.838861 0.712500 0.029083
0.872696 0.712500 0.028335
0.906301 0.712500 0.027588
0.939687 0.712500 0.026840
0.972865 0.712500 0.026093
1.000000 0.712500 0.025345
1.000000 0.712500 0.024597
1.000000 0.712500 0.023850
1.000000 0.712500 0.023103
1.000000 0.712500 0.022355
1.000000 0.712500 0.021608
1.000000 0.712500 0.020860
0.000000 0.742188 0.043313
0.063067 0.742188 0.042565
0.113679 0.742188 0.041818
0.160456 0.742188 0.041070
0.204906 0.742188 0.040323
0.247701 0.742188 0.039575
0.289223 0.742188 0.038828
0.329714 0.742188 0.038080
0.369343 0.742188 0.037333
0.408235 0.742188 0.036585
0.446482 0.742188 0.035838
0.484158 0.742188 0.035090
0.521324 0.742188 0.034343
0.558028 0.742188 0.033595
0.594309 0.742188 0.032848
0.630204 0.742188 0.032100
0.665742 0.742188 0.031353
0.700947 0.742188 0.030605
0.735843 0.742188 0.029858
0.770450 0.742188 0.029110
0.804784 0.742188 0.028363
0.838861 0.742188 0.027615
0.872696 0.742188 0.026868
0.906301 0.742188 0.026120
0.939687 0.742188 0.025373
0.972865 0.742188 0.024625
1.000000 0.742188 0.023878
1.000000 0.742188 0.023130
1.000000 0.742188 0.022383
1.000000 0.742188 0.021635
1.000000 0.742188 0.020888
1.000000 0.742188 0.020140
1.000000 0.742188 0.019393
0.000000 0.771875 0.041845
0.063067 0.771875 0.041098
0.113679 0.771875 0.040350
0.160456 0.771875 0.039603
0.204906 0.771875 0.038855
0.247701 0.771875 0.038108
0.289223 0.771875 0.037360
0.329714 0.771875 0.036613
0.369343 0.771875 0.035865
0.408235 0.771875 0.035118
0.446482 0.771875 0.034370
0.484158 0.771875 0.033623
0.521324 0.771875 0.032875
0.558028 0.771875 0.032128
0.594309 0.771875 0.031380
0.630204 0.771875 0.030633
0.665742 0.771875 0.029885
0.700947 0.771875 0.029138
0.735843 0.771875 0.028390
0.770450 0.771875 0.027643
0.804784 0.771875 0.026895
0.838861 0.771875 0.026148
0.872696 0.771875 0.025400
0.906301 0.771875 0.024653
0.939687 0.771875 0.023905
0.972865 0.771875 0.023158
