resources/luts/warm-sunset.cube
# KomfyEdit 3D LUT: warm-sunset
TITLE "warm-sunset"
LUT_3D_SIZE 9
DOMAIN_MIN 0.0 0.0 0.0
DOMAIN_MAX 1.0 1.0 1.0
0.000000 0.000000 0.080000
0.204906 0.000000 0.077010
0.369343 0.000000 0.074020
0.521324 0.000000 0.071030
0.665742 0.000000 0.068040
0.804784 0.000000 0.065050
0.939687 0.000000 0.062060
1.000000 0.000000 0.059070
1.000000 0.000000 0.056080
0.000000 0.118750 0.074130
0.204906 0.118750 0.071140
0.369343 0.118750 0.068150
0.521324 0.118750 0.065160
0.665742 0.118750 0.062170
0.804784 0.118750 0.059180
0.939687 0.118750 0.056190
1.000000 0.118750 0.053200
1.000000 0.118750 0.050210
0.000000 0.237500 0.068260
0.204906 0.237500 0.065270
0.369343 0.237500 0.062280
0.521324 0.237500 0.059290
0.665742 0.237500 0.056300
0.804784 0.237500 0.053310
0.939687 0.237500 0.050320
1.000000 0.237500 0.047330
1.000000 0.237500 0.044340
0.000000 0.356250 0.062390
0.204906 0.356250 0.059400
0.369343 0.356250 0.056410
0.521324 0.356250 0.053420
0.665742 0.356250 0.050430
0.804784 0.356250 0.047440
0.939687 0.356250 0.044450
1.000000 0.356250 0.041460
1.000000 0.356250 0.038470
0.000000 0.475000 0.056520
0.204906 0.475000 0.053530
0.369343 0.475000 0.050540
0.521324 0.475000 0.047550
0.665742 0.475000 0.044560
0.804784 0.475000 0.041570
0.939687 0.475000 0.038580
1.000000 0.475000 0.035590
1.000000 0.475000 0.032600
0.000000 0.593750 0.050650
0.204906 0.593750 0.047660
0.369343 0.593750 0.044670
0.521324 0.593750 0.041680
0.665742 0.593750 0.038690
0.804784 0.593750 0.035700
0.939687 0.593750 0.032710
1.000000 0.593750 0.029720
1.000000 0.593750 0.026730
0.000000 0.712500 0.044780
0.204906 0.712500 0.041790
0.369343 0.712500 0.038800
0.521324 0.712500 0.035810
0.665742 0.712500 0.032820
0.804784 0.712500 0.029830
0.939687 0.712500 0.026840
1.000000 0.712500 0.023850
1.000000 0.712500 0.020860
0.000000 0.831250 0.038910
0.204906 0.831250 0.035920
0.369343 0.831250 0.032930
0.521324 0.831250 0.029940
0.665742 0.831250 0.026950
0.804784 0.831250 0.023960
0.939687 0.831250 0.020970
1.000000 0.831250 0.017980
1.000000 0.831250 0.014990
0.000000 0.950000 0.033040
0.204906 0.950000 0.030050
0.369343 0.950000 0.027060
0.521324 0.950000 0.024070
0.665742 0.950000 0.021080
0.804784 0.950000 0.018090
0.939687 0.950000 0.015100
1.000000 0.950000 0.012110
1.000000 0.950000 0.009120
0.000000 0.000000 0.161215
0.204906 0.000000 0.158225
0.369343 0.000000 0.155235
0.521324 0.000000 0.152245
0.665742 0.000000 0.149255
0.804784 0.000000 0.146265
0.939687 0.000000 0.143275
1.000000 0.000000 0.140285
1.000000 0.000000 0.137295
0.000000 0.118750 0.155345
0.204906 0.118750 0.152355
0.369343 0.118750 0.149365
0.521324 0.118750 0.146375
0.665742 0.118750 0.143385
0.804784 0.118750 0.140395
0.939687 0.118750 0.137405
1.000000 0.118750 0.134415
1.000000 0.118750 0.131425
0.000000 0.237500 0.149475
0.204906 0.237500 0.146485
0.369343 0.237500 0.143495
0.521324 0.237500 0.140505
0.665742 0.237500 0.137515
0.804784 0.237500 0.134525
0.939687 0.237500 0.131535
1.000000 0.237500 0.128545
1.000000 0.237500 0.125555
0.000000 0.356250 0.143605
0.204906 0.356250 0.140615
0.369343 0.356250 0.137625
0.521324 0.356250 0.134635
0.665742 0.356250 0.131645
0.804784 0.356250 0.128655
0.939687 0.356250 0.125665
1.000000 0.356250 0.122675
1.000000 0.356250 0.119685
0.000000 0.475000 0.137735
0.204906 0.475000 0.134745
0.369343 0.475000 0.131755
0.521324 0.475000 0.128765
0.665742 0.475000 0.125775
0.804784 0.475000 0.122785
0.939687 0.475000 0.119795
1.000000 0.475000 0.116805
1.000000 0.475000 0.113815
0.000000 0.593750 0.131865
0.204906 0.593750 0.128875
0.369343 0.593750 0.125885
0.521324 0.593750 0.122895
0.665742 0.593750 0.119905
0.804784 0.593750 0.116915
0.939687 0.593750 0.113925
1.000000 0.593750 0.110935
1.000000 0.593750 0.107945
0.000000 0.712500 0.125995
0.204906 0.712500 0.123005
0.369343 0.712500 0.120015
0.521324 0.712500 0.117025
0.665742 0.712500 0.114035
0.804784 0.712500 0.111045
0.939687 0.712500 0.108055
1.000000 0.712500 0.105065
1.000000 0.712500 0.102075
0.000000 0.831250 0.120125
0.204906 0.831250 0.117135
0.369343 0.831250 0.114145
0.521324 0.831250 0.111155
0.665742 0.831250 0.108165
0.804784 0.831250 0.105175
0.939687 0.831250 0.102185
1.000000 0.831250 0.099195
1.000000 0.831250 0.096205
0.000000 0.950000 0.114255
0.204906 0.950000 0.111265
0.369343 0.950000 0.108275
0.521324 0.950000 0.105285
0.665742 0.950000 0.102295
0.804784 0.950000 0.099305
0.939687 0.950000 0.096315
1.000000 0.950000 0.093325
1.000000 0.950000 0.090335
0.000000 0.000000 0.260477
0.204906 0.000000 0.257487
0.369343 0.000000 0.254497
0.521324 0.000000 0.251507
0.665742 0.000000 0.248517
0.804784 0.000000 0.245527
0.939687 0.000000 0.242537
1.000000 0.000000 0.239547
1.000000 0.000000 0.236557
0.000000 0.118750 0.254607
0.204906 0.118750 0.251617
0.369343 0.118750 0.248627
0.521324 0.118750 0.245637
0.665742 0.118750 0.242647
0.804784 0.118750 0.239657
0.939687 0.118750 0.236667
1.000000 0.118750 0.233677
1.000000 0.118750 0.230687
0.000000 0.237500 0.248737
0.204906 0.237500 0.245747
0.369343 0.237500 0.242757
0.521324 0.237500 0.239767
0.665742 0.237500 0.236777
0.804784 0.237500 0.233787
0.939687 0.237500 0.230797
1.000000 0.237500 0.227807
1.000000 0.237500 0.224817
0.000000 0.356250 0.242867
0.204906 0.356250 0.239877
0.369343 0.356250 0.236887
0.521324 0.356250 0.233897
0.665742 0.356250 0.230907
0.804784 0.356250 0.227917
0.939687 0.356250 0.224927
1.000000 0.356250 0.221937
1.000000 0.356250 0.218947
0.000000 0.475000 0.236997
0.204906 0.475000 0.234007
0.369343 0.475000 0.231017
0.521324 0.475000 0.228027
0.665742 0.475000 0.225037
0.804784 0.475000 0.222047
0.939687 0.475000 0.219057
1.000000 0.475000 0.216067
1.000000 0.475000 0.213077
0.000000 0.593750 0.231127
0.204906 0.593750 0.228137
0.369343 0.593750 0.225147
0.521324 0.593750 0.222157
0.665742 0.593750 0.219167
0.804784 0.593750 0.216177
0.939687 0.593750 0.213187
1.000000 0.593750 0.210197
1.000000 0.593750 0.207207
0.000000 0.712500 0.225257
0.204906 0.712500 0.222267
0.369343 0.712500 0.219277
0.521324 0.712500 0.216287
0.665742 0.712500 0.213297
0.804784 0.712500 0.210307
0.939687 0.712500 0.207317
1.000000 0.712500 0.204327
1.000000 0.712500 0.201337
0.000000 0.831250 0.219387
0.204906 0.831250 0.216397
0.369343 0.831250 0.213407
0.521324 0.831250 0.210417
0.665742 0.831250 0.207427
0.804784 0.831250 0.204437
0.939687 0.831250 0.201447
1.000000 0.831250 0.198457
1.000000 0.831250 0.195467
0.000000 0.950000 0.213517
0.204906 0.950000 0.210527
0.369343 0.950000 0.207537
0.521324 0.950000 0.204547
0.665742 0.950000 0.201557
0.804784 0.950000 0.198567
0.939687 0.950000 0.195577
1.000000 0.950000 0.192587
1.000000 0.950000 0.189597
0.000000 0.000000 0.367905
0.204906 0.000000 0.364915
0.369343 0.000000 0.361925
0.521324 0.000000 0.358935
0.665742 0.000000 0.355945
0.804784 0.000000 0.352955
0.939687 0.000000 0.349965
1.000000 0.000000 0.346975
1.000000 0.000000 0.343985
0.000000 0.118750 0.362035
0.204906 0.118750 0.359045
0.369343 0.118750 0.356055
0.521324 0.118750 0.353065
0.665742 0.118750 0.350075
0.804784 0.118750 0.347085
0.939687 0.118750 0.344095
1.000000 0.118750 0.341105
1.000000 0.118750 0.338115
0.000000 0.237500 0.356165
0.204906 0.237500 0.353175
0.369343 0.237500 0.350185
0.521324 0.237500 0.347195
0.665742 0.237500 0.344205
0.804784 0.237500 0.341215
0.939687 0.237500 0.338225
1.000000 0.237500 0.335235
1.000000 0.237500 0.332245
0.000000 0.356250 0.350295
0.204906 0.356250 0.347305
0.369343 0.356250 0.344315
0.521324 0.356250 0.341325
0.665742 0.356250 0.338335
0.804784 0.356250 0.335345
0.939687 0.356250 0.332355
1.000000 0.356250 0.329365
1.000000 0.356250 0.326375
0.000000 0.475000 0.344425
0.204906 0.475000 0.341435
0.369343 0.475000 0.338445
0.521324 0.475000 0.335455
0.665742 0.475000 0.332465
0.804784 0.475000 0.329475
0.939687 0.475000 0.326485
1.000000 0.475000 0.323495
1.000000 0.475000 0.320505
0.000000 0.593750 0.338555
0.204906 0.593750 0.335565
0.369343 0.593750 0.332575
0.521324 0.593750 0.329585
0.665742 0.593750 0.326595
0.804784 0.593750 0.323605
0.939687 0.593750 0.320615
1.000000 0.593750 0.317625
1.000000 0.593750 0.314635
0.000000 0.712500 0.332685
0.204906 0.712500 0.329695
0.369343 0.712500 0.326705
0.521324 0.712500 0.323715
0.665742 0.712500 0.320725
0.804784 0.712500 0.317735
0.939687 0.712500 0.314745
1.000000 0.712500 0.311755
1.000000 0.712500 0.308765
0.000000 0.831250 0.326815
0.204906 0.831250 0.323825
0.369343 0.831250 0.320835
0.521324 0.831250 0.317845
0.665742 0.831250 0.314855
0.804784 0.831250 0.311865
0.939687 0.831250 0.308875
1.000000 0.831250 0.305885
1.000000 0.831250 0.302895
0.000000 0.950000 0.320945
0.204906 0.950000 0.317955
0.369343 0.950000 0.314965
0.521324 0.950000 0.311975
0.665742 0.950000 0.308985
0.804784 0.950000 0.305995
0.939687 0.950000 0.303005
1.000000 0.950000 0.300015
1.000000 0.950000 0.297025
0.000000 0.000000 0.481003
0.204906 0.000000 0.478013
0.369343 0.000000 0.475023
0.521324 0.000000 0.472033
0.665742 0.000000 0.469043
0.804784 0.000000 0.466053
0.939687 0.000000 0.463063
1.000000 0.000000 0.460073
1.000000 0.000000 0.457083
0.000000 0.118750 0.475133
0.204906 0.118750 0.472143
0.369343 0.118750 0.469153
0.521324 0.118750 0.466163
0.665742 0.118750 0.463173
0.804784 0.118750 0.460183
0.939687 0.118750 0.457193
1.000000 0.118750 0.454203
1.000000 0.118750 0.451213
0.000000 0.237500 0.469263
0.204906 0.237500 0.466273
0.369343 0.237500 0.463283
0.521324 0.237500 0.460293
0.665742 0.237500 0.457303
0.804784 0.237500 0.454313
0.939687 0.237500 0.451323
1.000000 0.237500 0.448333
1.000000 0.237500 0.445343
0.000000 0.356250 0.463393
0.204906 0.356250 0.460403
0.369343 0.356250 0.457413
0.521324 0.356250 0.454423
0.665742 0.356250 0.451433
0.804784 0.356250 0.448443
0.939687 0.356250 0.445453
1.000000 0.356250 0.442463
1.000000 0.356250 0.439473
0.000000 0.475000 0.457523
0.204906 0.475000 0.454533
0.369343 0.475000 0.451543
0.521324 0.475000 0.448553
0.665742 0.475000 0.445563
0.804784 0.475000 0.442573
0.939687 0.475000 0.439583
1.000000 0.475000 0.436593
1.000000 0.475000 0.433603
0.000000 0.593750 0.451653
0.204906 0.593750 0.448663
0.369343 0.593750 0.445673
0.521324 0.593750 0.442683
0.665742 0.593750 0.439693
0.804784 0.593750 0.436703
0.939687 0.593750 0.433713
1.000000 0.593750 0.430723
1.000000 0.593750 0.427733
0.000000 0.712500 0.445783
0.204906 0.712500 0.442793
0.369343 0.712500 0.439803
0.521324 0.712500 0.436813
0.665742 0.712500 0.433823
0.804784 0.712500 0.430833
0.939687 0.712500 0.427843
1.000000 0.712500 0.424853
1.000000 0.712500 0.421863
0.000000 0.831250 0.439913
0.204906 0.831250 0.436923
0.369343 0.831250 0.433933
0.521324 0.831250 0.430943
0.665742 0.831250 0.427953
0.804784 0.831250 0.424963
0.939687 0.831250 0.421973
1.000000 0.831250 0.418983
1.000000 0.831250 0.415993
0.000000 0.950000 0.434043
0.204906 0.950000 0.431053
0.369343 0.950000 0.428063
0.521324 0.950000 0.425073
0.665742 0.950000 0.422083
0.804784 0.950000 0.419093
0.939687 0.950000 0.416103
1.000000 0.950000 0.413113
1.000000 0.950000 0.410123
0.000000 0.000000 0.598509
0.204906 0.000000 0.595519
0.369343 0.000000 0.592529
0.521324 0.000000 0.589539
0.665742 0.000000 0.586549
0.804784 0.000000 0.583559
0.939687 0.000000 0.580569
1.000000 0.000000 0.577579
1.000000 0.000000 0.574589
0.000000 0.118750 0.592639
0.204906 0.118750 0.589649
0.369343 0.118750 0.586659
0.521324 0.118750 0.583669
0.665742 0.118750 0.580679
0.804784 0.118750 0.577689
0.939687 0.118750 0.574699
1.000000 0.118750 0.571709
1.000000 0.118750 0.568719
0.000000 0.237500 0.586769
0.204906 0.237500 0.583779
0.369343 0.237500 0.580789
0.521324 0.237500 0.577799
0.665742 0.237500 0.574809
0.804784 0.237500 0.571819
0.939687 0.237500 0.568829
1.000000 0.237500 0.565839
1.000000 0.237500 0.562849
0.000000 0.356250 0.580899
0.204906 0.356250 0.577909
0.369343 0.356250 0.574919
0.521324 0.356250 0.571929
0.665742 0.356250 0.568939
0.804784 0.356250 0.565949
0.939687 0.356250 0.562959
1.000000 0.356250 0.559969
1.000000 0.356250 0.556979
0.000000 0.475000 0.575029
0.204906 0.475000 0.572039
0.369343 0.475000 0.569049
0.521324 0.475000 0.566059
0.665742 0.475000 0.563069
0.804784 0.475000 0.560079
0.939687 0.475000 0.557089
1.000000 0.475000 0.554099
1.000000 0.475000 0.551109
0.000000 0.593750 0.569159
0.204906 0.593750 0.566169
0.369343 0.593750 0.563179
0.521324 0.593750 0.560189
0.665742 0.593750 0.557199
0.804784 0.593750 0.554209
0.939687 0.593750 0.551219
1.000000 0.593750 0.548229
1.000000 0.593750 0.545239
0.000000 0.712500 0.563289
0.204906 0.712500 0.560299
0.369343 0.712500 0.557309
0.521324 0.712500 0.554319
0.665742 0.712500 0.551329
0.804784 0.712500 0.548339
0.939687 0.712500 0.545349
1.000000 0.712500 0.542359
1.000000 0.712500 0.539369
0.000000 0.831250 0.557419
0.204906 0.831250 0.554429
0.369343 0.831250 0.551439
0.521324 0.831250 0.548449
0.665742 0.831250 0.545459
0.804784 0.831250 0.542469
0.939687 0.831250 0.539479
1.000000 0.831250 0.536489
1.000000 0.831250 0.533499
0.000000 0.950000 0.551549
0.204906 0.950000 0.548559
0.369343 0.950000 0.545569
0.521324 0.950000 0.542579
0.665742 0.950000 0.539589
0.804784 0.950000 0.536599
0.939687 0.950000 0.533609
1.000000 0.950000 0.530619
1.000000 0.950000 0.527629
0.000000 0.000000 0.719652
0.204906 0.000000 0.716662
0.369343 0.000000 0.713672
0.521324 0.000000 0.710682
0.665742 0.000000 0.707692
0.804784 0.000000 0.704702
0.939687 0.000000 0.701712
1.000000 0.000000 0.698722
1.000000 0.000000 0.695732
0.000000 0.118750 0.713782
0.204906 0.118750 0.710792
0.369343 0.118750 0.707802
0.521324 0.118750 0.704812
0.665742 0.118750 0.701822
0.804784 0.118750 0.698832
0.939687 0.118750 0.695842
1.000000 0.118750 0.692852
1.000000 0.118750 0.689862
0.000000 0.237500 0.707912
0.204906 0.237500 0.704922
0.369343 0.237500 0.701932
0.521324 0.237500 0.698942
0.665742 0.237500 0.695952
0.804784 0.237500 0.692962
0.939687 0.237500 0.689972
1.000000 0.237500 0.686982
1.000000 0.237500 0.683992
0.000000 0.356250 0.702042
0.204906 0.356250 0.699052
0.369343 0.356250 0.696062
0.521324 0.356250 0.693072
0.665742 0.356250 0.690082
0.804784 0.356250 0.687092
0.939687 0.356250 0.684102
1.000000 0.356250 0.681112
1.000000 0.356250 0.678122
0.000000 0.475000 0.696172
0.204906 0.475000 0.693182
0.369343 0.475000 0.690192
0.521324 0.475000 0.687202
0.665742 0.475000 0.684212
0.804784 0.475000 0.681222
0.939687 0.475000 0.678232
1.000000 0.475000 0.675242
1.000000 0.475000 0.672252
0.000000 0.593750 0.690302
0.204906 0.593750 0.687312
0.369343 0.593750 0.684322
0.521324 0.593750 0.681332
0.665742 0.593750 0.678342
0.804784 0.593750 0.675352
0.939687 0.593750 0.672362
1.000000 0.593750 0.669372
1.000000 0.593750 0.666382
0.000000 0.712500 0.684432
0.204906 0.712500 0.681442
0.369343 0.712500 0.678452
0.521324 0.712500 0.675462
0.665742 0.712500 0.672472
0.804784 0.712500 0.669482
0.939687 0.712500 0.666492
1.000000 0.712500 0.663502
1.000000 0.712500 0.660512
0.000000 0.831250 0.678562
0.204906 0.831250 0.675572
0.369343 0.831250 0.672582
0.521324 0.831250 0.669592
0.665742 0.831250 0.666602
0.804784 0.831250 0.663612
0.939687 0.831250 0.660622
1.000000 0.831250 0.657632
1.000000 0.831250 0.654642
0.000000 0.950000 0.672692
0.204906 0.950000 0.669702
0.369343 0.950000 0.666712
0.521324 0.950000 0.663722
0.665742 0.950000 0.660732
0.804784 0.950000 0.657742
0.939687 0.950000 0.654752
1.000000 0.950000 0.651762
1.000000 0.950000 0.648772
0.000000 0.000000 0.843904
0.204906 0.000000 0.840914
0.369343 0.000000 0.837924
0.521324 0.000000 0.834934
0.665742 0.000000 0.831944
0.804784 0.000000 0.828954
0.939687 0.000000 0.825964
1.000000 0.000000 0.822974
1.000000 0.000000 0.819984
0.000000 0.118750 0.838034
0.204906 0.118750 0.835044
0.369343 0.118750 0.832054
0.521324 0.118750 0.829064
0.665742 0.118750 0.826074
0.804784 0.118750 0.823084
0.939687 0.118750 0.820094
1.000000 0.118750 0.817104
1.000000 0.118750 0.814114
0.000000 0.237500 0.832164
0.204906 0.237500 0.829174
0.369343 0.237500 0.826184
0.521324 0.237500 0.823194
0.665742 0.237500 0.820204
0.804784 0.237500 0.817214
0.939687 0.237500 0.814224
1.000000 0.237500 0.811234
1.000000 0.237500 0.808244
0.000000 0.356250 0.826294
0.204906 0.356250 0.823304
0.369343 0.356250 0.820314
0.521324 0.356250 0.817324
0.665742 0.356250 0.814334
0.804784 0.356250 0.811344
0.939687 0.356250 0.808354
1.000000 0.356250 0.805364
1.000000 0.356250 0.802374
0.000000 0.475000 0.820424
0.204906 0.475000 0.817434
0.369343 0.475000 0.814444
0.521324 0.475000 0.811454
0.665742 0.475000 0.808464
0.804784 0.475000 0.805474
0.939687 0.475000 0.802484
1.000000 0.475000 0.799494
1.000000 0.475000 0.796504
0.000000 0.593750 0.814554
0.204906 0.593750 0.811564
0.369343 0.593750 0.808574
0.521324 0.593750 0.805584
0.665742 0.593750 0.802594
0.804784 0.593750 0.799604
0.939687 0.593750 0.796614
1.000000 0.593750 0.793624
1.000000 0.593750 0.790634
0.000000 0.712500 0.808684
0.204906 0.712500 0.805694
0.369343 0.712500 0.802704
0.521324 0.712500 0.799714
0.665742 0.712500 0.796724
0.804784 0.712500 0.793734
0.939687 0.712500 0.790744
1.000000 0.712500 0.787754
1.000000 0.712500 0.784764
0.000000 0.831250 0.802814
0.204906 0.831250 0.799824
0.369343 0.831250 0.796834
0.521324 0.831250 0.793844
0.665742 0.831250 0.790854
0.804784 0.831250 0.787864
0.939687 0.831250 0.784874
1.000000 0.831250 0.781884
1.000000 0.831250 0.778894
0.000000 0.950000 0.796944
0.204906 0.950000 0.793954
0.369343 0.950000 0.790964
0.521324 0.950000 0.787974
0.665742 0.950000 0.784984
0.804784 0.950000 0.781994
0.939687 0.950000 0.779004
1.000000 0.950000 0.776014
1.000000 0.950000 0.773024
0.000000 0.000000 0.970880
0.204906 0.000000 0.967890
0.369343 0.000000 0.964900
0.521324 0.000000 0.961910
0.665742 0.000000 0.958920
0.804784 0.000000 0.955930
0.939687 0.000000 0.952940
1.000000 0.000000 0.949950
1.000000 0.000000 0.946960
0.000000 0.118750 0.965010
0.204906 0.118750 0.962020
0.369343 0.118750 0.959030
0.521324 0.118750 0.956040
0.665742 0.118750 0.953050
0.804784 0.118750 0.950060
0.939687 0.118750 0.947070
1.000000 0.118750 0.944080
1.000000 0.118750 0.941090
0.000000 0.237500 0.959140
0.204906 0.237500 0.956150
0.369343 0.237500 0.953160
0.521324 0.237500 0.950170
0.665742 0.237500 0.947180
0.804784 0.237500 0.944190
0.939687 0.237500 0.941200
1.000000 0.237500 0.938210
1.000000 0.237500 0.935220
0.000000 0.356250 0.953270
0.204906 0.356250 0.950280
0.369343 0.356250 0.947290
0.521324 0.356250 0.944300
0.665742 0.356250 0.941310
0.804784 0.356250 0.938320
0.939687 0.356250 0.935330
1.000000 0.356250 0.932340
1.000000 0.356250 0.929350
0.000000 0.475000 0.947400
0.204906 0.475000 0.944410
0.369343 0.475000 0.941420
0.521324 0.475000 0.938430
0.665742 0.475000 0.935440
0.804784 0.475000 0.932450
0.939687 0.475000 0.929460
1.000000 0.475000 0.926470
1.000000 0.475000 0.923480
0.000000 0.593750 0.941530
0.204906 0.593750 0.938540
0.369343 0.593750 0.935550
0.521324 0.593750 0.932560
0.665742 0.593750 0.929570
0.804784 0.593750 0.926580
0.939687 0.593750 0.923590
1.000000 0.593750 0.920600
1.000000 0.593750 0.917610
0.000000 0.712500 0.935660
0.204906 0.712500 0.932670
0.369343 0.712500 0.929680
0.521324 0.712500 0.926690
0.665742 0.712500 0.923700
0.804784 0.712500 0.920710
0.939687 0.712500 0.917720
1.000000 0.712500 0.914730
1.000000 0.712500 0.911740
0.000000 0.831250 0.929790
0.204906 0.831250 0.926800
0.369343 0.831250 0.923810
0.521324 0.831250 0.920820
0.665742 0.831250 0.917830
0.804784 0.831250 0.914840
0.939687 0.831250 0.911850
1.000000 0.831250 0.908860
1.000000 0.831250 0.905870
0.000000 0.950000 0.923920
0.204906 0.950000 0.920930
0.369343 0.950000 0.917940
0.521324 0.950000 0.914950
0.665742 0.950000 0.911960
0.804784 0.950000 0.908970
0.939687 0.950000 0.905980
1.000000 0.950000 0.902990
1.000000 0.950000 0.900000
