resources/luts/warm-sunset.cube
# KomfyEdit 3D LUT: warm-sunset
TITLE "warm-sunset"
LUT_3D_SIZE 5
DOMAIN_MIN 0.0 0.0 0.0
DOMAIN_MAX 1.0 1.0 1.0
0.000000 0.000000 0.080000
0.369343 0.000000 0.074020
0.665742 0.000000 0.068040
0.939687 0.000000 0.062060
1.000000 0.000000 0.056080
0.000000 0.237500 0.068260
0.369343 0.237500 0.062280
0.665742 0.237500 0.056300
0.939687 0.237500 0.050320
1.000000 0.237500 0.044340
0.000000 0.475000 0.056520
0.369343 0.475000 0.050540
0.665742 0.475000 0.044560
0.939687 0.475000 0.038580
1.000000 0.475000 0.032600
0.000000 0.712500 0.044780
0.369343 0.712500 0.038800
0.665742 0.712500 0.032820
0.939687 0.712500 0.026840
1.000000 0.712500 0.020860
0.000000 0.950000 0.033040
0.369343 0.950000 0.027060
0.665742 0.950000 0.021080
0.939687 0.950000 0.015100
1.000000 0.950000 0.009120
0.000000 0.000000 0.260477
0.369343 0.000000 0.254497
0.665742 0.000000 0.248517
0.939687 0.000000 0.242537
1.000000 0.000000 0.236557
0.000000 0.237500 0.248737
0.369343 0.237500 0.242757
0.665742 0.237500 0.236777
0.939687 0.237500 0.230797
1.000000 0.237500 0.224817
0.000000 0.475000 0.236997
0.369343 0.475000 0.231017
0.665742 0.475000 0.225037
0.939687 0.475000 0.219057
1.000000 0.475000 0.213077
0.000000 0.712500 0.225257
0.369343 0.712500 0.219277
0.665742 0.712500 0.213297
0.939687 0.712500 0.207317
1.000000 0.712500 0.201337
0.000000 0.950000 0.213517
0.369343 0.950000 0.207537
0.665742 0.950000 0.201557
0.939687 0.950000 0.195577
1.000000 0.950000 0.189597
0.000000 0.000000 0.481003
0.369343 0.000000 0.475023
0.665742 0.000000 0.469043
0.939687 0.000000 0.463063
1.000000 0.000000 0.457083
0.000000 0.237500 0.469263
0.369343 0.237500 0.463283
0.665742 0.237500 0.457303
0.939687 0.237500 0.451323
1.000000 0.237500 0.445343
0.000000 0.475000 0.457523
0.369343 0.475000 0.451543
0.665742 0.475000 0.445563
0.939687 0.475000 0.439583
1.000000 0.475000 0.433603
0.000000 0.712500 0.445783
0.369343 0.712500 0.439803
0.665742 0.712500 0.433823
0.939687 0.712500 0.427843
1.000000 0.712500 0.421863
0.000000 0.950000 0.434043
0.369343 0.950000 0.428063
0.665742 0.950000 0.422083
0.939687 0.950000 0.416103
1.000000 0.950000 0.410123
0.000000 0.000000 0.719652
0.369343 0.000000 0.713672
0.665742 0.000000 0.707692
0.939687 0.000000 0.701712
1.000000 0.000000 0.695732
0.000000 0.237500 0.707912
0.369343 0.237500 0.701932
0.665742 0.237500 0.695952
0.939687 0.237500 0.689972
1.000000 0.237500 0.683992
0.000000 0.475000 0.696172
0.369343 0.475000 0.690192
0.665742 0.475000 0.684212
0.939687 0.475000 0.678232
1.000000 0.475000 0.672252
0.000000 0.712500 0.684432
0.369343 0.712500 0.678452
0.665742 0.712500 0.672472
0.939687 0.712500 0.666492
1.000000 0.712500 0.660512
0.000000 0.950000 0.672692
0.369343 0.950000 0.666712
0.665742 0.950000 0.660732
0.939687 0.950000 0.654752
1.000000 0.950000 0.648772
0.000000 0.000000 0.970880
0.369343 0.000000 0.964900
0.665742 0.000000 0.958920
0.939687 0.000000 0.952940
1.000000 0.000000 0.946960
0.000000 0.237500 0.959140
0.369343 0.237500 0.953160
0.665742 0.237500 0.947180
0.939687 0.237500 0.941200
1.000000 0.237500 0.935220
0.000000 0.475000 0.947400
0.369343 0.475000 0.941420
0.665742 0.475000 0.935440
0.939687 0.475000 0.929460
1.000000 0.475000 0.923480
0.000000 0.712500 0.935660
0.369343 0.712500 0.929680
0.665742 0.712500 0.923700
0.939687 0.712500 0.917720
1.000000 0.712500 0.911740
0.000000 0.950000 0.923920
0.369343 0.950000 0.917940
0.665742 0.950000 0.911960
0.939687 0.950000 0.905980
1.000000 0.950000 0.900000
